; generated by Slic3r 1.2.9 on 2016-03-14 at 21:52:36

; external perimeters extrusion width = 0.40mm
; perimeters extrusion width = 0.67mm
; infill extrusion width = 0.67mm
; solid infill extrusion width = 0.67mm
; top infill extrusion width = 0.67mm

M190 S75 ; set bed temperature
M104 S200 ; set temperature
G28 ; home all axes
G1 Z5 F5000 ; lift nozzle

M109 S200 ; wait for temperature to be reached
G21 ; set units to millimeters
G90 ; use absolute coordinates
M82 ; use absolute distances for extrusion
G92 E0
G1 Z0.400 F7800.000
G1 E-2.00000 F2400.00000
G92 E0
G1 X79.409 Y74.719 F7800.000
G1 E2.00000 F2400.00000
G1 X81.206 Y72.918 E2.30219 F1800.000
G1 X83.472 Y71.760 E2.60437
G1 X86.000 Y71.358 E2.90842
G1 X134.000 Y71.358 E8.60914
G1 X136.513 Y71.755 E8.91133
G1 X138.781 Y72.909 E9.21352 F1800.000
G1 X140.582 Y74.706 E9.51570
G1 X141.740 Y76.972 E9.81789
G1 X142.142 Y79.500 E10.12193
G1 X142.142 Y140.500 E17.36661
G1 X141.745 Y143.013 E17.66879
G1 X140.591 Y145.281 E17.97098
G1 X138.794 Y147.082 E18.27317
G1 X136.528 Y148.240 E18.57535
G1 X134.000 Y148.642 E18.87940
G1 X86.000 Y148.642 E24.58012
G1 X83.487 Y148.245 E24.88231
G1 X81.219 Y147.091 E25.18450
G1 X79.418 Y145.294 E25.48668
G1 X78.260 Y143.028 E25.78887
G1 X77.858 Y140.500 E26.09291
G1 X77.858 Y79.500 E33.33759
G1 X78.255 Y76.987 E33.63977
G1 X79.382 Y74.773 E33.93484
G1 X80.061 Y75.069 F7800.000
G1 X80.118 Y74.963 E33.94921 F1800.000
G1 X81.897 Y73.308 E34.23775
G1 X84.114 Y72.315 E34.52630
G1 X86.000 Y72.072 E34.75209
G1 X134.000 Y72.072 E40.45282
G1 X136.397 Y72.469 E40.74136
G1 X138.537 Y73.618 E41.02991 F1800.000
G1 X140.192 Y75.397 E41.31845
G1 X141.185 Y77.614 E41.60700
G1 X141.428 Y79.500 E41.83279
G1 X141.428 Y140.500 E49.07746
G1 X141.031 Y142.897 E49.36601
G1 X139.882 Y145.037 E49.65455
G1 X138.103 Y146.692 E49.94310
G1 X135.886 Y147.685 E50.23164
G1 X134.000 Y147.928 E50.45743
G1 X86.000 Y147.928 E56.15816
G1 X83.603 Y147.531 E56.44670
G1 X81.463 Y146.382 E56.73525
G1 X79.808 Y144.603 E57.02379
G1 X78.815 Y142.386 E57.31234
G1 X78.572 Y140.500 E57.53813
G1 X78.572 Y79.500 E64.78280
G1 X78.969 Y77.103 E65.07135
G1 X80.033 Y75.122 E65.33839
G1 X80.704 Y75.436 F7800.000
G1 X80.827 Y75.220 E65.36794 F1800.000
G1 X82.583 Y73.720 E65.64216
G1 X84.743 Y72.905 E65.91639
G1 X86.000 Y72.786 E66.06635
G1 X134.000 Y72.786 E71.76708
G1 X136.275 Y73.183 E72.04131
G1 X138.280 Y74.327 E72.31553 F1800.000
G1 X139.780 Y76.083 E72.58976
G1 X140.595 Y78.243 E72.86398
G1 X140.714 Y79.500 E73.01395
G1 X140.714 Y140.500 E80.25862
G1 X140.317 Y142.775 E80.53285
G1 X139.173 Y144.780 E80.80707
G1 X137.417 Y146.280 E81.08130
G1 X135.257 Y147.095 E81.35552
G1 X134.000 Y147.214 E81.50549
G1 X86.000 Y147.214 E87.20622
G1 X83.725 Y146.817 E87.48044
G1 X81.720 Y145.673 E87.75467
G1 X80.220 Y143.917 E88.02889
G1 X79.405 Y141.757 E88.30312
G1 X79.286 Y140.500 E88.45308
G1 X79.286 Y79.500 E95.69776
G1 X79.683 Y77.225 E95.97198
G1 X80.674 Y75.488 E96.20954
G1 E94.20954 F2400.00000
G92 E0
G1 X127.901 Y132.532 F7800.000
G1 E2.00000 F2400.00000
G1 X127.583 Y133.083 E2.07562 F1800.000
G1 X125.995 Y134.000 E2.29342
G1 X124.161 Y134.000 E2.51124
G1 X122.573 Y133.083 E2.72903
G1 X121.656 Y131.495 E2.94683
G1 X121.656 Y129.661 E3.16465
G1 X122.573 Y128.073 E3.38243
G1 X124.161 Y127.156 E3.60022
G1 X125.995 Y127.156 E3.81804 F1800.000
G1 X127.583 Y128.073 E4.03584
G1 X128.500 Y129.661 E4.25363
G1 X128.500 Y131.495 E4.47145
G1 X127.931 Y132.480 E4.60651
G1 X127.283 Y132.174 F7800.000
G1 X127.060 Y132.560 E4.65941 F1800.000
G1 X125.803 Y133.286 E4.83176
G1 X124.352 Y133.286 E5.00411
G1 X123.095 Y132.560 E5.17646
G1 X122.370 Y131.303 E5.34881
G1 X122.370 Y129.852 E5.52117
G1 X123.096 Y128.596 E5.69350
G1 X124.352 Y127.870 E5.86584
G1 X125.803 Y127.870 E6.03820 F1800.000
G1 X127.060 Y128.595 E6.21055
G1 X127.786 Y129.852 E6.38289
G1 X127.786 Y131.303 E6.55525
G1 X127.313 Y132.122 E6.66758
G1 X126.664 Y131.817 F7800.000
G1 X126.537 Y132.037 E6.69775 F1800.000
G1 X125.612 Y132.572 E6.82465
G1 X124.544 Y132.572 E6.95155
G1 X123.618 Y132.037 E7.07844
G1 X123.084 Y131.112 E7.20534
G1 X123.084 Y130.043 E7.33224
G1 X123.618 Y129.118 E7.45913
G1 X124.544 Y128.584 E7.58602
G1 X125.612 Y128.584 E7.71292 F1800.000
G1 X126.537 Y129.118 E7.83982
G1 X127.072 Y130.043 E7.96671
G1 X127.072 Y131.112 E8.09361
G1 X126.694 Y131.765 E8.18321
G1 X126.791 Y132.037 F7800.000
G1 E6.18321 F2400.00000
G92 E0
G1 X119.074 Y124.983 F7800.000
G1 E2.00000 F2400.00000
G1 X118.800 Y125.287 E2.04862 F1800.000
G1 X116.544 Y126.926 E2.37979
G1 X113.997 Y128.061 E2.71096
G1 X111.269 Y128.640 E3.04213
G1 X108.481 Y128.640 E3.37332
G1 X105.753 Y128.061 E3.70449
G1 X103.206 Y126.926 E4.03566
G1 X100.950 Y125.287 E4.36683
G1 X99.084 Y123.215 E4.69801
G1 X97.690 Y120.800 E5.02918
G1 X96.828 Y118.148 E5.36036
G1 X96.537 Y115.375 E5.69153
G1 X96.828 Y112.602 E6.02271
G1 X97.690 Y109.950 E6.35389
G1 X99.084 Y107.535 E6.68505
G1 X100.950 Y105.463 E7.01624
G1 X103.206 Y103.824 E7.34741
G1 X105.753 Y102.689 E7.67858
G1 X108.481 Y102.110 E8.00975
G1 X111.269 Y102.110 E8.34094 F1800.000
G1 X113.997 Y102.689 E8.67211
G1 X116.544 Y103.824 E9.00328
G1 X118.800 Y105.463 E9.33445
G1 X120.666 Y107.535 E9.66563
G1 X122.060 Y109.950 E9.99680
G1 X122.922 Y112.602 E10.32798
G1 X123.213 Y115.375 E10.65915
G1 X122.922 Y118.148 E10.99033
G1 X122.060 Y120.800 E11.32151
G1 X120.666 Y123.215 E11.65268
G1 X119.114 Y124.939 E11.92811
G1 X118.543 Y124.505 F7800.000
G1 X118.320 Y124.754 E11.96781 F1800.000
G1 X116.185 Y126.305 E12.28116
G1 X113.775 Y127.378 E12.59450
G1 X111.194 Y127.926 E12.90784
G1 X108.556 Y127.926 E13.22120
G1 X105.975 Y127.378 E13.53454
G1 X103.565 Y126.305 E13.84788
G1 X101.430 Y124.754 E14.16122
G1 X99.665 Y122.793 E14.47458
G1 X98.346 Y120.508 E14.78792
G1 X97.530 Y117.999 E15.10126
G1 X97.255 Y115.375 E15.41461
G1 X97.530 Y112.751 E15.72796
G1 X98.346 Y110.242 E16.04130
G1 X99.665 Y107.957 E16.35464
G1 X101.430 Y105.996 E16.66799
G1 X103.565 Y104.445 E16.98134
G1 X105.975 Y103.372 E17.29468
G1 X108.556 Y102.824 E17.60802
G1 X111.194 Y102.824 E17.92138 F1800.000
G1 X113.775 Y103.372 E18.23472
G1 X116.185 Y104.445 E18.54806
G1 X118.320 Y105.996 E18.86141
G1 X120.085 Y107.957 E19.17476
G1 X121.404 Y110.242 E19.48810
G1 X122.220 Y112.751 E19.80144
G1 X122.495 Y115.375 E20.11479
G1 X122.220 Y117.999 E20.42814
G1 X121.404 Y120.508 E20.74148
G1 X120.085 Y122.793 E21.05482
G1 X118.583 Y124.461 E21.32135
G1 X118.013 Y124.027 F7800.000
G1 X117.839 Y124.220 E21.35213 F1800.000
G1 X115.826 Y125.683 E21.64765
G1 X113.553 Y126.695 E21.94316
G1 X111.119 Y127.212 E22.23867
G1 X108.631 Y127.212 E22.53420
G1 X106.197 Y126.695 E22.82971
G1 X103.924 Y125.683 E23.12522
G1 X101.911 Y124.220 E23.42074
G1 X100.246 Y122.371 E23.71626
G1 X99.002 Y120.216 E24.01177
G1 X98.233 Y117.850 E24.30729
G1 X97.973 Y115.375 E24.60281
G1 X98.233 Y112.900 E24.89832
G1 X99.002 Y110.534 E25.19384
G1 X100.246 Y108.379 E25.48935
G1 X101.911 Y106.530 E25.78488
G1 X103.924 Y105.067 E26.08039
G1 X106.197 Y104.055 E26.37590
G1 X108.631 Y103.538 E26.67142
G1 X111.119 Y103.538 E26.96694 F1800.000
G1 X113.553 Y104.055 E27.26245
G1 X115.826 Y105.067 E27.55797
G1 X117.839 Y106.530 E27.85348
G1 X119.504 Y108.379 E28.14900
G1 X120.748 Y110.534 E28.44451
G1 X121.517 Y112.900 E28.74003
G1 X121.777 Y115.375 E29.03555
G1 X121.517 Y117.850 E29.33107
G1 X120.748 Y120.216 E29.62658
G1 X119.504 Y122.371 E29.92209
G1 X118.053 Y123.983 E30.17971
G1 X118.093 Y124.274 F7800.000
G1 E28.17971 F2400.00000
G92 E0
G1 X97.177 Y102.677 F7800.000
G1 E2.00000 F2400.00000
G1 X95.589 Y103.594 E2.21780 F1800.000
G1 X93.755 Y103.594 E2.43561
G1 X92.167 Y102.677 E2.65341
G1 X91.250 Y101.089 E2.87120
G1 X91.250 Y99.255 E3.08901
G1 X91.524 Y98.782 E3.15396
G1 X92.167 Y97.667 E3.30682
G1 X93.755 Y96.750 E3.52462
G1 X95.589 Y96.750 E3.74242 F1800.000
G1 X97.177 Y97.667 E3.96022
G1 X98.094 Y99.255 E4.17803
G1 X98.094 Y101.089 E4.39585
G1 X97.207 Y102.625 E4.60651
G1 X96.655 Y102.155 F7800.000
G1 X95.398 Y102.880 E4.77886 F1800.000
G1 X93.947 Y102.880 E4.95122
G1 X92.690 Y102.155 E5.12356
G1 X91.964 Y100.898 E5.29590
G1 X91.964 Y99.447 E5.46826
G1 X92.142 Y99.139 E5.51048
G1 X92.690 Y98.190 E5.64061
G1 X93.947 Y97.464 E5.81296
G1 X95.398 Y97.464 E5.98531 F1800.000
G1 X96.655 Y98.190 E6.15766
G1 X97.380 Y99.447 E6.33001
G1 X97.380 Y100.898 E6.50237
G1 X96.685 Y102.103 E6.66758
G1 X96.132 Y101.632 F7800.000
G1 X95.206 Y102.166 E6.79448 F1800.000
G1 X94.138 Y102.166 E6.92138
G1 X93.213 Y101.632 E7.04827
G1 X92.678 Y100.706 E7.17516
G1 X92.678 Y99.638 E7.30206
G1 X92.760 Y99.496 E7.32155
G1 X93.213 Y98.713 E7.42896
G1 X94.138 Y98.178 E7.55585
G1 X95.206 Y98.178 E7.68275 F1800.000
G1 X96.132 Y98.713 E7.80965
G1 X96.666 Y99.638 E7.93654
G1 X96.666 Y100.706 E8.06345
G1 X96.162 Y101.580 E8.18321
G1 X96.201 Y102.026 F7800.000
G1 X121.656 Y101.089 F7800.000
G1 X121.656 Y99.255 E8.40103 F1800.000
G1 X122.573 Y97.667 E8.61884
G1 X124.161 Y96.750 E8.83662
G1 X125.995 Y96.750 E9.05443 F1800.000
G1 X127.583 Y97.667 E9.27223
G1 X128.500 Y99.255 E9.49004
G1 X128.500 Y101.089 E9.70786
G1 X127.583 Y102.677 E9.92565
G1 X125.995 Y103.594 E10.14345
G1 X124.161 Y103.594 E10.36127
G1 X122.573 Y102.677 E10.57906
G1 X121.686 Y101.141 E10.78972
G1 X122.370 Y100.898 F7800.000
G1 X122.370 Y99.447 E10.96208 F1800.000
G1 X123.095 Y98.190 E11.13443
G1 X124.352 Y97.464 E11.30677
G1 X125.803 Y97.464 E11.47912 F1800.000
G1 X127.060 Y98.190 E11.65147
G1 X127.786 Y99.447 E11.82382
G1 X127.786 Y100.898 E11.99619
G1 X127.060 Y102.155 E12.16853
G1 X125.803 Y102.880 E12.34088
G1 X124.352 Y102.880 E12.51324
G1 X123.096 Y102.154 E12.68557
G1 X122.400 Y100.950 E12.85079
G1 X123.084 Y100.706 F7800.000
G1 X123.084 Y99.638 E12.97769 F1800.000
G1 X123.618 Y98.713 E13.10459
G1 X124.544 Y98.178 E13.23148
G1 X125.612 Y98.178 E13.35837 F1800.000
G1 X126.537 Y98.713 E13.48527
G1 X127.072 Y99.638 E13.61217
G1 X127.072 Y100.706 E13.73907
G1 X126.537 Y101.632 E13.86596
G1 X125.612 Y102.166 E13.99286
G1 X124.544 Y102.166 E14.11976
G1 X123.618 Y101.632 E14.24665
G1 X123.114 Y100.758 E14.36641
G1 X122.708 Y100.570 F7800.000
G1 E12.36641 F2400.00000
G92 E0
G1 X97.177 Y128.073 F7800.000
G1 E2.00000 F2400.00000
G1 X98.094 Y129.661 E2.21779 F1800.000
G1 X98.094 Y131.495 E2.43560
G1 X97.177 Y133.083 E2.65340
G1 X95.589 Y134.000 E2.87121
G1 X93.755 Y134.000 E3.08902
G1 X92.167 Y133.083 E3.30683
G1 X91.250 Y131.495 E3.52463
G1 X91.250 Y129.661 E3.74243
G1 X92.167 Y128.073 E3.96022
G1 X93.755 Y127.156 E4.17802
G1 X95.589 Y127.156 E4.39584 F1800.000
G1 X97.125 Y128.043 E4.60651
G1 X96.655 Y128.595 F7800.000
G1 X97.380 Y129.852 E4.77885 F1800.000
G1 X97.380 Y131.303 E4.95121
G1 X96.655 Y132.560 E5.12356
G1 X95.398 Y133.286 E5.29591
G1 X93.947 Y133.286 E5.46826
G1 X92.690 Y132.560 E5.64062
G1 X91.964 Y131.303 E5.81297
G1 X91.964 Y129.852 E5.98532
G1 X92.690 Y128.596 E6.15765
G1 X93.947 Y127.870 E6.33000
G1 X95.398 Y127.870 E6.50236 F1800.000
G1 X96.603 Y128.565 E6.66759
G1 X96.132 Y129.118 F7800.000
G1 X96.666 Y130.043 E6.79447 F1800.000
G1 X96.666 Y131.112 E6.92137
G1 X96.132 Y132.037 E7.04827
G1 X95.206 Y132.572 E7.17517
G1 X94.138 Y132.572 E7.30207
G1 X93.213 Y132.037 E7.42897
G1 X92.678 Y131.112 E7.55586
G1 X92.678 Y130.044 E7.68276
G1 X93.213 Y129.118 E7.80965
G1 X94.138 Y128.584 E7.93654
G1 X95.206 Y128.584 E8.06344 F1800.000
G1 X96.080 Y129.088 E8.18322
G1 X96.526 Y129.049 F7800.000
G1 E6.18322 F2400.00000
G92 E0
G1 X87.828 Y138.672 F7800.000
G1 E2.00000 F2400.00000
G1 X87.828 Y81.328 E8.81039 F1800.000
G1 X132.172 Y81.328 E14.07684
G1 X132.172 Y138.672 E20.88724
G1 X87.888 Y138.672 E26.14656
G1 X87.114 Y139.386 F7800.000
G1 X87.114 Y80.614 E33.12659 F1800.000
G1 X132.886 Y80.614 E38.56267
G1 X132.886 Y139.386 E45.54270
G1 X87.174 Y139.386 E50.97166
G1 X86.400 Y140.100 F7800.000
G1 X86.400 Y79.900 E58.12132 F1800.000
G1 X133.600 Y79.900 E63.72704
G1 X133.600 Y140.100 E70.87670
G1 X86.460 Y140.100 E76.47529
G1 X86.600 Y139.754 F7800.000
G1 X88.264 Y137.893 F7800.000
G1 X88.607 Y138.236 E76.53306 F1800.000
G1 X89.620 Y138.236 E76.65369
G1 X88.264 Y136.880 E76.88205
G1 X88.264 Y135.868 E77.00269
G1 X90.632 Y138.236 E77.40165
G1 X91.645 Y138.236 E77.52229
G1 X88.264 Y134.855 E78.09185
G1 X88.264 Y133.842 E78.21249
G1 X92.658 Y138.236 E78.95265
G1 X93.671 Y138.236 E79.07328
G1 X88.264 Y132.829 E79.98405
G1 X88.264 Y131.816 E80.10468
G1 X94.684 Y138.236 E81.18605
G1 X95.697 Y138.236 E81.30668
G1 X88.264 Y130.803 E82.55865
G1 X88.264 Y129.790 E82.67928
G1 X96.710 Y138.236 E84.10185
G1 X97.722 Y138.236 E84.22248
G1 X93.922 Y134.435 E84.86266
G1 X94.935 Y134.435 E84.98329
G1 X98.735 Y138.236 E85.62348
G1 X99.748 Y138.236 E85.74411
G1 X95.818 Y134.306 E86.40601
G1 X96.460 Y133.936 E86.49432
G1 X100.761 Y138.236 E87.21868
G1 X101.774 Y138.236 E87.33931
G1 X97.103 Y133.565 E88.12611
G1 X97.622 Y133.072 E88.21144
G1 X102.787 Y138.236 E89.08127
G1 X103.799 Y138.236 E89.20190
G1 X97.993 Y132.430 E90.17988
G1 X98.364 Y131.788 E90.26819
G1 X104.812 Y138.236 E91.35433
G1 X105.825 Y138.236 E91.47496
G1 X98.530 Y130.941 E92.70376
G1 X98.530 Y129.928 E92.82439
G1 X106.838 Y138.236 E94.22379
G1 X107.851 Y138.236 E94.34442
G1 X88.264 Y118.649 E97.64359
G1 X88.264 Y117.636 E97.76422
G1 X108.864 Y138.236 E101.23399
G1 X109.877 Y138.236 E101.35462
G1 X88.264 Y116.623 E104.99499
G1 X88.264 Y115.611 E105.11562
G1 X110.889 Y138.236 E108.92659
G1 X111.902 Y138.236 E109.04722
G1 X88.264 Y114.598 E113.02878
G1 X88.264 Y113.585 E113.14942
G1 X112.915 Y138.236 E117.30158
G1 X113.928 Y138.236 E117.42222
G1 X103.153 Y127.461 E119.23707
G1 X104.979 Y128.274 F7800.000
G1 X114.941 Y138.236 E120.91501 F1800.000
G1 X115.954 Y138.236 E121.03564
G1 X106.395 Y128.678 E122.64562
G1 X107.682 Y128.951 E122.80224
G1 X116.966 Y138.236 E124.36616
G1 X117.979 Y138.236 E124.48679
G1 X108.819 Y129.076 E126.02972
G1 X109.832 Y129.076 E126.15036
G1 X118.992 Y138.236 E127.69329
G1 X120.005 Y138.236 E127.81392
G1 X110.845 Y129.076 E129.35686
G1 X111.739 Y128.957 E129.46427
G1 X121.018 Y138.236 E131.02723
G1 X122.031 Y138.236 E131.14786
G1 X112.574 Y128.779 E132.74072
G1 X113.409 Y128.602 E132.84243
G1 X123.043 Y138.236 E134.46520
G1 X124.056 Y138.236 E134.58583
G1 X114.210 Y128.389 E136.24439
G1 X114.910 Y128.077 E136.33576
G1 X125.069 Y138.236 E138.04687
G1 X126.082 Y138.236 E138.16750
G1 X115.611 Y127.765 E139.93117
G1 X121.507 Y122.519 F7800.000
G1 X125.707 Y126.720 E140.63873 F1800.000
G1 X124.694 Y126.720 E140.75936
G1 X121.136 Y123.161 E141.35877
G1 X120.698 Y123.737 E141.44486
G1 X123.855 Y126.893 E141.97655
G1 X123.213 Y127.264 E142.06485
G1 X120.218 Y124.270 E142.56923
G1 X119.738 Y124.803 E142.65464
G1 X122.571 Y127.635 E143.13170
G1 X122.083 Y128.160 E143.21706
G1 X119.259 Y125.336 E143.69283
G1 X118.720 Y125.810 E143.77830
G1 X121.712 Y128.802 E144.28237
G1 X121.342 Y129.444 E144.37068
G1 X118.133 Y126.236 E144.91110
G1 X117.547 Y126.662 E144.99747
G1 X121.220 Y130.336 E145.61624
G1 X121.220 Y131.349 E145.73687
G1 X116.960 Y127.088 E146.45445
G1 X116.312 Y127.453 E146.54302
G1 X127.095 Y138.236 E148.35924
G1 X128.108 Y138.236 E148.47987
G1 X124.307 Y134.435 E149.12005
G1 X125.320 Y134.435 E149.24068
G1 X129.121 Y138.236 E149.88086
G1 X130.133 Y138.236 E150.00150
G1 X126.211 Y134.314 E150.66216
G1 X126.853 Y133.943 E150.75046
G1 X131.146 Y138.236 E151.47357
G1 X131.736 Y137.813 E151.56002
G1 X127.495 Y133.572 E152.27434
G1 X128.021 Y133.085 E152.35970
G1 X131.736 Y136.800 E152.98553
G1 X131.736 Y135.788 E153.10616
G1 X128.391 Y132.443 E153.66954
G1 X128.762 Y131.801 E153.75785
