; generated by Slic3r 1.2.9 on 2016-04-01 at 15:16:47

; external perimeters extrusion width = 0.40mm
; perimeters extrusion width = 0.68mm
; infill extrusion width = 1.28mm
; solid infill extrusion width = 0.68mm
; top infill extrusion width = 0.68mm

M190 S40 ; set bed temperature
M104 S220 ; set temperature
G28 ; home all axes
G1 Z5 F5000 ; lift nozzle

M109 S220 ; wait for temperature to be reached
G21 ; set units to millimeters
G90 ; use absolute coordinates
M82 ; use absolute distances for extrusion
G92 E0
G1 Z0.400 F7800.000
G1 E-2.00000 F2400.00000
G92 E0
G1 X77.706 Y100.520 F7800.000
G1 E2.00000 F2400.00000
G1 X79.972 Y99.362 E2.30219 F1800.000
G1 X82.482 Y98.960 E2.60417
G1 X97.500 Y98.931 E4.38774
G1 X100.013 Y99.328 E4.68992
G1 X102.281 Y100.482 E4.99211 F1800.000
G1 X104.082 Y102.279 E5.29429
G1 X105.240 Y104.545 E5.59648
G1 X105.642 Y107.073 E5.90052
G1 X105.642 Y119.981 E7.43351
G1 X105.531 Y121.325 E7.59365
G1 X100.019 Y154.271 E11.56087
G1 X99.212 Y156.684 E11.86306
G1 X97.700 Y158.730 E12.16525
G1 X95.630 Y160.210 E12.46743
G1 X91.988 Y161.069 E12.91185
G1 X88.012 Y161.069 E13.38399
G1 X85.499 Y160.672 E13.68617
G1 X83.231 Y159.518 E13.98836
G1 X81.430 Y157.721 E14.29055
G1 X79.980 Y154.261 E14.73603
G1 X74.468 Y121.086 E18.73016
G1 X74.358 Y119.751 E18.88921
G1 X74.358 Y107.102 E20.39147
G1 X74.755 Y104.589 E20.69366
G1 X75.909 Y102.321 E20.99584
G1 X77.664 Y100.563 E21.29090
G1 X78.221 Y101.074 F7800.000
G1 X78.397 Y100.910 E21.31944 F1800.000
G1 X80.614 Y99.917 E21.60799
G1 X82.484 Y99.674 E21.83190
G1 X97.500 Y99.645 E23.61528
G1 X99.897 Y100.042 E23.90382
G1 X102.037 Y101.192 E24.19237 F1800.000
G1 X103.692 Y102.970 E24.48091
G1 X104.685 Y105.188 E24.76945
G1 X104.928 Y107.073 E24.99524
G1 X104.928 Y119.981 E26.52824
G1 X104.826 Y121.207 E26.67432
G1 X99.314 Y154.153 E30.64155
G1 X98.527 Y156.451 E30.93009
G1 X97.040 Y158.373 E31.21864
G1 X95.013 Y159.711 E31.50718
G1 X91.988 Y160.355 E31.87448
G1 X88.012 Y160.355 E32.34662
G1 X85.615 Y159.958 E32.63516
G1 X83.475 Y158.808 E32.92371
G1 X81.820 Y157.030 E33.21225
G1 X80.684 Y154.144 E33.58052
G1 X75.172 Y120.969 E37.57466
G1 X75.072 Y119.751 E37.71976
G1 X75.072 Y107.102 E39.22202
G1 X75.469 Y104.705 E39.51056
G1 X76.618 Y102.565 E39.79911
G1 X78.177 Y101.114 E40.05198
G1 X78.707 Y101.643 F7800.000
G1 X79.083 Y101.323 E40.11061 F1800.000
G1 X81.243 Y100.507 E40.38483
G1 X82.486 Y100.388 E40.53309
G1 X97.500 Y100.359 E42.31629
G1 X99.775 Y100.756 E42.59051
G1 X101.780 Y101.900 E42.86474 F1800.000
G1 X103.280 Y103.656 E43.13896
G1 X104.095 Y105.816 E43.41319
G1 X104.214 Y107.073 E43.56315
G1 X104.214 Y119.981 E45.09615
G1 X104.122 Y121.089 E45.22819
G1 X98.610 Y154.035 E49.19542
G1 X97.843 Y156.213 E49.46964
G1 X96.383 Y158.002 E49.74386
G1 X94.404 Y159.191 E50.01809
G1 X91.988 Y159.641 E50.31002
G1 X88.012 Y159.641 E50.78216
G1 X85.738 Y159.244 E51.05639
G1 X83.732 Y158.100 E51.33061
G1 X82.233 Y156.344 E51.60484
G1 X81.389 Y154.027 E51.89765
G1 X75.877 Y120.852 E55.89179
G1 X75.786 Y119.751 E56.02294
G1 X75.786 Y107.102 E57.52520
G1 X76.183 Y104.828 E57.79942
G1 X77.327 Y102.822 E58.07365
G1 X78.662 Y101.682 E58.28212
G1 E56.28212 F2400.00000
G92 E0
G1 X91.922 Y133.099 F7800.000
G1 E2.00000 F2400.00000
G1 X88.078 Y133.099 E2.45646 F1800.000
G1 X88.078 Y129.540 E2.87905
G1 X86.675 Y125.755 E3.35848
G1 X93.373 Y125.755 E4.15397
G1 X91.922 Y129.612 E4.64342
G1 X91.922 Y133.039 E5.05035
G1 X90.874 Y133.813 F7800.000
G1 X90.874 Y151.813 E7.18812 F1800.000
G1 X89.126 Y151.813 E7.39561
G1 X89.126 Y133.813 E9.53339
G1 X87.364 Y133.813 E9.74269
G1 X87.364 Y129.668 E10.23488
G1 X85.649 Y125.041 E10.82100
G1 X94.405 Y125.041 E11.86092
G1 X92.636 Y129.742 E12.45749
G1 X92.636 Y133.813 E12.94093
G1 X90.934 Y133.813 E13.14310
G1 X91.588 Y134.527 F7800.000
G1 X91.588 Y152.527 E15.28087 F1800.000
G1 X88.412 Y152.527 E15.65800
G1 X88.412 Y134.527 E17.79577
G1 X86.650 Y134.527 E18.00507
G1 X86.650 Y129.797 E18.56687
G1 X82.900 Y119.679 E19.84832
G1 X82.900 Y107.502 E21.29455
G1 X83.600 Y107.502 E21.37769
G1 X83.600 Y119.564 E22.81024
G1 X85.365 Y124.327 E23.41349
G1 X94.694 Y124.327 E24.52145
G1 X96.400 Y119.795 E25.09655
G1 X96.400 Y107.473 E26.55995
G1 X97.100 Y107.473 E26.64308
G1 X97.100 Y119.908 E28.11992
G1 X93.350 Y129.872 E29.38434
G1 X93.350 Y134.527 E29.93716
G1 X91.648 Y134.527 E30.13934
G1 X91.188 Y134.527 F7800.000
G1 X90.000 Y133.456 F7800.000
G1 X90.000 Y151.456 E34.67184 F1800.000
G1 X87.548 Y126.362 F7800.000
G1 X92.496 Y126.362 E35.35058 F1800.000
G1 X91.315 Y129.502 E35.81068
G1 X91.315 Y132.492 E36.22076
G1 X88.685 Y132.492 E36.58139
G1 X88.685 Y129.431 E37.00111
G1 X87.569 Y126.418 E37.44185
G1 X88.733 Y127.187 F7800.000
G1 X91.305 Y127.187 E37.79457 F1800.000
G1 X90.490 Y129.352 E38.11181
G1 X90.490 Y131.667 E38.42934
G1 X89.510 Y131.667 E38.56373
G1 X89.510 Y129.284 E38.89062
G1 X88.754 Y127.243 E39.18907
G1 Z0.500 F7800.000
G1 X90.755 Y133.550 F7800.000
G1 X90.755 Y151.550 E39.68189 F3600.000
G1 X89.245 Y151.550 E39.72323
G1 X89.245 Y133.550 E40.21605
G1 X87.627 Y133.550 E40.26035
G1 X87.627 Y129.621 E40.36791
G1 X86.027 Y125.304 E40.49397
G1 X94.025 Y125.304 E40.71296
G1 X92.373 Y129.694 E40.84139
G1 X92.373 Y133.550 E40.94695
G1 X90.815 Y133.550 E40.98961
G1 X91.413 Y134.208 F7800.000
G1 X91.413 Y152.208 E41.48243 F3600.000
G1 X88.587 Y152.208 E41.55983
G1 X88.587 Y134.208 E42.05265
G1 X86.969 Y134.208 E42.09694
G1 X86.969 Y129.739 E42.21930
G1 X85.080 Y124.645 E42.36804
G1 X94.977 Y124.645 E42.63899
G1 X93.031 Y129.814 E42.79019
G1 X93.031 Y134.208 E42.91050
G1 X91.473 Y134.208 E42.95316
G1 X91.932 Y134.727 F7800.000
G1 X91.932 Y152.727 E43.23644 F1800.000
G1 X88.068 Y152.727 E43.29725
G1 X88.068 Y134.727 E43.58053
G1 X86.450 Y134.727 E43.60600
G1 X86.450 Y129.832 E43.68302
G1 X82.700 Y119.715 E43.85283
G1 X82.700 Y107.302 E44.04819
G1 X83.800 Y107.302 E44.06550
G1 X83.800 Y119.528 E44.25791
G1 X85.504 Y124.127 E44.33510
G1 X94.556 Y124.127 E44.47755
G1 X96.200 Y119.759 E44.55100
G1 X96.200 Y107.273 E44.74750
G1 X97.300 Y107.273 E44.76481
G1 X97.300 Y119.944 E44.96423
G1 X93.550 Y129.908 E45.13178
G1 X93.550 Y134.727 E45.20761
G1 X91.992 Y134.727 E45.23213
G1 X91.532 Y134.727 F7800.000
G1 X91.653 Y133.150 F7800.000
G1 X91.973 Y132.830 E45.24450 F1200.000
G1 X91.051 Y132.820 E45.26973
G1 X91.973 Y131.899 E45.30542
G1 X91.973 Y130.968 E45.33092
G1 X90.120 Y132.820 E45.40267
G1 X89.189 Y132.820 E45.42818
G1 X91.973 Y130.036 E45.53600
G1 X92.185 Y128.892 E45.56785
G1 X88.027 Y133.050 E45.72886
G1 X88.027 Y132.119 E45.75436
G1 X92.747 Y127.399 E45.93714
G1 X93.309 Y125.906 F7800.000
G1 X88.027 Y131.188 E46.14169 F1200.000
G1 X88.027 Y130.256 E46.16719
G1 X92.579 Y125.704 E46.34347
G1 X91.648 Y125.704 E46.36897
G1 X87.935 Y129.417 E46.51274
G1 X87.683 Y128.737 E46.53258
G1 X90.717 Y125.704 E46.65003
G1 X89.785 Y125.704 E46.67554
G1 X87.432 Y128.058 E46.76668
G1 X87.180 Y127.378 E46.78652
G1 X88.854 Y125.704 E46.85134
G1 X87.922 Y125.704 E46.87685
G1 X86.928 Y126.698 E46.91536
G1 X86.676 Y126.019 E46.93520
G1 X86.991 Y125.704 E46.94740
G1 X85.016 Y124.386 F7800.000
G1 X83.251 Y119.616 E47.23041 F1200.000
G1 X83.250 Y107.561 E47.90127
G1 E45.90127 F2400.00000
G92 E0
G1 X96.750 Y107.532 F7800.000
G1 E2.00000 F2400.00000
G1 X96.749 Y119.844 E2.68515 F1200.000
G1 X95.043 Y124.386 E2.95514
G1 X90.000 Y133.221 F7800.000
G1 X90.000 Y151.221 E3.95684 F1200.000
G1 Z0.600 F7800.000
G1 X90.813 Y133.550 F7800.000
G1 X90.813 Y151.550 E4.44966 F3600.000
G1 X89.187 Y151.550 E4.49416
G1 X89.187 Y133.550 E4.98698
G1 X87.627 Y133.550 E5.02970
G1 X87.627 Y129.621 E5.13726
G1 X86.027 Y125.304 E5.26332
G1 X94.025 Y125.304 E5.48231
G1 X92.373 Y129.694 E5.61074
G1 X92.373 Y133.550 E5.71630
G1 X90.873 Y133.550 E5.75738
G1 X91.471 Y134.208 F7800.000
G1 X91.471 Y152.208 E6.25020 F3600.000
G1 X88.529 Y152.208 E6.33076
G1 X88.529 Y134.208 E6.82358
G1 X86.969 Y134.208 E6.86630
G1 X86.969 Y129.739 E6.98865
G1 X85.080 Y124.645 E7.13739
G1 X94.977 Y124.645 E7.40834
G1 X93.031 Y129.814 E7.55955
G1 X93.031 Y134.208 E7.67985
G1 X91.531 Y134.208 E7.72093
G1 X91.990 Y134.727 F7800.000
G1 X91.990 Y152.727 E8.00421 F1800.000
G1 X88.010 Y152.727 E8.06684
G1 X88.010 Y134.727 E8.35012
G1 X86.450 Y134.727 E8.37468
G1 X86.450 Y129.832 E8.45170
G1 X82.700 Y119.715 E8.62151
G1 X82.700 Y107.302 E8.81687
G1 X83.800 Y107.302 E8.83418
G1 X83.800 Y119.528 E9.02659
G1 X85.504 Y124.127 E9.10378
G1 X94.556 Y124.127 E9.24623
G1 X96.200 Y119.759 E9.31968
G1 X96.200 Y107.273 E9.51618
G1 X97.300 Y107.273 E9.53349
G1 X97.300 Y119.944 E9.73291
G1 X93.550 Y129.908 E9.90046
G1 X93.550 Y134.727 E9.97629
G1 X92.050 Y134.727 E9.99990
G1 X91.590 Y134.727 F7800.000
G1 X90.000 Y133.221 F7800.000
G1 X90.000 Y151.221 E11.00160 F1200.000
G1 X88.346 Y133.150 F7800.000
G1 X88.027 Y132.830 E11.01402 F1200.000
G1 X88.027 Y131.895 E11.03972
G1 X88.952 Y132.820 E11.07569
G1 X89.887 Y132.820 E11.10140
G1 X88.027 Y130.960 E11.17372
G1 X88.027 Y130.025 E11.19942
G1 X90.822 Y132.820 E11.30810
G1 X91.973 Y133.036 E11.34027
G1 X87.854 Y128.916 E11.50041
G1 X87.303 Y127.431 F7800.000
G1 X91.973 Y132.101 E11.68197 F1200.000
G1 X91.973 Y131.166 E11.70767
G1 X86.752 Y125.945 E11.91064
G1 X87.446 Y125.704 E11.93084
G1 X91.973 Y130.231 E12.10682
G1 X92.093 Y129.416 E12.12946
G1 X88.381 Y125.704 E12.27376
G1 X89.316 Y125.704 E12.29946
G1 X92.349 Y128.736 E12.41736
G1 X92.605 Y128.057 E12.43731
G1 X90.252 Y125.704 E12.52879
G1 X91.187 Y125.704 E12.55450
G1 X92.860 Y127.378 E12.61956
G1 X93.116 Y126.698 E12.63952
G1 X92.122 Y125.704 E12.67817
G1 X93.057 Y125.704 E12.70388
G1 X93.372 Y126.019 E12.71612
G1 X95.043 Y124.386 F7800.000
G1 X96.749 Y119.844 E12.98611 F1200.000
G1 X96.750 Y107.532 E13.67126
G1 E11.67126 F2400.00000
G92 E0
G1 X83.250 Y107.561 F7800.000
G1 E2.00000 F2400.00000
G1 X83.251 Y119.616 E2.67086 F1200.000
G1 X85.016 Y124.386 E2.95387
G1 Z0.700 F7800.000
G1 X90.870 Y133.550 F7800.000
G1 X90.870 Y151.550 E3.44670 F3600.000
G1 X89.130 Y151.550 E3.49436
G1 X89.130 Y133.550 E3.98718
G1 X87.627 Y133.550 E4.02831
G1 X87.627 Y129.621 E4.13587
G1 X86.027 Y125.304 E4.26194
G1 X94.025 Y125.304 E4.48092
G1 X92.373 Y129.694 E4.60936
G1 X92.373 Y133.550 E4.71492
G1 X90.930 Y133.550 E4.75441
G1 X91.529 Y134.208 F7800.000
G1 X91.529 Y152.208 E5.24723 F3600.000
G1 X88.471 Y152.208 E5.33095
G1 X88.471 Y134.208 E5.82377
G1 X86.969 Y134.208 E5.86491
G1 X86.969 Y129.739 E5.98727
G1 X85.080 Y124.645 E6.13601
G1 X94.977 Y124.645 E6.40696
G1 X93.031 Y129.814 E6.55816
G1 X93.031 Y134.208 E6.67847
G1 X91.589 Y134.208 E6.71796
G1 X92.047 Y134.727 F7800.000
G1 X92.047 Y152.727 E7.00125 F1800.000
G1 X87.952 Y152.727 E7.06569
G1 X87.952 Y134.727 E7.34897
G1 X86.450 Y134.727 E7.37262
G1 X86.450 Y129.832 E7.44965
G1 X82.700 Y119.715 E7.61946
G1 X82.700 Y107.302 E7.81481
G1 X83.800 Y107.302 E7.83212
G1 X83.800 Y119.528 E8.02454
G1 X85.504 Y124.127 E8.10172
G1 X94.556 Y124.127 E8.24417
G1 X96.200 Y119.759 E8.31763
G1 X96.200 Y107.273 E8.51412
G1 X97.300 Y107.273 E8.53143
G1 X97.300 Y119.944 E8.73085
G1 X93.550 Y129.908 E8.89840
G1 X93.550 Y134.727 E8.97423
G1 X92.108 Y134.727 E8.99693
G1 X91.647 Y134.727 F7800.000
G1 X90.987 Y133.150 F7800.000
G1 X91.973 Y132.164 E9.03600 F1200.000
G1 X91.973 Y131.211 E9.06273
G1 X89.530 Y133.654 E9.15959
G1 X89.080 Y133.150 F7800.000
G1 X91.973 Y130.257 E9.27425 F1200.000
G1 X92.065 Y129.212 E9.30367
G1 X88.127 Y133.150 E9.45979
G1 X88.027 Y132.296 E9.48389
G1 X92.640 Y127.683 E9.66677
G1 X93.216 Y126.154 F7800.000
G1 X88.027 Y131.342 E9.87247 F1200.000
G1 X88.027 Y130.389 E9.89920
G1 X92.712 Y125.704 E10.08492
G1 X91.759 Y125.704 E10.11165
G1 X87.965 Y129.497 E10.26203
G1 X87.707 Y128.802 E10.28283
G1 X90.805 Y125.704 E10.40562
G1 X89.851 Y125.704 E10.43235
G1 X87.450 Y128.106 E10.52757
G1 X87.192 Y127.410 E10.54837
G1 X88.898 Y125.704 E10.61601
G1 X87.944 Y125.704 E10.64274
G1 X86.934 Y126.715 E10.68281
G1 X86.676 Y126.019 E10.70360
G1 X86.991 Y125.704 E10.71609
G1 X90.470 Y133.667 F7800.000
G1 X89.530 Y134.608 E10.75338 F1200.000
G1 X90.470 Y134.620 E10.77975
G1 X89.530 Y135.561 E10.81705
G1 X90.470 Y135.574 E10.84342
G1 X89.530 Y136.515 E10.88072
G1 X90.470 Y136.527 E10.90709
G1 X89.530 Y137.468 E10.94438
G1 X90.470 Y137.481 E10.97076
G1 X89.530 Y138.422 E11.00805
G1 X90.470 Y138.435 E11.03442
G1 X89.530 Y139.375 E11.07172
G1 X90.470 Y139.388 E11.09809
G1 X89.530 Y140.329 E11.13538
G1 X90.470 Y140.342 E11.16176
G1 X89.530 Y141.282 E11.19905
G1 X90.470 Y141.295 E11.22542
G1 X89.530 Y142.236 E11.26272
G1 X90.470 Y142.249 E11.28909
G1 X89.530 Y143.189 E11.32639
G1 X90.470 Y143.202 E11.35276
G1 X89.530 Y144.143 E11.39005
G1 X90.470 Y144.156 E11.41643
G1 X89.530 Y145.096 E11.45372
G1 X90.470 Y145.109 E11.48009
G1 X89.530 Y146.050 E11.51739
G1 X90.470 Y146.063 E11.54376
G1 X89.530 Y147.003 E11.58105
G1 X90.470 Y147.016 E11.60743
G1 X89.530 Y147.957 E11.64472
G1 X90.470 Y147.970 E11.67109
G1 X89.530 Y148.911 E11.70839
G1 X90.470 Y148.923 E11.73476
G1 X89.530 Y149.864 E11.77206
G1 X90.470 Y149.877 E11.79843
G1 X89.530 Y150.818 E11.83572
G1 X90.470 Y150.830 E11.86210
G1 X90.151 Y151.150 E11.87476
G1 E9.87476 F2400.00000
G92 E0
G1 X95.043 Y124.386 F7800.000
G1 E2.00000 F2400.00000
G1 X96.749 Y119.844 E2.26999 F1200.000
G1 X96.750 Y107.532 E2.95514
G1 E0.95514 F2400.00000
G92 E0
G1 X83.250 Y107.561 F7800.000
G1 E2.00000 F2400.00000
G1 X83.251 Y119.616 E2.67086 F1200.000
G1 X85.016 Y124.386 E2.95387
G1 Z0.800 F7800.000
G1 X90.928 Y133.550 F7800.000
G1 X90.928 Y151.550 E3.44670 F3600.000
G1 X89.072 Y151.550 E3.49752
G1 X89.072 Y133.550 E3.99034
G1 X87.627 Y133.550 E4.02990
G1 X87.627 Y129.621 E4.13745
G1 X86.027 Y125.304 E4.26352
G1 X94.025 Y125.304 E4.48250
G1 X92.373 Y129.694 E4.61094
G1 X92.373 Y133.550 E4.71650
G1 X90.988 Y133.550 E4.75441
G1 X91.587 Y134.208 F7800.000
G1 X91.587 Y152.208 E5.24723 F3600.000
G1 X88.413 Y152.208 E5.33412
G1 X88.413 Y134.208 E5.82694
G1 X86.969 Y134.208 E5.86649
G1 X86.969 Y129.739 E5.98885
G1 X85.080 Y124.645 E6.13759
G1 X94.977 Y124.645 E6.40854
G1 X93.031 Y129.814 E6.55974
G1 X93.031 Y134.208 E6.68005
G1 X91.647 Y134.208 E6.71796
G1 X92.105 Y134.727 F7800.000
G1 X92.105 Y152.727 E7.00125 F1800.000
G1 X87.895 Y152.727 E7.06751
G1 X87.895 Y134.727 E7.35079
G1 X86.450 Y134.727 E7.37353
G1 X86.450 Y129.832 E7.45056
G1 X82.700 Y119.715 E7.62036
G1 X82.700 Y107.302 E7.81572
G1 X83.800 Y107.302 E7.83303
G1 X83.800 Y119.528 E8.02545
G1 X85.504 Y124.127 E8.10263
G1 X94.556 Y124.127 E8.24508
G1 X96.200 Y119.759 E8.31854
G1 X96.200 Y107.273 E8.51503
G1 X97.300 Y107.273 E8.53234
G1 X97.300 Y119.944 E8.73176
G1 X93.550 Y129.908 E8.89931
G1 X93.550 Y134.727 E8.97514
G1 X92.165 Y134.727 E8.99693
G1 X91.705 Y134.727 F7800.000
G1 X89.472 Y134.561 F7800.000
G1 X90.528 Y135.617 E9.03896 F1200.000
G1 X90.528 Y136.574 E9.06589
G1 X89.472 Y135.518 E9.10791
G1 X89.472 Y136.475 E9.13484
G1 X90.528 Y137.531 E9.17687
G1 X90.528 Y138.488 E9.20379
G1 X89.472 Y137.432 E9.24582
G1 X89.472 Y138.389 E9.27275
G1 X90.528 Y139.445 E9.31477
G1 X90.528 Y140.402 E9.34170
G1 X89.472 Y139.346 E9.38372
G1 X89.472 Y140.303 E9.41065
G1 X90.528 Y141.359 E9.45268
G1 X90.528 Y142.316 E9.47960
G1 X89.472 Y141.260 E9.52163
G1 X89.472 Y142.217 E9.54856
G1 X90.528 Y143.273 E9.59058
G1 X90.528 Y144.230 E9.61751
G1 X89.472 Y143.174 E9.65953
G1 X89.472 Y144.131 E9.68646
G1 X90.528 Y145.187 E9.72849
G1 X90.528 Y146.144 E9.75541
G1 X89.472 Y145.088 E9.79744
G1 X89.472 Y146.045 E9.82437
G1 X90.528 Y147.101 E9.86639
G1 X90.528 Y148.058 E9.89332
G1 X89.472 Y147.002 E9.93535
G1 X89.472 Y147.959 E9.96227
