; generated by Slic3r 1.2.9 on 2016-06-23 at 13:53:04

; external perimeters extrusion width = 0.30mm
; perimeters extrusion width = 0.40mm
; infill extrusion width = 0.40mm
; solid infill extrusion width = 0.40mm
; top infill extrusion width = 0.40mm

M107
M190 S40 ; set bed temperature
M104 S220 ; set temperature
G28 ; home all axes
G1 Z5 F5000 ; lift nozzle

M109 S220 ; wait for temperature to be reached
G21 ; set units to millimeters
G90 ; use absolute coordinates
M82 ; use absolute distances for extrusion
G92 E0
G1 Z0.300 F7800.000
G1 E-2.00000 F2400.00000
G92 E0
G1 X103.629 Y101.049 F7800.000
G1 E2.00000 F2400.00000
G1 X105.712 Y99.742 E2.14783 F1800.000
G1 X108.660 Y99.148 E2.32861
G1 X112.410 Y99.148 E2.55408
G1 X114.836 Y99.545 E2.70191
G1 X117.009 Y100.696 E2.84975 F1800.000
G1 X118.997 Y102.951 E3.03053
G1 X120.872 Y106.199 E3.25600
G1 X121.741 Y108.499 E3.40383
G1 X121.832 Y110.956 E3.55166
G1 X120.872 Y113.806 E3.73244
G1 X118.997 Y117.053 E3.95791
G1 X117.440 Y118.956 E4.10575
G1 X115.357 Y120.263 E4.25358
G1 X112.410 Y120.857 E4.43436
G1 X108.660 Y120.857 E4.65983
G1 X106.233 Y120.459 E4.80766
G1 X104.060 Y119.309 E4.95549
G1 X102.072 Y117.053 E5.13628
G1 X100.197 Y113.806 E5.36176
G1 X99.328 Y111.506 E5.50959
G1 X99.238 Y109.049 E5.65742
G1 X100.197 Y106.199 E5.83819
G1 X102.072 Y102.951 E6.06366
G1 X103.601 Y101.084 E6.20879
G1 X104.047 Y101.395 F7800.000
G1 X106.078 Y100.172 E6.35135 F1800.000
G1 X108.660 Y99.684 E6.50930
G1 X112.410 Y99.684 E6.73477
G1 X114.746 Y100.081 E6.87727
G1 X116.820 Y101.228 E7.01976 F1800.000
G1 X118.534 Y103.219 E7.17772
G1 X120.409 Y106.467 E7.40319
G1 X121.233 Y108.689 E7.54568
G1 X121.277 Y111.058 E7.68818
G1 X120.409 Y113.538 E7.84614
G1 X118.534 Y116.786 E8.07160
G1 X117.021 Y118.611 E8.21410
G1 X114.991 Y119.833 E8.35660
G1 X112.410 Y120.321 E8.51455
G1 X108.660 Y120.321 E8.74002
G1 X106.323 Y119.924 E8.88252
G1 X104.249 Y118.777 E9.02502
G1 X102.536 Y116.786 E9.18297
G1 X100.661 Y113.538 E9.40845
G1 X99.836 Y111.316 E9.55095
G1 X99.793 Y108.946 E9.69345
G1 X100.661 Y106.467 E9.85139
G1 X102.536 Y103.219 E10.07686
G1 X104.019 Y101.430 E10.21659
G1 X104.463 Y101.745 F7800.000
G1 X106.440 Y100.608 E10.35367 F1800.000
G1 X108.660 Y100.219 E10.48917
G1 X112.410 Y100.219 E10.71464
G1 X114.653 Y100.616 E10.85160
G1 X116.623 Y101.759 E10.98855 F1800.000
G1 X118.070 Y103.487 E11.12406
G1 X119.945 Y106.735 E11.34952
G1 X120.722 Y108.876 E11.48648
G1 X120.718 Y111.153 E11.62343
G1 X119.945 Y113.270 E11.75894
G1 X118.070 Y116.518 E11.98441
G1 X116.604 Y118.262 E12.12136
G1 X114.630 Y119.397 E12.25831
G1 X112.410 Y119.786 E12.39382
G1 X108.660 Y119.786 E12.61929
G1 X106.417 Y119.389 E12.75624
G1 X104.446 Y118.246 E12.89320
G1 X103.000 Y116.518 E13.02870
G1 X101.125 Y113.270 E13.25418
G1 X100.347 Y111.129 E13.39113
G1 X100.351 Y108.851 E13.52809
G1 X101.125 Y106.735 E13.66359
G1 X103.000 Y103.487 E13.88905
G1 X104.435 Y101.779 E14.02317
G1 E12.02317 F2400.00000
G92 E0
G1 X111.618 Y111.879 F7800.000
G1 E2.00000 F2400.00000
G1 X109.451 Y111.879 E2.13027 F1800.000
G1 X108.368 Y110.002 E2.26054
G1 X109.451 Y108.126 E2.39081
G1 X111.618 Y108.126 E2.52107
G1 X112.701 Y110.002 E2.65134
G1 X111.640 Y111.840 E2.77891
G1 X111.927 Y112.414 F7800.000
G1 X109.142 Y112.414 E2.94636 F1800.000
G1 X107.750 Y110.002 E3.11381
G1 X109.142 Y107.590 E3.28127
G1 X111.927 Y107.590 E3.44872
G1 X113.320 Y110.002 E3.61618
G1 X111.950 Y112.375 E3.78093
G1 X112.236 Y112.950 F7800.000
G1 X108.833 Y112.950 E3.98557 F1800.000
G1 X107.131 Y110.002 E4.19021
G1 X108.833 Y107.055 E4.39485
G1 X112.236 Y107.055 E4.59949
G1 X113.938 Y110.002 E4.80413
G1 X112.259 Y112.911 E5.00606
G1 X112.007 Y112.757 F7800.000
G1 X109.848 Y111.557 F7800.000
G1 X109.546 Y111.255 E5.03645 F1800.000
G1 X108.874 Y109.686 F7800.000
G1 X110.744 Y111.557 E5.22473 F1800.000
G1 X111.539 Y111.455 E5.28175
G1 X109.202 Y109.118 E5.51698
G1 X109.530 Y108.550 E5.56370
G1 X111.867 Y110.887 E5.79893
G1 X112.196 Y110.318 E5.84565
G1 X110.325 Y108.448 E6.03393
G1 X111.222 Y108.448 E6.09774
G1 X111.523 Y108.750 E6.12813
G1 Z0.500 F7800.000
G1 X111.943 Y112.441 F7800.000
G1 X109.127 Y112.441 E6.20261 F900.000
G1 X107.718 Y110.002 E6.27710
G1 X109.127 Y107.563 E6.35158
G1 X111.943 Y107.563 E6.42607
G1 X113.351 Y110.002 E6.50056
G1 X111.965 Y112.402 E6.57385
G1 X112.147 Y112.795 F7800.000
G1 X108.923 Y112.795 E6.65913 F900.000
G1 X107.310 Y110.002 E6.74441
G1 X108.923 Y107.210 E6.82969
G1 X112.147 Y107.210 E6.91497
G1 X113.759 Y110.002 E7.00025
G1 X112.169 Y112.756 E7.08434
G1 X112.323 Y113.100 F7800.000
G1 X108.746 Y113.100 E7.15315 F900.000
G1 X106.958 Y110.002 E7.22197
G1 X108.746 Y106.905 E7.29078
G1 X112.323 Y106.905 E7.35959
G1 X114.111 Y110.002 E7.42840
G1 X112.346 Y113.061 E7.49635
G1 X112.093 Y112.907 F7800.000
G1 X111.674 Y112.236 F7800.000
G1 X111.899 Y112.011 E7.50507 F1200.000
G1 X111.155 Y112.236 E7.52640
G1 X112.608 Y110.783 E7.58281
G1 X113.045 Y109.828 F7800.000
G1 X110.636 Y112.236 E7.67633 F1200.000
G1 X110.118 Y112.236 E7.69058
G1 X112.855 Y109.499 E7.79688
G1 X112.665 Y109.170 E7.80731
G1 X109.599 Y112.236 E7.92639
G1 X109.164 Y112.151 E7.93853
G1 X112.475 Y108.841 E8.06709
G1 X112.285 Y108.512 E8.07752
G1 X108.975 Y111.822 E8.20608
G1 X108.785 Y111.493 E8.21651
G1 X112.095 Y108.183 E8.34507
G1 X111.905 Y107.854 E8.35550
G1 X108.595 Y111.164 E8.48406
G1 X108.405 Y110.835 E8.49449
G1 X111.471 Y107.769 E8.61357
G1 X110.952 Y107.769 E8.62782
G1 X108.215 Y110.506 E8.73411
G1 X108.025 Y110.177 E8.74455
G1 X110.433 Y107.769 E8.83807
G1 X109.914 Y107.769 E8.85232
G1 X108.461 Y109.221 E8.90873
G1 X109.170 Y107.993 F7800.000
G1 X109.395 Y107.769 E8.91745 F1200.000
G1 Z0.700 F7800.000
G1 X111.943 Y112.441 F7800.000
G1 X109.127 Y112.441 E8.99193 F900.000
G1 X107.718 Y110.002 E9.06642
G1 X109.127 Y107.563 E9.14091
G1 X111.943 Y107.563 E9.21539
G1 X113.351 Y110.002 E9.28988
G1 X111.965 Y112.402 E9.36317
G1 X112.147 Y112.795 F7800.000
G1 X108.923 Y112.795 E9.44845 F900.000
G1 X107.310 Y110.002 E9.53373
G1 X108.923 Y107.210 E9.61901
G1 X112.147 Y107.210 E9.70429
G1 X113.759 Y110.002 E9.78957
G1 X112.169 Y112.756 E9.87366
G1 X112.323 Y113.100 F7800.000
G1 X108.746 Y113.100 E9.94248 F900.000
G1 X106.958 Y110.002 E10.01129
G1 X108.746 Y106.905 E10.08010
G1 X112.323 Y106.905 E10.14891
G1 X114.111 Y110.002 E10.21773
G1 X112.346 Y113.061 E10.28567
G1 X112.093 Y112.907 F7800.000
G1 X113.045 Y110.177 F7800.000
G1 X110.636 Y107.769 E10.37919 F1200.000
G1 X110.118 Y107.769 E10.39345
G1 X112.855 Y110.506 E10.49974
G1 X112.665 Y110.835 E10.51018
G1 X109.599 Y107.769 E10.62925
G1 X109.164 Y107.854 E10.64140
G1 X112.475 Y111.164 E10.76995
G1 X112.285 Y111.493 E10.78039
G1 X108.975 Y108.183 E10.90894
G1 X108.785 Y108.512 E10.91937
G1 X112.095 Y111.822 E11.04793
G1 X111.905 Y112.151 E11.05836
G1 X108.595 Y108.841 E11.18692
G1 X108.405 Y109.170 E11.19735
G1 X111.471 Y112.236 E11.31643
G1 X110.952 Y112.236 E11.33068
G1 X108.215 Y109.499 E11.43698
G1 X108.025 Y109.828 E11.44741
G1 X110.433 Y112.236 E11.54093
G1 X109.914 Y112.236 E11.55518
G1 X108.461 Y110.783 E11.61159
G1 X109.170 Y112.011 F7800.000
G1 X109.395 Y112.236 E11.62031 F1200.000
G1 X112.608 Y109.221 F7800.000
G1 X111.155 Y107.769 E11.67672 F1200.000
G1 X111.674 Y107.769 E11.69097
G1 X111.899 Y107.993 E11.69969
M106 S249.9
G1 Z0.900 F7800.000
G1 X111.943 Y112.441 F7800.000
G1 X109.127 Y112.441 E11.77418 F900.000
G1 X107.718 Y110.002 E11.84866
G1 X109.127 Y107.563 E11.92315
G1 X111.943 Y107.563 E11.99764
G1 X113.351 Y110.002 E12.07212
G1 X111.965 Y112.402 E12.14542
G1 X112.147 Y112.795 F7800.000
G1 X108.923 Y112.795 E12.23070 F900.000
G1 X107.310 Y110.002 E12.31598
G1 X108.923 Y107.210 E12.40126
G1 X112.147 Y107.210 E12.48654
G1 X113.759 Y110.002 E12.57182
G1 X112.169 Y112.756 E12.65591
G1 X114.151 Y110.070 F7800.000
G1 X114.072 Y110.070 E12.65742 F900.000
G1 X112.323 Y113.100 E12.72472
G1 X108.746 Y113.100 E12.79353
G1 X106.958 Y110.002 E12.86234
G1 X108.746 Y106.905 E12.93116
G1 X112.323 Y106.905 E12.99997
G1 X114.128 Y110.031 E13.06943
G1 X114.077 Y110.044 F7800.000
G1 X113.045 Y109.828 F7800.000
G1 X110.636 Y112.236 E13.16295 F1200.000
G1 X110.118 Y112.236 E13.17720
G1 X112.855 Y109.499 E13.28350
G1 X112.665 Y109.170 E13.29393
G1 X109.599 Y112.236 E13.41300
G1 X109.164 Y112.151 E13.42515
G1 X112.475 Y108.841 E13.55370
G1 X112.285 Y108.512 E13.56414
G1 X108.975 Y111.822 E13.69269
G1 X108.785 Y111.493 E13.70312
G1 X112.095 Y108.183 E13.83168
G1 X111.905 Y107.854 E13.84211
G1 X108.595 Y111.164 E13.97067
G1 X108.405 Y110.835 E13.98110
G1 X111.471 Y107.769 E14.10017
G1 X110.952 Y107.769 E14.11442
G1 X108.215 Y110.506 E14.22072
G1 X108.025 Y110.177 E14.23115
G1 X110.433 Y107.769 E14.32467
G1 X109.914 Y107.769 E14.33893
G1 X108.461 Y109.221 E14.39533
G1 X109.170 Y107.993 F7800.000
G1 X109.395 Y107.769 E14.40405 F1200.000
G1 X112.608 Y110.783 F7800.000
G1 X111.155 Y112.236 E14.46046 F1200.000
G1 X111.899 Y112.011 E14.48179
G1 X111.674 Y112.236 E14.49051
G1 Z1.100 F7800.000
G1 X111.943 Y112.441 F7800.000
G1 X109.127 Y112.441 E14.56500 F900.000
G1 X107.718 Y110.002 E14.63948
G1 X109.127 Y107.563 E14.71397
G1 X111.943 Y107.563 E14.78846
G1 X113.351 Y110.002 E14.86294
G1 X111.965 Y112.402 E14.93624
G1 X112.147 Y112.795 F7800.000
G1 X108.923 Y112.795 E15.02152 F900.000
G1 X107.310 Y110.002 E15.10680
G1 X108.923 Y107.210 E15.19208
G1 X112.147 Y107.210 E15.27736
G1 X113.759 Y110.002 E15.36264
G1 X112.169 Y112.756 E15.44673
G1 X112.323 Y113.100 F7800.000
G1 X108.746 Y113.100 E15.51554 F900.000
G1 X106.958 Y110.002 E15.58435
G1 X108.746 Y106.905 E15.65317
G1 X112.323 Y106.905 E15.72198
G1 X114.111 Y110.002 E15.79079
G1 X112.346 Y113.061 E15.85874
G1 X112.093 Y112.907 F7800.000
G1 X113.045 Y110.177 F7800.000
G1 X110.636 Y107.769 E15.95226 F1200.000
G1 X110.118 Y107.769 E15.96651
G1 X112.855 Y110.506 E16.07281
G1 X112.665 Y110.835 E16.08324
G1 X109.599 Y107.769 E16.20231
G1 X109.164 Y107.854 E16.21446
G1 X112.475 Y111.164 E16.34301
G1 X112.285 Y111.493 E16.35345
G1 X108.975 Y108.183 E16.48200
G1 X108.785 Y108.512 E16.49243
G1 X112.095 Y111.822 E16.62099
G1 X111.905 Y112.151 E16.63142
G1 X108.595 Y108.841 E16.75998
G1 X108.405 Y109.170 E16.77041
G1 X111.471 Y112.236 E16.88948
G1 X110.952 Y112.236 E16.90374
G1 X108.215 Y109.499 E17.01003
G1 X108.025 Y109.828 E17.02046
G1 X110.433 Y112.236 E17.11399
G1 X109.914 Y112.236 E17.12824
G1 X108.461 Y110.783 E17.18464
G1 X109.170 Y112.011 F7800.000
G1 X109.395 Y112.236 E17.19336 F1200.000
G1 X112.608 Y109.221 F7800.000
G1 X111.155 Y107.769 E17.24977 F1200.000
G1 X111.674 Y107.769 E17.26402
G1 X111.899 Y107.994 E17.27274
G1 Z1.300 F7800.000
G1 X111.943 Y112.441 F7800.000
G1 X109.127 Y112.441 E17.34723 F900.000
G1 X107.718 Y110.002 E17.42172
G1 X109.127 Y107.563 E17.49620
G1 X111.943 Y107.563 E17.57069
G1 X113.351 Y110.002 E17.64517
G1 X111.965 Y112.402 E17.71847
G1 X112.147 Y112.795 F7800.000
G1 X108.923 Y112.795 E17.80375 F900.000
G1 X107.310 Y110.002 E17.88903
G1 X108.923 Y107.210 E17.97431
G1 X112.147 Y107.210 E18.05959
G1 X113.759 Y110.002 E18.14487
G1 X112.169 Y112.756 E18.22896
G1 X112.323 Y113.100 F7800.000
G1 X108.746 Y113.100 E18.29777 F900.000
G1 X106.958 Y110.002 E18.36659
G1 X108.746 Y106.905 E18.43540
G1 X112.323 Y106.905 E18.50421
G1 X114.111 Y110.002 E18.57302
G1 X112.346 Y113.061 E18.64097
G1 X112.093 Y112.907 F7800.000
G1 X111.674 Y112.236 F7800.000
G1 X111.899 Y112.011 E18.64969 F1200.000
G1 X111.155 Y112.236 E18.67102
G1 X112.608 Y110.783 E18.72743
G1 X113.045 Y109.828 F7800.000
G1 X110.636 Y112.236 E18.82095 F1200.000
G1 X110.118 Y112.236 E18.83520
G1 X112.855 Y109.499 E18.94150
G1 X112.665 Y109.170 E18.95193
G1 X109.599 Y112.236 E19.07100
G1 X109.164 Y112.151 E19.08315
G1 X112.475 Y108.841 E19.21170
G1 X112.285 Y108.512 E19.22214
G1 X108.975 Y111.822 E19.35069
G1 X108.785 Y111.493 E19.36112
G1 X112.095 Y108.183 E19.48968
G1 X111.905 Y107.854 E19.50011
G1 X108.595 Y111.164 E19.62867
G1 X108.405 Y110.835 E19.63910
G1 X111.471 Y107.769 E19.75817
G1 X110.952 Y107.769 E19.77243
G1 X108.215 Y110.506 E19.87872
G1 X108.025 Y110.177 E19.88915
G1 X110.433 Y107.769 E19.98267
G1 X109.914 Y107.769 E19.99693
G1 X108.461 Y109.221 E20.05333
G1 X109.170 Y107.993 F7800.000
G1 X109.395 Y107.769 E20.06205 F1200.000
G1 Z1.500 F7800.000
G1 X111.943 Y112.441 F7800.000
G1 X109.127 Y112.441 E20.13654 F900.000
G1 X107.718 Y110.002 E20.21103
G1 X109.127 Y107.563 E20.28551
G1 X111.943 Y107.563 E20.36000
G1 X113.351 Y110.002 E20.43448
G1 X111.965 Y112.402 E20.50778
G1 X112.147 Y112.795 F7800.000
G1 X108.923 Y112.795 E20.59306 F900.000
G1 X107.310 Y110.002 E20.67834
G1 X108.923 Y107.210 E20.76362
G1 X112.147 Y107.210 E20.84890
G1 X113.759 Y110.002 E20.93418
G1 X112.169 Y112.756 E21.01827
G1 X112.323 Y113.100 F7800.000
G1 X108.746 Y113.100 E21.08708 F900.000
G1 X106.958 Y110.002 E21.15590
G1 X108.746 Y106.905 E21.22471
G1 X112.323 Y106.905 E21.29352
G1 X114.111 Y110.002 E21.36233
G1 X112.346 Y113.061 E21.43028
G1 X112.093 Y112.907 F7800.000
G1 X113.045 Y110.177 F7800.000
G1 X110.636 Y107.769 E21.52380 F1200.000
G1 X110.118 Y107.769 E21.53805
G1 X112.855 Y110.506 E21.64435
G1 X112.665 Y110.835 E21.65478
G1 X109.599 Y107.769 E21.77386
G1 X109.164 Y107.854 E21.78600
G1 X112.475 Y111.164 E21.91456
G1 X112.285 Y111.493 E21.92499
G1 X108.975 Y108.183 E22.05354
G1 X108.785 Y108.512 E22.06398
G1 X112.095 Y111.822 E22.19253
G1 X111.905 Y112.151 E22.20296
G1 X108.595 Y108.841 E22.33152
G1 X108.405 Y109.170 E22.34195
G1 X111.471 Y112.236 E22.46103
G1 X110.952 Y112.236 E22.47528
G1 X108.215 Y109.499 E22.58157
G1 X108.025 Y109.828 E22.59201
G1 X110.433 Y112.236 E22.68553
G1 X109.914 Y112.236 E22.69978
G1 X108.461 Y110.783 E22.75618
G1 X109.170 Y112.011 F7800.000
G1 X109.395 Y112.236 E22.76491 F1200.000
G1 X112.608 Y109.221 F7800.000
G1 X111.155 Y107.769 E22.82131 F1200.000
G1 X111.674 Y107.769 E22.83556
G1 X111.899 Y107.994 E22.84429
G1 Z1.700 F7800.000
G1 X111.943 Y112.441 F7800.000
G1 X109.127 Y112.441 E22.91877 F900.000
G1 X107.718 Y110.002 E22.99326
G1 X109.127 Y107.563 E23.06774
G1 X111.943 Y107.563 E23.14223
G1 X113.351 Y110.002 E23.21672
G1 X111.965 Y112.402 E23.29001
G1 X112.147 Y112.795 F7800.000
G1 X108.923 Y112.795 E23.37529 F900.000
G1 X107.310 Y110.002 E23.46057
G1 X108.923 Y107.210 E23.54585
G1 X112.147 Y107.210 E23.63113
G1 X113.759 Y110.002 E23.71641
G1 X112.169 Y112.756 E23.80050
G1 X112.323 Y113.100 F7800.000
G1 X108.746 Y113.100 E23.86931 F900.000
G1 X106.958 Y110.002 E23.93813
G1 X108.746 Y106.905 E24.00694
G1 X112.323 Y106.905 E24.07575
G1 X114.111 Y110.002 E24.14456
G1 X112.346 Y113.061 E24.21251
G1 X112.093 Y112.907 F7800.000
G1 X111.674 Y112.236 F7800.000
G1 X111.899 Y112.011 E24.22123 F1200.000
G1 X111.155 Y112.236 E24.24256
G1 X112.608 Y110.783 E24.29897
G1 X113.045 Y109.828 F7800.000
G1 X110.636 Y112.236 E24.39249 F1200.000
G1 X110.118 Y112.236 E24.40674
G1 X112.855 Y109.499 E24.51304
G1 X112.665 Y109.170 E24.52347
G1 X109.599 Y112.236 E24.64255
G1 X109.164 Y112.151 E24.65469
G1 X112.475 Y108.841 E24.78325
G1 X112.285 Y108.512 E24.79368
G1 X108.975 Y111.822 E24.92223
G1 X108.785 Y111.493 E24.93267
G1 X112.095 Y108.183 E25.06122
G1 X111.905 Y107.854 E25.07165
G1 X108.595 Y111.164 E25.20021
G1 X108.405 Y110.835 E25.21064
G1 X111.471 Y107.769 E25.32972
G1 X110.952 Y107.769 E25.34397
G1 X108.215 Y110.506 E25.45026
G1 X108.025 Y110.177 E25.46070
G1 X110.433 Y107.769 E25.55422
G1 X109.914 Y107.769 E25.56847
G1 X108.461 Y109.221 E25.62487
G1 X109.170 Y107.994 F7800.000
G1 X109.395 Y107.769 E25.63360 F1200.000
G1 Z1.900 F7800.000
G1 X111.943 Y112.441 F7800.000
