; generated by Slic3r 1.2.9 on 2016-07-07 at 18:40:23

; external perimeters extrusion width = 0.30mm
; perimeters extrusion width = 0.40mm
; infill extrusion width = 0.40mm
; solid infill extrusion width = 0.40mm
; top infill extrusion width = 0.40mm

M107
M190 S40 ; set bed temperature
M104 S220 ; set temperature
G28 ; home all axes
G1 Z5 F5000 ; lift nozzle

M109 S220 ; wait for temperature to be reached
G21 ; set units to millimeters
G90 ; use absolute coordinates
M82 ; use absolute distances for extrusion
G92 E0
G1 Z-0.200 F7800.000
G1 E-2.00000 F2400.00000
G92 E0
G1 X97.941 Y92.401 F7800.000
G1 E2.00000 F2400.00000
G1 X99.725 Y90.708 E2.14783 F1800.000
G1 X101.955 Y89.673 E2.29566
G1 X104.000 Y89.393 E2.41977
G1 X106.000 Y89.393 E2.54002
G1 X108.426 Y89.791 E2.68785
G1 X110.599 Y90.941 E2.83568 F1800.000
G1 X111.538 Y91.785 E2.91161
G1 X119.972 Y100.743 E3.65133
G1 X120.619 Y101.495 E3.71097
G1 X120.958 Y101.939 E3.74455
G1 X121.289 Y102.407 E3.77900
G1 X121.583 Y102.865 E3.81176
G1 X121.876 Y103.362 E3.84646
G1 X122.129 Y103.840 E3.87896
G1 X122.382 Y104.363 E3.91387
G1 X122.594 Y104.856 E3.94617
G1 X122.805 Y105.402 E3.98136
G1 X122.974 Y105.907 E4.01337
G1 X123.140 Y106.472 E4.04874
G1 X123.266 Y106.986 E4.08058
G1 X123.386 Y107.566 E4.11620
G1 X123.469 Y108.085 E4.14779
G1 X123.541 Y108.677 E4.18366
G1 X123.580 Y109.197 E4.21499
G1 X123.604 Y109.796 E4.25107
G1 X123.600 Y110.314 E4.28220
G1 X123.575 Y110.917 E4.31849
G1 X123.529 Y111.429 E4.34941
G1 X123.453 Y112.032 E4.38594
G1 X123.366 Y112.535 E4.41661
G1 X123.240 Y113.133 E4.45336
G1 X123.113 Y113.623 E4.48382
G1 X122.937 Y114.213 E4.52083
G1 X122.771 Y114.687 E4.55102
G1 X122.546 Y115.264 E4.58825
G1 X122.343 Y115.720 E4.61823
G1 X122.070 Y116.279 E4.65569
G1 X121.832 Y116.713 E4.68544
G1 X121.512 Y117.252 E4.72310
G1 X121.241 Y117.662 E4.75265
G1 X120.876 Y118.176 E4.79057
G1 X120.575 Y118.558 E4.81985
G1 X119.970 Y119.259 E4.87551
G1 X111.538 Y128.215 E5.61504
G1 X109.586 Y129.709 E5.76287
G1 X107.258 Y130.502 E5.91070
G1 X106.000 Y130.607 E5.98663
G1 X104.000 Y130.607 E6.10688
G1 X101.574 Y130.209 E6.25471
G1 X99.401 Y129.059 E6.40254
G1 X97.708 Y127.275 E6.55037
G1 X96.673 Y125.045 E6.69821
G1 X96.393 Y123.000 E6.82231
G1 X96.393 Y97.000 E8.38556
G1 X96.791 Y94.574 E8.53339
G1 X97.920 Y92.440 E8.67852
G1 X98.428 Y92.670 F7800.000
G1 X98.473 Y92.589 E8.68405 F1800.000
G1 X100.241 Y91.011 E8.82655
G1 X102.431 Y90.105 E8.96904
G1 X104.000 Y89.929 E9.06399
G1 X106.000 Y89.929 E9.18424
G1 X108.337 Y90.326 E9.32674
G1 X111.148 Y92.153 E9.52835 F1800.000
G1 X119.582 Y101.110 E10.26806
G1 X120.205 Y101.835 E10.32555
G1 X120.521 Y102.248 E10.35681
G1 X121.122 Y103.138 E10.42136
G1 X121.648 Y104.074 E10.48590
G1 X122.095 Y105.050 E10.55045
G1 X122.303 Y105.590 E10.58524
G1 X122.597 Y106.523 E10.64407
G1 X122.742 Y107.095 E10.67955
G1 X122.860 Y107.668 E10.71475
G1 X123.009 Y108.736 E10.77954
G1 X123.069 Y109.811 E10.84427
G1 X123.040 Y110.887 E10.90902
G1 X122.923 Y111.958 E10.97380
G1 X122.718 Y113.015 E11.03855
G1 X122.426 Y114.053 E11.10334
G1 X122.050 Y115.062 E11.16809
G1 X121.592 Y116.037 E11.23286
G1 X121.056 Y116.971 E11.29760
G1 X120.444 Y117.858 E11.36240
G1 X119.761 Y118.692 E11.42722
G1 X111.148 Y127.847 E12.18297
G1 X109.258 Y129.276 E12.32547
G1 X106.000 Y130.071 E12.52707
G1 X104.000 Y130.071 E12.64732
G1 X101.663 Y129.674 E12.78982
G1 X99.589 Y128.527 E12.93232
G1 X98.011 Y126.759 E13.07481
G1 X97.105 Y124.569 E13.21731
G1 X96.929 Y123.000 E13.31226
G1 X96.929 Y97.000 E14.87550
G1 X97.326 Y94.663 E15.01800
G1 X98.407 Y92.709 E15.15226
G1 X98.910 Y92.949 F7800.000
G1 X99.004 Y92.787 E15.16356 F1800.000
G1 X100.753 Y91.328 E15.30051
G1 X104.000 Y90.464 E15.50250
G1 X106.000 Y90.464 E15.62275
G1 X108.243 Y90.861 E15.75970
G1 X110.758 Y92.520 E15.94086 F1800.000
G1 X119.192 Y101.477 E16.68058
G1 X119.792 Y102.176 E16.73591
G1 X120.084 Y102.558 E16.76485
G1 X120.661 Y103.411 E16.82675
G1 X121.166 Y104.308 E16.88865
G1 X121.595 Y105.243 E16.95055
G1 X121.802 Y105.777 E16.98495
G1 X122.084 Y106.675 E17.04152
G1 X122.335 Y107.771 E17.10913
G1 X122.476 Y108.794 E17.17125
G1 X122.533 Y109.825 E17.23332
G1 X122.505 Y110.858 E17.29542
G1 X122.392 Y111.884 E17.35753
G1 X122.195 Y112.898 E17.41962
G1 X121.915 Y113.893 E17.48175
G1 X121.554 Y114.860 E17.54384
G1 X121.115 Y115.795 E17.60595
G1 X120.600 Y116.690 E17.66803
G1 X120.013 Y117.541 E17.73016
G1 X119.357 Y118.340 E17.79232
G1 X110.758 Y127.480 E18.54684
G1 X108.932 Y128.841 E18.68379
G1 X106.000 Y129.536 E18.86495
G1 X104.000 Y129.536 E18.98520
G1 X101.757 Y129.139 E19.12215
G1 X99.787 Y127.996 E19.25910
G1 X98.328 Y126.247 E19.39606
G1 X97.464 Y123.000 E19.59804
G1 X97.464 Y97.000 E21.16129
G1 X97.861 Y94.757 E21.29824
G1 X98.887 Y92.988 E21.42119
G1 E19.42119 F2400.00000
G92 E0
G1 X113.518 Y113.117 F7800.000
G1 E2.00000 F2400.00000
G1 X113.201 Y113.442 E2.02731 F1800.000
G1 X112.854 Y113.735 E2.05461
G1 X112.480 Y113.993 E2.08192
G1 X112.083 Y114.214 E2.10923
G1 X111.667 Y114.395 E2.13654
G1 X111.235 Y114.535 E2.16384
G1 X110.791 Y114.633 E2.19115
G1 X110.340 Y114.688 E2.21846
G1 X109.886 Y114.699 E2.24577
G1 X109.433 Y114.666 E2.27307
G1 X108.986 Y114.590 E2.30038
G1 X108.548 Y114.470 E2.32769
G1 X108.123 Y114.309 E2.35500
G1 X107.716 Y114.108 E2.38231
G1 X107.330 Y113.868 E2.40961
G1 X106.969 Y113.593 E2.43692
G1 X106.636 Y113.283 E2.46423
G1 X106.335 Y112.943 E2.49153
G1 X106.068 Y112.576 E2.51884
G1 X105.838 Y112.184 E2.54615
G1 X105.647 Y111.772 E2.57346
G1 X105.496 Y111.344 E2.60076
G1 X105.387 Y110.903 E2.62807
G1 X105.322 Y110.454 E2.65538
G1 X105.300 Y110.000 E2.68269
G1 X105.322 Y109.546 E2.70999
G1 X105.387 Y109.097 E2.73730
G1 X105.496 Y108.656 E2.76461
G1 X105.647 Y108.228 E2.79192
G1 X105.838 Y107.816 E2.81922
G1 X106.068 Y107.424 E2.84653
G1 X106.335 Y107.057 E2.87384
G1 X106.636 Y106.717 E2.90115
G1 X106.969 Y106.407 E2.92845
G1 X107.330 Y106.132 E2.95576
G1 X107.716 Y105.892 E2.98307
G1 X108.123 Y105.691 E3.01038
G1 X108.548 Y105.530 E3.03768
G1 X108.986 Y105.410 E3.06499
G1 X109.433 Y105.334 E3.09230
G1 X109.878 Y105.302 E3.11911 F1800.000
G1 X110.340 Y105.312 E3.14690
G1 X110.791 Y105.367 E3.17422
G1 X111.235 Y105.465 E3.20153
G1 X111.667 Y105.605 E3.22883
G1 X112.083 Y105.786 E3.25614
G1 X112.480 Y106.007 E3.28345
G1 X112.854 Y106.265 E3.31076
G1 X113.201 Y106.558 E3.33806
G1 X113.518 Y106.883 E3.36537
G1 X113.803 Y107.237 E3.39268
G1 X114.052 Y107.617 E3.41999
G1 X114.263 Y108.019 E3.44730
G1 X114.434 Y108.440 E3.47460
G1 X114.564 Y108.875 E3.50191
G1 X114.651 Y109.321 E3.52922
G1 X114.695 Y109.773 E3.55653
G1 X114.695 Y110.227 E3.58383
G1 X114.651 Y110.679 E3.61114
G1 X114.564 Y111.125 E3.63845
G1 X114.434 Y111.560 E3.66575
G1 X114.263 Y111.981 E3.69306
G1 X114.052 Y112.383 E3.72037
G1 X113.803 Y112.763 E3.74768
G1 X113.546 Y113.082 E3.77228
G1 X113.609 Y113.403 F7800.000
G1 E1.77228 F2400.00000
G92 E0
G1 X105.164 Y107.298 F7800.000
G1 E2.00000 F2400.00000
G1 X105.259 Y107.220 E2.00739 F1800.000
G1 X105.464 Y107.395 E2.02359
G1 X105.363 Y107.566 E2.03556
G1 X105.103 Y108.159 E2.07449
G1 X104.836 Y108.114 E2.09079
G1 X104.836 Y97.836 E2.70875
G1 X105.164 Y97.836 E2.72852
G1 X105.164 Y107.253 E3.29473
G1 X105.164 Y112.702 F7800.000
G1 X105.164 Y122.164 E3.86364 F1800.000
G1 X104.836 Y122.164 E3.88341
G1 X104.836 Y111.886 E4.50137
G1 X105.103 Y111.841 E4.51767
G1 X105.363 Y112.434 E4.55660
G1 X105.464 Y112.605 E4.56859
G1 X105.259 Y112.780 E4.58479
G1 X105.199 Y112.731 E4.58948
G1 X105.700 Y113.837 F7800.000
G1 X105.700 Y122.700 E5.12238 F1800.000
G1 X104.300 Y122.700 E5.20656
G1 X104.300 Y97.300 E6.73373
G1 X105.700 Y97.300 E6.81790
G1 X105.700 Y106.163 E7.35081
G1 X106.562 Y105.454 E7.41791
G1 X106.946 Y105.187 E7.44606
G1 X107.352 Y104.953 E7.47421
G1 X107.767 Y104.756 E7.50182
G1 X108.213 Y104.588 E7.53053
G1 X108.663 Y104.459 E7.55867
G1 X109.123 Y104.368 E7.58682
G1 X109.588 Y104.315 E7.61497
G1 X110.056 Y104.301 E7.64312
G1 X110.524 Y104.324 E7.67127
G1 X110.988 Y104.386 E7.69943
G1 X111.445 Y104.486 E7.72758
G1 X111.893 Y104.624 E7.75573
G1 X112.328 Y104.797 E7.78388
G1 X112.739 Y105.002 E7.81149
G1 X113.148 Y105.248 E7.84020
G1 X113.527 Y105.522 E7.86834
G1 X113.882 Y105.827 E7.89649
G1 X114.212 Y106.160 E7.92464
G1 X114.513 Y106.518 E7.95279
G1 X114.783 Y106.901 E7.98094
G1 X115.022 Y107.304 E8.00910
G1 X115.226 Y107.725 E8.03725
G1 X115.395 Y108.162 E8.06540
G1 X115.528 Y108.611 E8.09355
G1 X115.621 Y109.060 E8.12116
G1 X115.681 Y109.534 E8.14986
G1 X115.700 Y110.002 E8.17800
G1 X115.680 Y110.469 E8.20616
G1 X115.623 Y110.934 E8.23431
G1 X115.527 Y111.392 E8.26246
G1 X115.394 Y111.841 E8.29061
G1 X115.228 Y112.269 E8.31822
G1 X115.020 Y112.699 E8.34692
G1 X114.782 Y113.102 E8.37507
G1 X114.511 Y113.484 E8.40322
G1 X114.210 Y113.842 E8.43137
G1 X113.887 Y114.169 E8.45898
G1 X113.524 Y114.480 E8.48768
G1 X113.145 Y114.754 E8.51582
G1 X112.744 Y114.996 E8.54398
G1 X112.325 Y115.204 E8.57213
G1 X111.898 Y115.374 E8.59973
G1 X111.442 Y115.514 E8.62844
G1 X110.985 Y115.614 E8.65658
G1 X110.520 Y115.676 E8.68473
G1 X110.053 Y115.699 E8.71289
G1 X109.594 Y115.685 E8.74049
G1 X109.120 Y115.631 E8.76920
G1 X108.660 Y115.540 E8.79734
G1 X108.210 Y115.411 E8.82549
G1 X107.772 Y115.246 E8.85365
G1 X107.357 Y115.050 E8.88125
G1 X106.944 Y114.811 E8.90995
G1 X106.559 Y114.544 E8.93810
G1 X105.735 Y113.865 E9.00230
G1 X105.408 Y113.769 F7800.000
G1 X105.535 Y112.897 F7800.000
G1 X105.914 Y113.299 E9.07273 F1800.000
G1 X106.278 Y113.649 E9.13713
G1 X106.657 Y113.980 E9.20119
G1 X107.038 Y114.271 E9.26239
G1 X107.590 Y114.605 E9.34463
G1 X107.934 Y114.771 E9.39327
G1 X108.367 Y114.936 E9.45241
G1 X108.778 Y115.053 E9.50686
G1 X109.197 Y115.135 E9.56123
G1 X109.885 Y115.197 E9.64937
G1 X110.475 Y115.176 E9.72452
G1 X110.898 Y115.121 E9.77896
G1 X111.376 Y115.013 E9.84147
G1 X111.732 Y114.901 E9.88895
G1 X112.120 Y114.745 E9.94225
G1 X112.502 Y114.555 E9.99670
G1 X112.868 Y114.335 E10.05112
G1 X113.214 Y114.086 E10.10550
G1 X113.546 Y113.803 E10.16111
G1 X113.840 Y113.505 E10.21443
G1 X114.114 Y113.177 E10.26888
G1 X114.360 Y112.828 E10.32331
G1 X114.577 Y112.461 E10.37767
G1 X114.768 Y112.069 E10.43327
G1 X114.920 Y111.680 E10.48658
G1 X115.046 Y111.255 E10.54301
G1 X115.128 Y110.852 E10.59549
G1 X115.180 Y110.428 E10.64992
G1 X115.197 Y110.001 E10.70434
G1 X115.180 Y109.575 E10.75870
G1 X115.127 Y109.142 E10.81430
G1 X115.046 Y108.745 E10.86603
G1 X114.921 Y108.323 E10.92209
G1 X114.766 Y107.925 E10.97652
G1 X114.579 Y107.541 E11.03095
G1 X114.362 Y107.174 E11.08538
G1 X114.115 Y106.825 E11.13980
G1 X113.842 Y106.497 E11.19424
G1 X113.542 Y106.193 E11.24869
G1 X113.217 Y105.916 E11.30313
G1 X112.871 Y105.667 E11.35750
G1 X112.497 Y105.442 E11.41310
G1 X112.122 Y105.256 E11.46641
G1 X111.726 Y105.097 E11.52084
G1 X111.377 Y104.987 E11.56757
G1 X110.901 Y104.879 E11.62973
G1 X110.477 Y104.824 E11.68417
G1 X109.877 Y104.804 E11.76080
G1 X109.200 Y104.865 E11.84740
G1 X108.781 Y104.947 E11.90183
G1 X108.371 Y105.062 E11.95620
G1 X107.934 Y105.229 E12.01577
G1 X107.585 Y105.397 E12.06516
G1 X107.038 Y105.729 E12.14665
G1 X106.657 Y106.020 E12.20785
G1 X106.278 Y106.351 E12.27191
G1 X105.914 Y106.701 E12.33632
G1 X105.535 Y107.103 E12.40677
G1 X104.920 Y108.400 F7800.000
G1 X104.847 Y109.005 E12.48449 F1800.000
G1 X104.800 Y110.011 E12.61290
G1 X104.847 Y110.995 E12.73845
G1 X104.920 Y111.600 E12.81617
G1 Z0.000 F7800.000
G1 X106.383 Y113.232 F7800.000
G1 X106.214 Y113.041 E12.82292 F900.000
G1 X105.938 Y112.661 E12.83533
G1 X105.700 Y112.257 E12.84774
G1 X105.503 Y111.831 E12.86015
G1 X105.347 Y111.388 E12.87256
G1 X105.235 Y110.933 E12.88497
G1 X105.167 Y110.469 E12.89738
G1 X105.144 Y110.000 E12.90979
G1 X105.167 Y109.531 E12.92220
G1 X105.235 Y109.067 E12.93461
G1 X105.347 Y108.612 E12.94702
G1 X105.503 Y108.169 E12.95943
G1 X105.705 Y107.733 E12.97213
G1 X105.939 Y107.339 E12.98426
G1 X106.214 Y106.959 E12.99666
G1 X106.525 Y106.608 E13.00907
G1 X106.869 Y106.289 E13.02148
G1 X107.242 Y106.004 E13.03389
G1 X107.640 Y105.756 E13.04630
G1 X108.061 Y105.548 E13.05871
G1 X108.499 Y105.382 E13.07112
G1 X108.952 Y105.259 E13.08353
G1 X109.415 Y105.180 E13.09594
G1 X109.860 Y105.147 E13.10776 F900.000
G1 X110.351 Y105.157 E13.12073
G1 X110.818 Y105.214 E13.13316
G1 X111.276 Y105.315 E13.14557
G1 X111.722 Y105.460 E13.15798
G1 X112.152 Y105.647 E13.17039
G1 X112.562 Y105.875 E13.18280
G1 X112.948 Y106.142 E13.19521
G1 X113.307 Y106.444 E13.20762
G1 X113.635 Y106.780 E13.22003
G1 X113.928 Y107.146 E13.23244
G1 X114.186 Y107.538 E13.24485
G1 X114.404 Y107.954 E13.25726
G1 X114.581 Y108.388 E13.26967
G1 X114.715 Y108.838 E13.28208
G1 X114.805 Y109.298 E13.29449
G1 X114.850 Y109.765 E13.30690
G1 X114.850 Y110.235 E13.31931
G1 X114.805 Y110.702 E13.33172
G1 X114.715 Y111.162 E13.34413
G1 X114.581 Y111.612 E13.35654
G1 X114.404 Y112.046 E13.36895
G1 X114.186 Y112.462 E13.38136
G1 X113.928 Y112.854 E13.39377
G1 X113.635 Y113.220 E13.40618
G1 X113.307 Y113.556 E13.41859
G1 X112.948 Y113.858 E13.43100
G1 X112.562 Y114.125 E13.44341
G1 X112.152 Y114.353 E13.45582
G1 X111.722 Y114.540 E13.46823
G1 X111.276 Y114.685 E13.48064
G1 X110.818 Y114.786 E13.49305
G1 X110.352 Y114.843 E13.50546
G1 X109.883 Y114.854 E13.51787
G1 X109.415 Y114.820 E13.53028
G1 X108.952 Y114.741 E13.54269
G1 X108.499 Y114.618 E13.55510
G1 X108.061 Y114.452 E13.56751
G1 X107.640 Y114.244 E13.57992
G1 X107.242 Y113.996 E13.59233
G1 X106.869 Y113.711 E13.60474
G1 X106.413 Y113.265 E13.62161
G1 X106.612 Y113.029 F7800.000
G1 X106.452 Y112.849 E13.62623 F900.000
G1 X106.194 Y112.494 E13.63469
G1 X105.971 Y112.115 E13.64315
G1 X105.786 Y111.716 E13.65160
G1 X105.640 Y111.301 E13.66006
G1 X105.535 Y110.874 E13.66852
G1 X105.471 Y110.439 E13.67698
G1 X105.450 Y110.000 E13.68544
G1 X105.471 Y109.561 E13.69390
G1 X105.535 Y109.126 E13.70236
G1 X105.640 Y108.699 E13.71081
G1 X105.786 Y108.284 E13.71927
G1 X105.976 Y107.876 E13.72794
G1 X106.194 Y107.506 E13.73620
G1 X106.452 Y107.151 E13.74465
G1 X106.744 Y106.822 E13.75311
G1 X107.066 Y106.522 E13.76157
G1 X107.415 Y106.255 E13.77003
G1 X107.789 Y106.023 E13.77848
G1 X108.183 Y105.828 E13.78694
G1 X108.594 Y105.673 E13.79540
G1 X109.018 Y105.557 E13.80386
G1 X109.452 Y105.483 E13.81232
G1 X109.869 Y105.453 E13.82036 F900.000
G1 X110.329 Y105.462 E13.82923
G1 X110.766 Y105.515 E13.83769
G1 X111.195 Y105.610 E13.84615
G1 X111.614 Y105.746 E13.85461
G1 X112.017 Y105.921 E13.86307
G1 X112.401 Y106.135 E13.87153
G1 X112.763 Y106.385 E13.87999
G1 X113.099 Y106.668 E13.88845
G1 X113.406 Y106.983 E13.89690
G1 X113.681 Y107.325 E13.90536
G1 X113.922 Y107.693 E13.91382
G1 X114.126 Y108.083 E13.92228
G1 X114.292 Y108.490 E13.93074
G1 X114.418 Y108.911 E13.93920
G1 X114.502 Y109.343 E13.94766
G1 X114.545 Y109.780 E13.95611
G1 X114.545 Y110.220 E13.96457
G1 X114.502 Y110.657 E13.97303
G1 X114.418 Y111.089 E13.98149
G1 X114.292 Y111.510 E13.98995
G1 X114.126 Y111.917 E13.99841
G1 X113.922 Y112.307 E14.00687
G1 X113.681 Y112.675 E14.01532
G1 X113.406 Y113.017 E14.02378
G1 X113.099 Y113.332 E14.03224
G1 X112.763 Y113.615 E14.04070
G1 X112.401 Y113.865 E14.04916
G1 X112.017 Y114.079 E14.05762
G1 X111.614 Y114.254 E14.06608
G1 X111.195 Y114.390 E14.07454
G1 X110.766 Y114.485 E14.08299
G1 X110.330 Y114.538 E14.09145
G1 X109.890 Y114.549 E14.09991
G1 X109.452 Y114.517 E14.10837
G1 X109.018 Y114.443 E14.11683
G1 X108.594 Y114.327 E14.12529
G1 X108.183 Y114.172 E14.13375
G1 X107.789 Y113.977 E14.14220
G1 X107.415 Y113.745 E14.15066
G1 X107.066 Y113.478 E14.15912
