; generated by Slic3r 1.2.9 on 2016-07-06 at 12:21:30

; external perimeters extrusion width = 0.30mm
; perimeters extrusion width = 0.40mm
; infill extrusion width = 0.40mm
; solid infill extrusion width = 0.40mm
; top infill extrusion width = 0.40mm

M107
M190 S40 ; set bed temperature
M104 S220 ; set temperature
G28 ; home all axes
G1 Z5 F5000 ; lift nozzle

M109 S220 ; wait for temperature to be reached
G21 ; set units to millimeters
G90 ; use absolute coordinates
M82 ; use absolute distances for extrusion
G92 E0
G1 Z-0.200 F7800.000
G1 E-2.00000 F2400.00000
G92 E0
G1 X84.577 Y103.412 F7800.000
G1 E2.00000 F2400.00000
G1 X127.816 Y78.448 E5.00193 F1800.000
G1 X130.116 Y77.579 E5.14976
G1 X132.573 Y77.489 E5.29759
G1 X134.931 Y78.188 E5.44542
G1 X136.942 Y79.601 E5.59326 F1800.000
G1 X138.398 Y81.583 E5.74109
G1 X139.226 Y85.036 E5.95458
G1 X139.226 Y134.964 E8.95651
G1 X138.829 Y137.391 E9.10434
G1 X137.678 Y139.563 E9.25217
G1 X135.895 Y141.256 E9.40000
G1 X133.665 Y142.291 E9.54784
G1 X131.221 Y142.560 E9.69567
G1 X127.816 Y141.552 E9.90916
G1 X84.577 Y116.588 E12.91108
G1 X82.674 Y115.030 E13.05892
G1 X81.368 Y112.947 E13.20675
G1 X80.794 Y110.557 E13.35458
G1 X81.013 Y108.108 E13.50241
G1 X82.001 Y105.856 E13.65025
G1 X84.544 Y103.443 E13.86103
G1 X84.845 Y103.876 F7800.000
G1 X128.084 Y78.912 E16.86296 F1800.000
G1 X130.306 Y78.088 E17.00545
G1 X132.676 Y78.044 E17.14795
G1 X134.927 Y78.786 E17.29045
G1 X136.806 Y80.229 E17.43295 F1800.000
G1 X138.103 Y82.213 E17.57544
G1 X138.691 Y85.036 E17.74880
G1 X138.691 Y134.964 E20.75073
G1 X138.294 Y137.301 E20.89323
G1 X137.147 Y139.375 E21.03572
G1 X135.379 Y140.953 E21.17822
G1 X133.189 Y141.859 E21.32072
G1 X130.822 Y141.990 E21.46321
G1 X128.084 Y141.088 E21.63657
G1 X84.845 Y116.124 E24.63850
G1 X83.020 Y114.612 E24.78100
G1 X81.797 Y112.581 E24.92350
G1 X81.314 Y110.261 E25.06599
G1 X81.625 Y107.912 E25.20849
G1 X82.694 Y105.797 E25.35099
G1 X84.811 Y103.906 E25.52164
G1 X85.113 Y104.340 F7800.000
G1 X128.352 Y79.376 E28.52357 F1800.000
G1 X130.493 Y78.598 E28.66052
G1 X132.771 Y78.602 E28.79748
G1 X134.909 Y79.388 E28.93443 F1800.000
G1 X136.647 Y80.860 E29.07138
G1 X137.775 Y82.839 E29.20834
G1 X138.155 Y85.036 E29.34240
G1 X138.155 Y134.964 E32.34432
G1 X137.758 Y137.207 E32.48128
G1 X136.616 Y139.178 E32.61823
G1 X134.866 Y140.636 E32.75518
G1 X132.722 Y141.406 E32.89214
G1 X130.445 Y141.393 E33.02909
G1 X128.352 Y140.624 E33.16315
G1 X85.113 Y115.660 E36.16507
G1 X83.369 Y114.195 E36.30203
G1 X82.233 Y112.220 E36.43898
G1 X81.845 Y109.976 E36.57594
G1 X82.250 Y107.734 E36.71289
G1 X83.400 Y105.768 E36.84985
G1 X85.078 Y104.369 E36.98120
G1 E34.98120 F2400.00000
G92 E0
G1 X131.320 Y134.444 F7800.000
G1 E2.00000 F2400.00000
G1 X129.426 Y133.352 E2.13143 F1800.000
G1 X130.136 Y133.226 E2.17477
G1 X130.521 Y133.061 E2.19992
G1 X130.856 Y132.811 E2.22508
G1 X131.320 Y132.259 E2.26843
G1 X131.320 Y134.399 E2.39715
G1 X131.127 Y134.215 F7800.000
G1 E0.39715 F2400.00000
G92 E0
G1 X130.248 Y128.706 F7800.000
G1 E2.00000 F2400.00000
G1 X129.772 Y128.625 E2.02905 F1800.000
G1 X129.119 Y128.663 E2.06836
G1 X128.479 Y128.855 E2.10857
G1 X127.899 Y129.189 E2.14878
G1 X127.413 Y129.648 E2.18899
G1 X127.045 Y130.207 E2.22921
G1 X126.885 Y130.647 E2.25737
G1 X94.486 Y111.942 E4.50672
G1 X94.787 Y111.583 E4.53488
G1 X95.087 Y110.985 E4.57509
G1 X95.242 Y110.334 E4.61530
G1 X95.242 Y109.666 E4.65552
G1 X95.087 Y109.015 E4.69573
G1 X94.787 Y108.417 E4.73594
G1 X94.486 Y108.058 E4.76411
G1 X126.885 Y89.353 E7.01345
G1 X127.045 Y89.793 E7.04161
G1 X127.413 Y90.352 E7.08183
G1 X127.899 Y90.811 E7.12204
G1 X128.479 Y91.145 E7.16225
G1 X129.119 Y91.337 E7.20247
G1 X129.787 Y91.376 E7.24268
G1 X130.248 Y91.294 E7.27084
G1 X130.248 Y102.629 E7.95232
G1 X117.167 Y102.629 E8.73886
G1 X116.350 Y102.676 E8.78801
G1 X115.506 Y102.825 E8.83956
G1 X114.685 Y103.071 E8.89112
G1 X113.897 Y103.411 E8.94267
G1 X113.155 Y103.839 E8.99423
G1 X112.463 Y104.354 E9.04606
G1 X111.843 Y104.940 E9.09737
G1 X111.292 Y105.597 E9.14890
G1 X110.821 Y106.313 E9.20045
G1 X110.436 Y107.079 E9.25201
G1 X110.143 Y107.885 E9.30356
G1 X109.945 Y108.720 E9.35512
G1 X109.841 Y109.610 E9.40904
G1 X109.846 Y110.433 E9.45850
G1 X109.948 Y111.306 E9.51138
G1 X110.144 Y112.117 E9.56153
G1 X110.436 Y112.921 E9.61292
G1 X110.821 Y113.687 E9.66447
G1 X111.292 Y114.403 E9.71603
G1 X111.843 Y115.060 E9.76758
G1 X112.467 Y115.648 E9.81914
G1 X113.136 Y116.147 E9.86930
G1 X113.895 Y116.588 E9.92210
G1 X114.685 Y116.929 E9.97380
G1 X115.506 Y117.175 E10.02535
G1 X116.350 Y117.324 E10.07691
G1 X117.167 Y117.371 E10.12606
G1 X130.248 Y117.371 E10.91260
G1 X130.248 Y128.661 E11.59138
G1 X130.784 Y129.470 F7800.000
G1 X130.288 Y129.256 E11.62383 F1800.000
G1 X129.742 Y129.163 E11.65713
G1 X129.213 Y129.194 E11.68901
G1 X128.692 Y129.350 E11.72170
G1 X128.221 Y129.622 E11.75438
G1 X127.826 Y129.995 E11.78707
G1 X127.527 Y130.449 E11.81975
G1 X127.341 Y130.960 E11.85244
G1 X127.279 Y131.493 E11.88471
G1 X93.557 Y112.024 E14.22593
G1 X93.987 Y111.703 E14.25821
G1 X94.337 Y111.287 E14.29089
G1 X94.581 Y110.801 E14.32358
G1 X94.706 Y110.272 E14.35626
G1 X94.706 Y109.728 E14.38895
G1 X94.581 Y109.199 E14.42163
G1 X94.337 Y108.713 E14.45432
G1 X93.987 Y108.297 E14.48700
G1 X93.557 Y107.976 E14.51928
G1 X127.278 Y88.507 E16.86046
G1 X127.346 Y89.052 E16.89349
G1 X127.527 Y89.551 E16.92538
G1 X127.826 Y90.005 E16.95806
G1 X128.221 Y90.378 E16.99075
G1 X128.692 Y90.650 E17.02343
G1 X129.213 Y90.806 E17.05612
G1 X129.756 Y90.837 E17.08880
G1 X130.291 Y90.743 E17.12149
G1 X130.784 Y90.530 E17.15376
G1 X130.784 Y103.164 E17.91338
G1 X117.182 Y103.164 E18.73119
G1 X116.413 Y103.209 E18.77753
G1 X115.630 Y103.347 E18.82533
G1 X114.868 Y103.575 E18.87313
G1 X114.138 Y103.890 E18.92094
G1 X113.449 Y104.288 E18.96874
G1 X112.808 Y104.765 E19.01681
G1 X112.233 Y105.308 E19.06437
G1 X111.722 Y105.917 E19.11215
G1 X111.285 Y106.581 E19.15996
G1 X110.929 Y107.292 E19.20776
G1 X110.657 Y108.039 E19.25557
G1 X110.473 Y108.813 E19.30337
G1 X110.377 Y109.640 E19.35344
G1 X110.381 Y110.400 E19.39915
G1 X110.476 Y111.212 E19.44831
G1 X110.657 Y111.962 E19.49471
G1 X110.929 Y112.708 E19.54241
G1 X111.285 Y113.419 E19.59022
G1 X111.722 Y114.083 E19.63802
G1 X112.233 Y114.692 E19.68583
G1 X112.812 Y115.237 E19.73363
G1 X113.432 Y115.699 E19.78009
G1 X114.137 Y116.109 E19.82914
G1 X114.868 Y116.425 E19.87703
G1 X115.630 Y116.653 E19.92484
G1 X116.413 Y116.791 E19.97264
G1 X117.182 Y116.836 E20.01898
G1 X130.784 Y116.836 E20.83678
G1 X130.784 Y129.425 E21.59370
G1 X131.320 Y130.741 F7800.000
G1 X130.856 Y130.189 E21.63704 F1800.000
G1 X130.521 Y129.939 E21.66220
G1 X130.135 Y129.773 E21.68741
G1 X129.713 Y129.702 E21.71318
G1 X129.307 Y129.725 E21.73765
G1 X128.906 Y129.845 E21.76281
G1 X128.543 Y130.055 E21.78796
G1 X128.239 Y130.342 E21.81312
G1 X128.009 Y130.691 E21.83828
G1 X127.866 Y131.084 E21.86344
G1 X127.817 Y131.501 E21.88865
G1 X127.870 Y131.926 E21.91442
G1 X128.113 Y132.593 E21.95707
G1 X92.187 Y111.852 E24.45123
G1 X92.897 Y111.726 E24.49457
G1 X93.281 Y111.561 E24.51972
G1 X93.617 Y111.311 E24.54488
G1 X93.886 Y110.990 E24.57004
G1 X94.074 Y110.616 E24.59520
G1 X94.170 Y110.209 E24.62035
G1 X94.170 Y109.791 E24.64551
G1 X94.074 Y109.384 E24.67067
G1 X93.886 Y109.010 E24.69582
G1 X93.617 Y108.689 E24.72098
G1 X93.281 Y108.439 E24.74614
G1 X92.896 Y108.273 E24.77135
G1 X92.181 Y108.152 E24.81497
G1 X128.113 Y87.407 E27.30956
G1 X127.866 Y88.084 E27.35290
G1 X127.817 Y88.501 E27.37812
G1 X127.870 Y88.926 E27.40389
G1 X128.009 Y89.309 E27.42836
G1 X128.239 Y89.658 E27.45351
G1 X128.543 Y89.945 E27.47867
G1 X128.906 Y90.155 E27.50383
G1 X129.307 Y90.275 E27.52898
G1 X129.724 Y90.299 E27.55414
G1 X130.136 Y90.226 E27.57930
G1 X130.521 Y90.061 E27.60445
G1 X130.856 Y89.811 E27.62961
G1 X131.320 Y89.259 E27.67295
G1 X131.320 Y103.700 E28.54125
G1 X117.198 Y103.700 E29.39032
G1 X116.475 Y103.742 E29.43384
G1 X115.754 Y103.869 E29.47789
G1 X115.052 Y104.079 E29.52195
G1 X114.379 Y104.370 E29.56600
G1 X113.744 Y104.736 E29.61005
G1 X113.153 Y105.176 E29.65436
G1 X112.624 Y105.676 E29.69817
G1 X112.153 Y106.238 E29.74221
G1 X111.750 Y106.850 E29.78626
G1 X111.421 Y107.504 E29.83032
G1 X111.171 Y108.193 E29.87437
G1 X111.002 Y108.906 E29.91842
G1 X110.912 Y109.669 E29.96464
G1 X110.917 Y110.367 E30.00660
G1 X111.005 Y111.118 E30.05204
G1 X111.171 Y111.808 E30.09469
G1 X111.421 Y112.496 E30.13871
G1 X111.750 Y113.150 E30.18276
G1 X112.153 Y113.762 E30.22681
G1 X112.624 Y114.324 E30.27087
G1 X113.157 Y114.826 E30.31492
G1 X113.727 Y115.251 E30.35768
G1 X114.378 Y115.630 E30.40299
G1 X115.052 Y115.921 E30.44707
G1 X115.754 Y116.131 E30.49112
G1 X116.475 Y116.258 E30.53517
G1 X117.198 Y116.300 E30.57870
G1 X131.320 Y116.300 E31.42777
G1 X131.320 Y130.696 E32.29336
G1 X131.185 Y130.473 F7800.000
G1 E30.29336 F2400.00000
G92 E0
G1 X131.320 Y87.741 F7800.000
G1 E2.00000 F2400.00000
G1 X130.856 Y87.189 E2.04334 F1800.000
G1 X130.521 Y86.939 E2.06850
G1 X130.135 Y86.773 E2.09372
G1 X129.420 Y86.652 E2.13733
G1 X131.320 Y85.556 E2.26920
G1 X131.320 Y87.696 E2.39792
G1 X131.185 Y87.473 F7800.000
G1 E0.39792 F2400.00000
G92 E0
G1 X90.874 Y108.907 F7800.000
G1 E2.00000 F2400.00000
G1 X90.627 Y109.584 E2.04334 F1800.000
G1 X90.578 Y110.000 E2.06850
G1 X90.627 Y110.416 E2.09366
G1 X90.874 Y111.093 E2.13700
G1 X88.980 Y110.000 E2.26843
G1 X90.835 Y108.930 E2.39715
G1 X90.709 Y109.158 F7800.000
G1 E0.39715 F2400.00000
G92 E0
G1 X95.051 Y111.688 F7800.000
G1 E2.00000 F2400.00000
G1 X95.348 Y111.984 E2.02525 F1800.000
G1 X97.142 Y113.020 F7800.000
G1 X95.304 Y111.183 E2.18165 F1800.000
G1 X95.484 Y110.605 E2.21811
G1 X98.936 Y114.056 E2.51192
G1 X100.730 Y115.092 F7800.000
G1 X95.563 Y109.925 E2.95173 F1800.000
G1 X95.459 Y109.063 E3.00399
G1 X102.524 Y116.128 E3.60536
G1 X104.318 Y117.164 F7800.000
G1 X95.152 Y107.997 E4.38563 F1800.000
G1 X95.633 Y107.720 E4.41905
G1 X106.113 Y118.200 E5.31112
G1 X107.907 Y119.236 F7800.000
G1 X96.113 Y107.442 E6.31500 F1800.000
G1 X96.594 Y107.165 E6.34841
G1 X109.701 Y120.271 E7.46408
G1 X111.495 Y121.307 F7800.000
G1 X97.075 Y106.887 E8.69156 F1800.000
G1 X97.556 Y106.609 E8.72497
G1 X113.289 Y122.343 E10.06425
G1 X115.083 Y123.379 F7800.000
G1 X98.036 Y106.332 E11.51533 F1800.000
G1 X98.517 Y106.054 E11.54874
G1 X116.878 Y124.415 E13.11163
G1 X118.672 Y125.451 F7800.000
G1 X98.998 Y105.777 E14.78631 F1800.000
G1 X99.479 Y105.499 E14.81972
G1 X120.466 Y126.487 E16.60620
G1 X122.260 Y127.522 F7800.000
G1 X99.959 Y105.222 E18.50449 F1800.000
G1 X100.440 Y104.944 E18.53790
G1 X124.054 Y128.558 E20.54798
G1 X129.927 Y118.506 F7800.000
G1 X129.113 Y117.693 E20.61723 F1800.000
G1 X128.355 Y117.693 E20.66287
G1 X129.927 Y119.265 E20.79667
G1 X129.927 Y120.023 E20.84231
G1 X127.597 Y117.693 E21.04065
G1 X126.838 Y117.693 E21.08630
G1 X129.927 Y120.781 E21.34919
G1 X129.927 Y121.540 E21.39483
G1 X126.080 Y117.693 E21.72227
G1 X125.322 Y117.693 E21.76791
G1 X129.927 Y122.298 E22.15990
G1 X129.927 Y123.056 E22.20555
G1 X124.563 Y117.693 E22.66208
G1 X123.805 Y117.693 E22.70773
G1 X129.927 Y123.815 E23.22881
G1 X129.927 Y124.573 E23.27445
G1 X123.047 Y117.693 E23.86009
G1 X122.288 Y117.693 E23.90573
G1 X129.927 Y125.331 E24.55591
G1 X129.927 Y126.089 E24.60156
G1 X121.530 Y117.693 E25.31629
G1 X120.772 Y117.693 E25.36193
G1 X129.927 Y126.848 E26.14121
G1 X129.927 Y127.606 E26.18685
G1 X120.014 Y117.693 E27.03068
G1 X119.255 Y117.693 E27.07632
G1 X129.866 Y128.304 E27.97956
G1 X129.151 Y128.347 E28.02268
G1 X118.497 Y117.693 E28.92958
G1 X117.739 Y117.693 E28.97523
G1 X128.567 Y128.522 E29.89700
G1 X128.060 Y128.773 E29.93106
G1 X116.977 Y117.689 E30.87454
G1 X116.169 Y117.640 E30.92322
G1 X127.612 Y129.083 E31.89726
G1 X127.222 Y129.451 E31.92955
G1 X115.241 Y117.470 E32.94938
G1 X114.098 Y117.085 F7800.000
G1 X126.914 Y129.901 E34.04033 F1800.000
G1 X125.848 Y129.594 E34.10707
G1 X112.269 Y116.015 E35.26299
G1 X111.184 Y114.930 F7800.000
G1 X100.921 Y104.667 E36.13661 F1800.000
G1 X101.402 Y104.389 E36.17002
G1 X110.109 Y113.097 E36.91123
G1 X109.748 Y111.978 E36.98200
G1 X101.882 Y104.111 E37.65158
G1 X102.363 Y103.834 E37.68500
G1 X109.580 Y111.051 E38.29935
G1 X109.522 Y110.235 E38.34860
G1 X102.844 Y103.556 E38.91709
G1 X103.325 Y103.279 E38.95051
G1 X109.543 Y109.497 E39.47982
G1 X109.622 Y108.818 E39.52096
G1 X103.805 Y103.001 E40.01611
G1 X104.286 Y102.724 E40.04952
G1 X109.762 Y108.199 E40.51561
G1 X109.934 Y107.613 E40.55238
G1 X104.767 Y102.446 E40.99220
G1 X105.247 Y102.169 E41.02561
G1 X110.136 Y107.057 E41.44172
G1 X110.386 Y106.549 E41.47582
G1 X105.728 Y101.891 E41.87230
G1 X106.209 Y101.613 E41.90571
G1 X110.655 Y106.060 E42.28417
G1 X110.956 Y105.602 E42.31713
G1 X106.690 Y101.336 E42.68028
G1 X107.170 Y101.058 E42.71369
G1 X111.287 Y105.175 E43.06409
G1 X111.633 Y104.762 E43.09649
G1 X107.651 Y100.781 E43.43542
G1 X108.132 Y100.503 E43.46883
G1 X112.022 Y104.393 E43.79996
G1 X112.425 Y104.038 E43.83230
G1 X108.613 Y100.226 E44.15682
G1 X109.093 Y99.948 E44.19024
G1 X112.860 Y103.715 E44.51084
G1 X113.323 Y103.419 E44.54389
G1 X109.574 Y99.671 E44.86298
G1 X110.055 Y99.393 E44.89639
G1 X113.804 Y103.142 E45.21548
G1 X114.332 Y102.912 E45.25017
G1 X110.536 Y99.115 E45.57332
G1 X111.016 Y98.838 E45.60673
G1 X114.883 Y102.705 E45.93590
G1 X115.467 Y102.530 E45.97257
G1 X111.497 Y98.560 E46.31050
G1 X111.978 Y98.283 E46.34391
G1 X116.106 Y102.411 E46.69532
G1 X116.789 Y102.335 E46.73664
G1 X112.459 Y98.005 E47.10521
G1 X112.939 Y97.728 E47.13862
G1 X117.519 Y102.307 E47.52844
G1 X118.277 Y102.307 E47.57408
G1 X113.420 Y97.450 E47.98753
G1 X113.901 Y97.172 E48.02094
G1 X119.036 Y102.307 E48.45801
G1 X119.794 Y102.307 E48.50365
G1 X114.382 Y96.895 E48.96435
G1 X114.862 Y96.617 E48.99776
G1 X120.552 Y102.307 E49.48209
G1 X121.310 Y102.307 E49.52773
G1 X115.343 Y96.340 E50.03568
G1 X115.824 Y96.062 E50.06909
G1 X122.069 Y102.307 E50.60067
G1 X122.827 Y102.307 E50.64631
G1 X116.305 Y95.785 E51.20151
G1 X116.785 Y95.507 E51.23492
G1 X123.585 Y102.307 E51.81375
G1 X124.344 Y102.307 E51.85940
G1 X117.266 Y95.230 E52.46185
G1 X117.747 Y94.952 E52.49526
G1 X125.102 Y102.307 E53.12135
G1 X125.860 Y102.307 E53.16699
G1 X118.228 Y94.674 E53.81670
G1 X118.708 Y94.397 E53.85011
G1 X126.619 Y102.307 E54.52344
G1 X127.377 Y102.307 E54.56909
G1 X119.189 Y94.119 E55.26605
G1 X119.670 Y93.842 E55.29946
G1 X128.135 Y102.307 E56.02005
G1 X128.894 Y102.307 E56.06569
G1 X120.151 Y93.564 E56.80990
G1 X120.631 Y93.287 E56.84332
G1 X129.652 Y102.307 E57.61116
G1 X129.927 Y101.824 E57.64463
G1 X121.112 Y93.009 E58.39494
G1 X121.593 Y92.732 E58.42836
G1 X129.927 Y101.065 E59.13775
G1 X129.927 Y100.307 E59.18339
G1 X122.074 Y92.454 E59.85186
G1 X122.554 Y92.176 E59.88527
G1 X129.927 Y99.549 E60.51282
G1 X129.927 Y98.790 E60.55846
G1 X123.035 Y91.899 E61.14508
G1 X123.516 Y91.621 E61.17850
G1 X129.927 Y98.032 E61.72420
G1 X129.927 Y97.274 E61.76984
G1 X123.997 Y91.344 E62.27462
G1 X124.477 Y91.066 E62.30804
G1 X129.927 Y96.516 E62.77189
G1 X129.927 Y95.757 E62.81754
G1 X124.958 Y90.789 E63.24047
G1 X125.439 Y90.511 E63.27388
G1 X129.927 Y94.999 E63.65590
G1 X129.927 Y94.241 E63.70154
G1 X125.920 Y90.234 E64.04263
G1 X126.400 Y89.956 E64.07605
G1 X129.927 Y93.482 E64.37622
G1 X129.927 Y92.724 E64.42186
G1 X128.827 Y91.624 E64.51550
G1 X129.658 Y91.697 E64.56575
G1 X129.927 Y91.966 E64.58861
G1 Z0.000 F7800.000
G1 E62.58861 F2400.00000
G92 E0
G1 X128.144 Y130.759 F7800.000
G1 E2.00000 F2400.00000
G1 X128.355 Y130.439 E2.00737 F900.000
