; generated by Slic3r 1.2.9 on 2016-07-07 at 18:14:50

; external perimeters extrusion width = 0.30mm
; perimeters extrusion width = 0.40mm
; infill extrusion width = 0.40mm
; solid infill extrusion width = 0.40mm
; top infill extrusion width = 0.40mm

M107
M190 S40 ; set bed temperature
M104 S220 ; set temperature
G28 ; home all axes
G1 Z5 F5000 ; lift nozzle

M109 S220 ; wait for temperature to be reached
G21 ; set units to millimeters
G90 ; use absolute coordinates
M82 ; use absolute distances for extrusion
G92 E0
G1 Z-0.200 F7800.000
G1 E-2.00000 F2400.00000
G92 E0
G1 X97.941 Y92.401 F7800.000
G1 E2.00000 F2400.00000
G1 X99.725 Y90.708 E2.14783 F1800.000
G1 X101.955 Y89.673 E2.29566
G1 X104.000 Y89.393 E2.41977
G1 X106.000 Y89.393 E2.54002
G1 X108.426 Y89.791 E2.68785
G1 X110.599 Y90.941 E2.83568 F1800.000
G1 X111.538 Y91.785 E2.91161
G1 X119.972 Y100.743 E3.65133
G1 X120.619 Y101.495 E3.71097
G1 X120.958 Y101.939 E3.74455
G1 X121.289 Y102.407 E3.77900
G1 X121.583 Y102.865 E3.81176
G1 X121.876 Y103.362 E3.84646
G1 X122.129 Y103.840 E3.87896
G1 X122.382 Y104.363 E3.91387
G1 X122.594 Y104.856 E3.94617
G1 X122.805 Y105.402 E3.98136
G1 X122.974 Y105.907 E4.01337
G1 X123.140 Y106.472 E4.04874
G1 X123.266 Y106.986 E4.08058
G1 X123.386 Y107.566 E4.11620
G1 X123.469 Y108.085 E4.14779
G1 X123.541 Y108.677 E4.18366
G1 X123.580 Y109.197 E4.21499
G1 X123.604 Y109.796 E4.25107
G1 X123.600 Y110.314 E4.28220
G1 X123.575 Y110.917 E4.31849
G1 X123.529 Y111.429 E4.34941
G1 X123.453 Y112.032 E4.38594
G1 X123.366 Y112.535 E4.41661
G1 X123.240 Y113.133 E4.45336
G1 X123.113 Y113.623 E4.48382
G1 X122.937 Y114.213 E4.52083
G1 X122.771 Y114.687 E4.55102
G1 X122.546 Y115.264 E4.58825
G1 X122.343 Y115.720 E4.61823
G1 X122.070 Y116.279 E4.65569
G1 X121.832 Y116.713 E4.68544
G1 X121.512 Y117.252 E4.72310
G1 X121.241 Y117.662 E4.75265
G1 X120.876 Y118.176 E4.79057
G1 X120.575 Y118.558 E4.81985
G1 X119.970 Y119.259 E4.87551
G1 X111.538 Y128.215 E5.61504
G1 X109.586 Y129.709 E5.76287
G1 X107.258 Y130.502 E5.91070
G1 X106.000 Y130.607 E5.98663
G1 X104.000 Y130.607 E6.10688
G1 X101.574 Y130.209 E6.25471
G1 X99.401 Y129.059 E6.40254
G1 X97.708 Y127.275 E6.55037
G1 X96.673 Y125.045 E6.69821
G1 X96.393 Y123.000 E6.82231
G1 X96.393 Y97.000 E8.38556
G1 X96.791 Y94.574 E8.53339
G1 X97.920 Y92.440 E8.67852
G1 X98.428 Y92.670 F7800.000
G1 X98.473 Y92.589 E8.68405 F1800.000
G1 X100.241 Y91.011 E8.82655
G1 X102.431 Y90.105 E8.96904
G1 X104.000 Y89.929 E9.06399
G1 X106.000 Y89.929 E9.18424
G1 X108.337 Y90.326 E9.32674
G1 X111.148 Y92.153 E9.52835 F1800.000
G1 X119.582 Y101.110 E10.26806
G1 X120.205 Y101.835 E10.32555
G1 X120.521 Y102.248 E10.35681
G1 X121.122 Y103.138 E10.42136
G1 X121.648 Y104.074 E10.48590
G1 X122.095 Y105.050 E10.55045
G1 X122.303 Y105.590 E10.58524
G1 X122.597 Y106.523 E10.64407
G1 X122.742 Y107.095 E10.67955
G1 X122.860 Y107.668 E10.71475
G1 X123.009 Y108.736 E10.77954
G1 X123.069 Y109.811 E10.84427
G1 X123.040 Y110.887 E10.90902
G1 X122.923 Y111.958 E10.97380
G1 X122.718 Y113.015 E11.03855
G1 X122.426 Y114.053 E11.10334
G1 X122.050 Y115.062 E11.16809
G1 X121.592 Y116.037 E11.23286
G1 X121.056 Y116.971 E11.29760
G1 X120.444 Y117.858 E11.36240
G1 X119.761 Y118.692 E11.42722
G1 X111.148 Y127.847 E12.18297
G1 X109.258 Y129.276 E12.32547
G1 X106.000 Y130.071 E12.52707
G1 X104.000 Y130.071 E12.64732
G1 X101.663 Y129.674 E12.78982
G1 X99.589 Y128.527 E12.93232
G1 X98.011 Y126.759 E13.07481
G1 X97.105 Y124.569 E13.21731
G1 X96.929 Y123.000 E13.31226
G1 X96.929 Y97.000 E14.87550
G1 X97.326 Y94.663 E15.01800
G1 X98.407 Y92.709 E15.15226
G1 X98.910 Y92.949 F7800.000
G1 X99.004 Y92.787 E15.16356 F1800.000
G1 X100.753 Y91.328 E15.30051
G1 X104.000 Y90.464 E15.50250
G1 X106.000 Y90.464 E15.62275
G1 X108.243 Y90.861 E15.75970
G1 X110.758 Y92.520 E15.94086 F1800.000
G1 X119.192 Y101.477 E16.68058
G1 X119.792 Y102.176 E16.73591
G1 X120.084 Y102.558 E16.76485
G1 X120.661 Y103.411 E16.82675
G1 X121.166 Y104.308 E16.88865
G1 X121.595 Y105.243 E16.95055
G1 X121.802 Y105.777 E16.98495
G1 X122.084 Y106.675 E17.04152
G1 X122.335 Y107.771 E17.10913
G1 X122.476 Y108.794 E17.17125
G1 X122.533 Y109.825 E17.23332
G1 X122.505 Y110.858 E17.29542
G1 X122.392 Y111.884 E17.35753
G1 X122.195 Y112.898 E17.41962
G1 X121.915 Y113.893 E17.48175
G1 X121.554 Y114.860 E17.54384
G1 X121.115 Y115.795 E17.60595
G1 X120.600 Y116.690 E17.66803
G1 X120.013 Y117.541 E17.73016
G1 X119.357 Y118.340 E17.79232
G1 X110.758 Y127.480 E18.54684
G1 X108.932 Y128.841 E18.68379
G1 X106.000 Y129.536 E18.86495
G1 X104.000 Y129.536 E18.98520
G1 X101.757 Y129.139 E19.12215
G1 X99.787 Y127.996 E19.25910
G1 X98.328 Y126.247 E19.39606
G1 X97.464 Y123.000 E19.59804
G1 X97.464 Y97.000 E21.16129
G1 X97.861 Y94.757 E21.29824
G1 X98.887 Y92.988 E21.42119
G1 E19.42119 F2400.00000
G92 E0
G1 X113.740 Y113.167 F7800.000
G1 E2.00000 F2400.00000
G1 X113.426 Y113.503 E2.02763 F1800.000
G1 X113.083 Y113.809 E2.05526
G1 X112.713 Y114.081 E2.08288
G1 X112.319 Y114.317 E2.11051
G1 X111.904 Y114.515 E2.13814
G1 X111.473 Y114.674 E2.16577
G1 X111.029 Y114.791 E2.19339
G1 X110.575 Y114.866 E2.22102
G1 X110.117 Y114.899 E2.24865
G1 X109.658 Y114.888 E2.27628
G1 X109.201 Y114.835 E2.30391
G1 X108.752 Y114.739 E2.33153
G1 X108.314 Y114.601 E2.35916
G1 X107.890 Y114.423 E2.38679
G1 X107.485 Y114.206 E2.41442
G1 X107.102 Y113.952 E2.44206
G1 X106.739 Y113.657 E2.47018
G1 X106.416 Y113.342 E2.49730
G1 X106.119 Y112.991 E2.52493
G1 X105.856 Y112.615 E2.55255
G1 X105.629 Y112.215 E2.58018
G1 X105.441 Y111.796 E2.60781
G1 X105.292 Y111.361 E2.63544
G1 X105.186 Y110.914 E2.66307
G1 X105.121 Y110.459 E2.69069
G1 X105.100 Y110.000 E2.71832
G1 X105.121 Y109.541 E2.74595
G1 X105.186 Y109.086 E2.77358
G1 X105.292 Y108.639 E2.80121
G1 X105.441 Y108.204 E2.82883
G1 X105.629 Y107.785 E2.85646
G1 X105.856 Y107.385 E2.88409
G1 X106.119 Y107.009 E2.91172
G1 X106.416 Y106.658 E2.93935
G1 X106.745 Y106.337 E2.96697
G1 X107.102 Y106.048 E2.99460
G1 X107.485 Y105.794 E3.02223
G1 X107.890 Y105.577 E3.04986
G1 X108.314 Y105.399 E3.07749
G1 X108.752 Y105.261 E3.10511
G1 X109.201 Y105.165 E3.13274
G1 X109.658 Y105.112 E3.16036
G1 X110.109 Y105.101 E3.18749 F1800.000
G1 X110.575 Y105.134 E3.21561
G1 X111.029 Y105.209 E3.24325
G1 X111.473 Y105.326 E3.27088
G1 X111.904 Y105.485 E3.29851
G1 X112.319 Y105.683 E3.32613
G1 X112.713 Y105.919 E3.35376
G1 X113.083 Y106.191 E3.38139
G1 X113.426 Y106.497 E3.40902
G1 X113.740 Y106.833 E3.43665
G1 X114.020 Y107.197 E3.46427
G1 X114.265 Y107.586 E3.49190
G1 X114.472 Y107.996 E3.51953
G1 X114.640 Y108.424 E3.54716
G1 X114.767 Y108.866 E3.57478
G1 X114.852 Y109.317 E3.60241
G1 X114.895 Y109.774 E3.63003
G1 X114.895 Y110.226 E3.65715
G1 X114.852 Y110.683 E3.68477
G1 X114.767 Y111.134 E3.71239
G1 X114.640 Y111.576 E3.74002
G1 X114.472 Y112.004 E3.76765
G1 X114.265 Y112.414 E3.79528
G1 X114.020 Y112.803 E3.82291
G1 X113.767 Y113.131 E3.84783
G1 X113.836 Y113.451 F7800.000
G1 E1.84783 F2400.00000
G92 E0
G1 X105.164 Y107.512 F7800.000
G1 E2.00000 F2400.00000
G1 X105.090 Y107.678 E2.01097 F1800.000
G1 X104.836 Y107.624 E2.02659
G1 X104.836 Y97.836 E2.61510
G1 X105.164 Y97.836 E2.63486
G1 X105.164 Y107.467 E3.21394
G1 X104.836 Y112.376 F7800.000
G1 X105.090 Y112.322 E3.22956 F1800.000
G1 X105.164 Y112.488 E3.24052
G1 X105.164 Y122.164 E3.82230
G1 X104.836 Y122.164 E3.84207
G1 X104.836 Y112.421 E4.42787
G1 X105.700 Y113.837 F7800.000
G1 X105.700 Y122.700 E4.96077 F1800.000
G1 X104.300 Y122.700 E5.04495
G1 X104.300 Y97.300 E6.57212
G1 X105.700 Y97.300 E6.65629
G1 X105.700 Y106.163 E7.18920
G1 X106.562 Y105.454 E7.25630
G1 X106.946 Y105.187 E7.28445
G1 X107.352 Y104.953 E7.31260
G1 X107.767 Y104.756 E7.34021
G1 X108.213 Y104.588 E7.36892
G1 X108.663 Y104.459 E7.39706
G1 X109.123 Y104.368 E7.42521
G1 X109.588 Y104.315 E7.45336
G1 X110.056 Y104.301 E7.48151
G1 X110.524 Y104.324 E7.50967
G1 X110.988 Y104.386 E7.53782
G1 X111.445 Y104.486 E7.56597
G1 X111.893 Y104.624 E7.59412
G1 X112.328 Y104.797 E7.62227
G1 X112.739 Y105.002 E7.64988
G1 X113.148 Y105.248 E7.67859
G1 X113.527 Y105.522 E7.70673
G1 X113.882 Y105.827 E7.73488
G1 X114.212 Y106.160 E7.76303
G1 X114.513 Y106.518 E7.79118
G1 X114.783 Y106.901 E7.81933
G1 X115.022 Y107.304 E7.84749
G1 X115.226 Y107.725 E7.87564
G1 X115.395 Y108.162 E7.90379
G1 X115.528 Y108.611 E7.93194
G1 X115.621 Y109.060 E7.95955
G1 X115.681 Y109.534 E7.98826
G1 X115.700 Y110.002 E8.01640
G1 X115.680 Y110.469 E8.04455
G1 X115.623 Y110.934 E8.07270
G1 X115.527 Y111.392 E8.10085
G1 X115.394 Y111.841 E8.12901
G1 X115.228 Y112.269 E8.15661
G1 X115.020 Y112.699 E8.18532
G1 X114.782 Y113.102 E8.21346
G1 X114.511 Y113.484 E8.24161
G1 X114.210 Y113.842 E8.26976
G1 X113.887 Y114.169 E8.29737
G1 X113.524 Y114.480 E8.32607
G1 X113.145 Y114.754 E8.35421
G1 X112.744 Y114.996 E8.38237
G1 X112.325 Y115.204 E8.41052
G1 X111.898 Y115.374 E8.43813
G1 X111.442 Y115.514 E8.46683
G1 X110.985 Y115.614 E8.49497
G1 X110.520 Y115.676 E8.52312
G1 X110.053 Y115.699 E8.55128
G1 X109.594 Y115.685 E8.57888
G1 X109.120 Y115.631 E8.60759
G1 X108.660 Y115.540 E8.63573
G1 X108.210 Y115.411 E8.66388
G1 X107.772 Y115.246 E8.69204
G1 X107.357 Y115.050 E8.71964
G1 X106.944 Y114.811 E8.74835
G1 X106.559 Y114.544 E8.77649
G1 X105.735 Y113.865 E8.84069
G1 X105.408 Y113.769 F7800.000
G1 X105.446 Y112.462 F7800.000
G1 X105.650 Y113.167 E8.88482 F1800.000
G1 X105.757 Y113.282 E8.89428
G1 X106.114 Y113.633 E8.92439
G1 X106.801 Y114.224 E8.97889
G1 X107.276 Y114.544 E9.01329
G1 X107.724 Y114.784 E9.04389
G1 X108.183 Y114.976 E9.07376
G1 X108.657 Y115.125 E9.10363
G1 X109.142 Y115.229 E9.13351
G1 X109.623 Y115.286 E9.16260
G1 X110.049 Y115.298 E9.18823
G1 X110.484 Y115.276 E9.21441
G1 X110.915 Y115.218 E9.24058
G1 X111.340 Y115.125 E9.26672
G1 X111.765 Y114.995 E9.29343
G1 X112.161 Y114.837 E9.31906
G1 X112.551 Y114.644 E9.34524
G1 X112.929 Y114.417 E9.37176
G1 X113.276 Y114.164 E9.39756
G1 X113.613 Y113.875 E9.42428
G1 X113.912 Y113.571 E9.44991
G1 X114.192 Y113.238 E9.47608
G1 X114.444 Y112.883 E9.50225
G1 X114.666 Y112.509 E9.52839
G1 X114.838 Y112.161 E9.55173
G1 X115.016 Y111.710 E9.58087
G1 X115.138 Y111.294 E9.60693
G1 X115.226 Y110.868 E9.63310
G1 X115.279 Y110.436 E9.65927
G1 X115.297 Y110.001 E9.68543
G1 X115.280 Y109.567 E9.71157
G1 X115.225 Y109.126 E9.73828
G1 X115.139 Y108.708 E9.76392
G1 X115.017 Y108.291 E9.79010
G1 X114.858 Y107.885 E9.81628
G1 X114.668 Y107.494 E9.84244
G1 X114.446 Y107.119 E9.86861
G1 X114.194 Y106.764 E9.89477
G1 X113.914 Y106.431 E9.92094
G1 X113.609 Y106.121 E9.94710
G1 X113.279 Y105.838 E9.97327
G1 X112.929 Y105.583 E9.99927
G1 X112.546 Y105.353 E10.02615
G1 X112.164 Y105.164 E10.05179
G1 X111.759 Y105.003 E10.07796
G1 X111.343 Y104.876 E10.10412
G1 X110.918 Y104.783 E10.13028
G1 X110.487 Y104.725 E10.15645
G1 X110.052 Y104.702 E10.18262
G1 X109.617 Y104.714 E10.20879
G1 X109.142 Y104.771 E10.23752
G1 X108.657 Y104.875 E10.26740
G1 X108.183 Y105.024 E10.29727
G1 X107.724 Y105.216 E10.32714
G1 X107.276 Y105.456 E10.35774
G1 X106.804 Y105.774 E10.39196
G1 X106.114 Y106.367 E10.44664
G1 X105.757 Y106.718 E10.47676
G1 X105.649 Y106.833 E10.48622
G1 X105.446 Y107.538 E10.53034
G1 X104.903 Y107.912 F7800.000
G1 X104.805 Y108.510 E10.60754 F1800.000
G1 X104.727 Y109.170 E10.69235
G1 X104.735 Y109.171 F7800.000
G1 X104.700 Y109.994 E10.74184 F1800.000
G1 X104.735 Y110.829 E10.79209
G1 X104.727 Y110.830 F7800.000
G1 X104.805 Y111.490 E10.87690 F1800.000
G1 X104.903 Y112.088 E10.95410
G1 Z0.000 F7800.000
G1 X106.242 Y113.377 F7800.000
G1 X105.997 Y113.088 E10.96413 F900.000
G1 X105.725 Y112.699 E10.97667
G1 X105.491 Y112.286 E10.98922
G1 X105.296 Y111.854 E11.00176
G1 X105.143 Y111.405 E11.01431
G1 X105.033 Y110.943 E11.02685
G1 X104.966 Y110.474 E11.03940
G1 X104.944 Y110.000 E11.05194
G1 X104.966 Y109.526 E11.06449
G1 X105.033 Y109.057 E11.07703
G1 X105.143 Y108.595 E11.08958
G1 X105.296 Y108.146 E11.10212
G1 X105.491 Y107.714 E11.11467
G1 X105.725 Y107.301 E11.12721
G1 X105.997 Y106.912 E11.13976
G1 X106.304 Y106.551 E11.15230
G1 X106.643 Y106.220 E11.16485
G1 X107.012 Y105.922 E11.17739
G1 X107.407 Y105.660 E11.18994
G1 X107.826 Y105.436 E11.20248
G1 X108.263 Y105.252 E11.21502
G1 X108.715 Y105.110 E11.22757
G1 X109.179 Y105.011 E11.24011
G1 X109.650 Y104.956 E11.25265
G1 X110.102 Y104.946 E11.26460 F900.000
G1 X110.597 Y104.980 E11.27773
G1 X111.066 Y105.058 E11.29029
G1 X111.524 Y105.179 E11.30284
G1 X111.969 Y105.344 E11.31538
G1 X112.397 Y105.549 E11.32793
G1 X112.803 Y105.793 E11.34047
G1 X113.185 Y106.074 E11.35302
G1 X113.539 Y106.390 E11.36556
G1 X113.862 Y106.737 E11.37811
G1 X114.151 Y107.114 E11.39065
G1 X114.403 Y107.515 E11.40319
G1 X114.616 Y107.939 E11.41574
G1 X114.789 Y108.380 E11.42828
G1 X114.920 Y108.836 E11.44083
G1 X115.007 Y109.303 E11.45337
G1 X115.050 Y109.774 E11.46590
G1 X115.050 Y110.226 E11.47784
G1 X115.007 Y110.697 E11.49037
G1 X114.920 Y111.164 E11.50291
G1 X114.789 Y111.620 E11.51546
G1 X114.616 Y112.061 E11.52800
G1 X114.403 Y112.485 E11.54055
G1 X114.151 Y112.886 E11.55309
G1 X113.862 Y113.263 E11.56564
G1 X113.539 Y113.610 E11.57818
G1 X113.185 Y113.926 E11.59073
G1 X112.803 Y114.207 E11.60327
G1 X112.397 Y114.451 E11.61582
G1 X111.969 Y114.656 E11.62836
G1 X111.524 Y114.821 E11.64090
G1 X111.066 Y114.942 E11.65345
G1 X110.598 Y115.020 E11.66599
G1 X110.125 Y115.054 E11.67854
G1 X109.650 Y115.044 E11.69108
G1 X109.179 Y114.989 E11.70363
G1 X108.715 Y114.890 E11.71617
G1 X108.263 Y114.748 E11.72872
G1 X107.826 Y114.564 E11.74126
G1 X107.407 Y114.340 E11.75381
G1 X107.011 Y114.078 E11.76638
G1 X106.626 Y113.765 E11.77950
G1 X106.271 Y113.411 E11.79276
G1 X106.475 Y113.179 F7800.000
G1 X106.239 Y112.901 E11.79978 F900.000
G1 X105.983 Y112.536 E11.80835
G1 X105.763 Y112.148 E11.81693
G1 X105.581 Y111.742 E11.82550
G1 X105.437 Y111.320 E11.83407
G1 X105.333 Y110.886 E11.84265
G1 X105.271 Y110.445 E11.85122
G1 X105.250 Y110.000 E11.85980
G1 X105.271 Y109.555 E11.86837
G1 X105.333 Y109.114 E11.87694
G1 X105.437 Y108.680 E11.88552
G1 X105.581 Y108.258 E11.89409
G1 X105.763 Y107.852 E11.90266
G1 X105.983 Y107.464 E11.91124
G1 X106.239 Y107.099 E11.91981
G1 X106.527 Y106.759 E11.92838
G1 X106.846 Y106.448 E11.93696
G1 X107.193 Y106.168 E11.94553
G1 X107.564 Y105.922 E11.95410
G1 X107.957 Y105.712 E11.96268
G1 X108.368 Y105.539 E11.97125
G1 X108.793 Y105.406 E11.97982
G1 X109.229 Y105.313 E11.98840
G1 X109.671 Y105.261 E11.99697
G1 X110.095 Y105.251 E12.00512 F900.000
G1 X110.561 Y105.283 E12.01411
G1 X111.001 Y105.357 E12.02269
G1 X111.432 Y105.471 E12.03126
G1 X111.850 Y105.625 E12.03984
G1 X112.252 Y105.818 E12.04841
G1 X112.634 Y106.047 E12.05698
G1 X112.993 Y106.311 E12.06556
G1 X113.325 Y106.608 E12.07413
G1 X113.628 Y106.935 E12.08270
G1 X113.900 Y107.288 E12.09128
G1 X114.137 Y107.665 E12.09985
G1 X114.337 Y108.063 E12.10842
G1 X114.500 Y108.478 E12.11700
G1 X114.622 Y108.907 E12.12557
G1 X114.705 Y109.345 E12.13414
G1 X114.745 Y109.788 E12.14271
G1 X114.745 Y110.212 E12.15086
G1 X114.705 Y110.655 E12.15943
G1 X114.622 Y111.093 E12.16800
G1 X114.500 Y111.522 E12.17657
G1 X114.337 Y111.937 E12.18515
G1 X114.137 Y112.335 E12.19372
G1 X113.900 Y112.712 E12.20229
G1 X113.628 Y113.065 E12.21086
G1 X113.325 Y113.392 E12.21944
G1 X112.993 Y113.689 E12.22801
G1 X112.634 Y113.953 E12.23658
G1 X112.252 Y114.182 E12.24516
G1 X111.850 Y114.375 E12.25373
G1 X111.432 Y114.529 E12.26230
G1 X111.001 Y114.643 E12.27088
G1 X110.562 Y114.717 E12.27945
G1 X110.117 Y114.749 E12.28802
G1 X109.672 Y114.739 E12.29660
G1 X109.229 Y114.687 E12.30517
