; generated by Slic3r 1.2.9 on 2016-02-22 at 12:24:22

; external perimeters extrusion width = 0.40mm
; perimeters extrusion width = 0.48mm
; infill extrusion width = 0.48mm
; solid infill extrusion width = 0.48mm
; top infill extrusion width = 0.48mm

M190 S65 ; set bed temperature
M104 S230 ; set temperature
G28 ; home all axes
G1 Z5 F5000 ; lift nozzle

M109 S230 ; wait for temperature to be reached
G21 ; set units to millimeters
G90 ; use absolute coordinates
M82 ; use absolute distances for extrusion
G92 E0
G1 Z0.400 F7800.000
G1 X-0.121 Y-1.135 F7800.000
G1 X-1.378 Y-1.016 E0.14997 F1800.000
G1 X-36.054 Y-1.016 E4.26834
G1 X-38.329 Y-1.413 E4.54256
G1 X-40.334 Y-2.557 E4.81679
G1 X-41.834 Y-4.313 E5.09101
G1 X-42.650 Y-6.473 E5.36524
G1 X-42.768 Y-7.730 E5.51520
G1 X-42.768 Y-29.730 E8.12804
G1 X-42.371 Y-32.005 E8.40226
G1 X-41.227 Y-34.010 E8.67649
G1 X-39.471 Y-35.510 E8.95071
G1 X-37.311 Y-36.325 E9.22494
G1 X-36.054 Y-36.444 E9.37490
G1 X-1.378 Y-36.444 E13.49328
G1 X0.897 Y-36.047 E13.76750
G1 X2.903 Y-34.903 E14.04173 F1800.000
G1 X4.402 Y-33.147 E14.31595
G1 X5.218 Y-30.987 E14.59018
G1 X5.337 Y-29.730 E14.74014
G1 X5.337 Y-7.730 E17.35298
G1 X4.939 Y-5.455 E17.62720
G1 X3.795 Y-3.450 E17.90143
G1 X2.039 Y-1.950 E18.17565
G1 X-0.064 Y-1.156 E18.44275
G1 E16.44275 F2400.00000
G92 E0
G1 X-14.190 Y-27.902 F7800.000
G1 E2.00000 F2400.00000
G1 X-3.206 Y-27.902 E3.30451 F1800.000
G1 X-3.206 Y-9.558 E5.48306
G1 X-14.190 Y-9.558 E6.78757
G1 X-14.190 Y-27.842 E8.95899
G1 X-14.904 Y-27.755 F7800.000
G1 X-34.940 Y-27.755 E11.33858 F1800.000
G1 X-34.940 Y-28.616 E11.44083
G1 X-2.492 Y-28.616 E15.29456
G1 X-2.492 Y-8.844 E17.64275
G1 X-14.904 Y-8.844 E19.11689
G1 X-14.904 Y-27.695 E21.35569
G1 X-15.618 Y-27.041 F7800.000
G1 X-35.654 Y-27.041 E23.73528 F1800.000
G1 X-35.654 Y-29.330 E24.00717
G1 X-1.778 Y-29.330 E28.03053
G1 X-1.778 Y-8.130 E30.54835
G1 X-35.654 Y-8.130 E34.57171
G1 X-35.654 Y-9.764 E34.76581
G1 X-15.618 Y-9.764 E37.14539
G1 X-15.618 Y-26.981 E39.19010
G1 X-15.618 Y-27.441 F7800.000
G1 X-14.547 Y-28.185 F7800.000
G1 X-34.583 Y-28.185 E41.56968 F1800.000
G1 E39.56968 F2400.00000
G92 E0
G1 X-35.297 Y-8.947 F7800.000
G1 E2.00000 F2400.00000
G1 X-15.261 Y-8.947 E7.04519 F1800.000
G1 X-13.754 Y-10.337 F7800.000
G1 X-13.411 Y-9.994 E7.10420 F1800.000
G1 X-12.377 Y-9.994 E7.23007
G1 X-13.754 Y-11.371 E7.46708
G1 X-13.754 Y-12.406 E7.59295
G1 X-11.342 Y-9.994 E8.00796
G1 X-10.308 Y-9.994 E8.13383
G1 X-13.754 Y-13.441 E8.72685
G1 X-13.754 Y-14.475 E8.85272
G1 X-9.273 Y-9.994 E9.62374
G1 X-8.238 Y-9.994 E9.74961
G1 X-13.754 Y-15.510 E10.69863
G1 X-13.754 Y-16.544 E10.82450
G1 X-7.204 Y-9.994 E11.95153
G1 X-6.169 Y-9.994 E12.07739
G1 X-13.754 Y-17.579 E13.38242
G1 X-13.754 Y-18.614 E13.50829
G1 X-5.135 Y-9.994 E14.99133
G1 X-4.100 Y-9.994 E15.11719
G1 X-13.754 Y-19.648 E16.77823
G1 X-13.754 Y-20.683 E16.90410
G1 X-3.641 Y-10.570 E18.64404
G1 X-3.641 Y-11.604 E18.76991
G1 X-13.754 Y-21.717 E20.50985
G1 X-13.754 Y-22.752 E20.63572
G1 X-3.641 Y-12.639 E22.37566
G1 X-3.641 Y-13.674 E22.50153
G1 X-13.754 Y-23.786 E24.24147
G1 X-13.754 Y-24.821 E24.36734
G1 X-3.641 Y-14.708 E26.10728
G1 X-3.641 Y-15.743 E26.23315
G1 X-13.754 Y-25.856 E27.97309
G1 X-13.754 Y-26.890 E28.09896
G1 X-3.641 Y-16.777 E29.83890
G1 X-3.641 Y-17.812 E29.96477
G1 X-13.296 Y-27.466 E31.62580
G1 X-12.261 Y-27.466 E31.75167
G1 X-3.641 Y-18.846 E33.23471
G1 X-3.641 Y-19.881 E33.36057
G1 X-11.227 Y-27.466 E34.66561
G1 X-10.192 Y-27.466 E34.79147
G1 X-3.641 Y-20.916 E35.91850
G1 X-3.641 Y-21.950 E36.04437
G1 X-9.157 Y-27.466 E36.99339
G1 X-8.123 Y-27.466 E37.11926
G1 X-3.641 Y-22.985 E37.89029
G1 X-3.641 Y-24.019 E38.01615
G1 X-7.088 Y-27.466 E38.60917
G1 X-6.054 Y-27.466 E38.73504
G1 X-3.641 Y-25.054 E39.15006
G1 X-3.641 Y-26.089 E39.27593
G1 X-5.019 Y-27.466 E39.51294
G1 X-3.984 Y-27.466 E39.63881
G1 X-3.641 Y-27.123 E39.69782
M104 S225 ; set temperature
M140 S60 ; wait for bed temperature to be reached
G1 Z0.700 F7800.000
G1 X-15.041 Y-27.637 F7800.000
G1 X-36.254 Y-27.637 E40.80609 F3600.000
G1 X-36.372 Y-27.637 E40.81224 F3600.000
G1 X-36.372 Y-28.734 E40.86956
G1 X-36.254 Y-28.734 E40.87571
G1 X-2.374 Y-28.734 E42.64579 F3600.000
G1 X-2.374 Y-8.726 E43.69110
G1 X-36.254 Y-8.726 E45.46118
G1 X-36.372 Y-8.726 E45.46733 F3600.000
G1 X-36.372 Y-9.168 E45.49042
G1 X-36.254 Y-9.168 E45.49658
G1 X-15.041 Y-9.168 E46.60485 F3600.000
G1 X-15.041 Y-27.577 E47.56660
G1 X-15.460 Y-27.218 F7800.000
G1 X-36.254 Y-27.218 E48.65299 F3600.000
G1 X-36.791 Y-27.218 E48.68103 F3600.000
G1 X-36.791 Y-29.153 E48.78211
G1 X-36.254 Y-29.153 E48.81015
G1 X-1.955 Y-29.153 E50.60211 F3600.000
G1 X-1.955 Y-8.307 E51.69118
G1 X-36.254 Y-8.307 E53.48315
G1 X-36.791 Y-8.307 E53.51119 F3600.000
G1 X-36.791 Y-9.587 E53.57805
G1 X-36.254 Y-9.587 E53.60608
G1 X-15.460 Y-9.587 E54.69247 F3600.000
G1 X-15.460 Y-27.158 E55.61046
G1 X-15.837 Y-26.841 F7800.000
G1 X-36.254 Y-26.841 E56.46512 F1800.000
G1 X-37.168 Y-26.841 E56.51286 F3600.000
G1 X-37.168 Y-29.530 E56.65337
G1 X-36.254 Y-29.530 E56.70111
G1 X-1.578 Y-29.530 E58.15268 F1800.000
G1 X-1.578 Y-7.930 E59.05687
G1 X-36.254 Y-7.930 E60.50844
G1 X-37.168 Y-7.930 E60.55618 F3600.000
G1 X-37.168 Y-9.964 E60.66247
G1 X-36.254 Y-9.964 E60.71021
G1 X-15.837 Y-9.964 E61.56487 F1800.000
G1 X-15.837 Y-26.781 E62.26881
G1 X-15.837 Y-27.241 F7800.000
G1 X-35.354 Y-28.269 F7800.000
G1 X-35.136 Y-28.487 E62.28498 F1200.000
G1 X-34.540 Y-28.487 E62.31626
G1 X-35.143 Y-27.884 E62.36103
G1 X-34.548 Y-27.884 E62.39230
G1 X-33.945 Y-28.487 E62.43707
G1 X-33.349 Y-28.487 E62.46835
G1 X-33.952 Y-27.884 E62.51312
G1 X-33.357 Y-27.884 E62.54440
G1 X-32.754 Y-28.487 E62.58916
G1 X-32.158 Y-28.487 E62.62044
G1 X-32.761 Y-27.884 E62.66521
G1 X-32.166 Y-27.884 E62.69649
G1 X-31.563 Y-28.487 E62.74126
G1 X-30.967 Y-28.487 E62.77254
G1 X-31.570 Y-27.884 E62.81730
G1 X-30.974 Y-27.884 E62.84858
G1 X-30.372 Y-28.487 E62.89335
G1 X-29.776 Y-28.487 E62.92463
G1 X-30.379 Y-27.884 E62.96940
G1 X-29.783 Y-27.884 E63.00068
G1 X-29.181 Y-28.487 E63.04544
G1 X-28.585 Y-28.487 E63.07672
G1 X-29.188 Y-27.884 E63.12149
G1 X-28.592 Y-27.884 E63.15277
G1 X-27.990 Y-28.487 E63.19754
G1 X-27.394 Y-28.487 E63.22881
G1 X-27.997 Y-27.884 E63.27358
G1 X-27.401 Y-27.884 E63.30486
G1 X-26.799 Y-28.487 E63.34963
G1 X-26.203 Y-28.487 E63.38091
G1 X-26.806 Y-27.884 E63.42568
G1 X-26.210 Y-27.884 E63.45695
G1 X-25.608 Y-28.487 E63.50172
G1 X-25.012 Y-28.487 E63.53300
G1 X-25.615 Y-27.884 E63.57777
G1 X-25.019 Y-27.884 E63.60905
G1 X-24.417 Y-28.487 E63.65382
G1 X-23.821 Y-28.487 E63.68509
G1 X-24.424 Y-27.884 E63.72986
G1 X-23.828 Y-27.884 E63.76114
G1 X-23.225 Y-28.487 E63.80591
G1 X-22.630 Y-28.487 E63.83719
G1 X-23.233 Y-27.884 E63.88196
G1 X-22.637 Y-27.884 E63.91323
G1 X-22.034 Y-28.487 E63.95800
G1 X-21.439 Y-28.487 E63.98928
G1 X-22.042 Y-27.884 E64.03405
G1 X-21.446 Y-27.884 E64.06533
G1 X-20.843 Y-28.487 E64.11010
G1 X-20.248 Y-28.487 E64.14137
G1 X-20.851 Y-27.884 E64.18614
G1 X-20.255 Y-27.884 E64.21742
G1 X-19.652 Y-28.487 E64.26219
G1 X-19.057 Y-28.487 E64.29347
G1 X-19.660 Y-27.884 E64.33824
G1 X-19.064 Y-27.884 E64.36951
G1 X-18.461 Y-28.487 E64.41428
G1 X-17.866 Y-28.487 E64.44556
G1 X-18.468 Y-27.884 E64.49033
G1 X-17.873 Y-27.884 E64.52161
G1 X-17.270 Y-28.487 E64.56638
G1 X-16.675 Y-28.487 E64.59765
G1 X-17.277 Y-27.884 E64.64242
G1 X-16.682 Y-27.884 E64.67370
G1 X-16.079 Y-28.487 E64.71847
G1 X-15.484 Y-28.487 E64.74975
G1 X-16.086 Y-27.884 E64.79452
G1 X-15.491 Y-27.884 E64.82579
G1 X-14.888 Y-28.487 E64.87056
G1 X-14.293 Y-28.487 E64.90184
G1 X-14.895 Y-27.884 E64.94661
G1 X-14.794 Y-27.390 E64.97311
G1 X-13.697 Y-28.487 E65.05459
G1 X-13.102 Y-28.487 E65.08587
G1 X-14.794 Y-26.794 E65.21159
G1 X-14.794 Y-26.199 E65.24286
G1 X-12.506 Y-28.487 E65.41281
G1 X-11.910 Y-28.487 E65.44409
G1 X-14.794 Y-25.603 E65.65828
G1 X-14.794 Y-25.008 E65.68955
G1 X-11.315 Y-28.487 E65.94797
G1 X-10.719 Y-28.487 E65.97925
G1 X-14.794 Y-24.412 E66.28190
G1 X-14.794 Y-23.817 E66.31318
G1 X-10.124 Y-28.487 E66.66007
G1 X-9.528 Y-28.487 E66.69135
G1 X-14.794 Y-23.221 E67.08247
G1 X-14.794 Y-22.625 E67.11374
G1 X-8.933 Y-28.487 E67.54910
G1 X-8.337 Y-28.487 E67.58038
G1 X-14.794 Y-22.030 E68.05996
G1 X-14.794 Y-21.434 E68.09124
G1 X-7.742 Y-28.487 E68.61507
G1 X-7.146 Y-28.487 E68.64634
G1 X-14.794 Y-20.839 E69.21440
G1 X-14.794 Y-20.243 E69.24568
G1 X-6.551 Y-28.487 E69.85797
G1 X-5.955 Y-28.487 E69.88925
G1 X-14.794 Y-19.648 E70.54577
G1 X-14.794 Y-19.052 E70.57705
G1 X-5.360 Y-28.487 E71.27781
G1 X-4.764 Y-28.487 E71.30908
G1 X-14.794 Y-18.457 E72.05408
G1 X-14.794 Y-17.861 E72.08535
G1 X-4.169 Y-28.487 E72.87458
G1 X-3.573 Y-28.487 E72.90586
G1 X-14.794 Y-17.266 E73.73932
G1 X-14.794 Y-16.670 E73.77060
G1 X-2.978 Y-28.487 E74.64829
G1 X-2.621 Y-28.248 E74.67084
G1 X-14.794 Y-16.075 E75.57502
G1 X-14.794 Y-15.479 E75.60630
G1 X-2.621 Y-27.652 E76.51048
G1 X-2.621 Y-27.057 E76.54176
G1 X-14.794 Y-14.884 E77.44595
G1 X-14.794 Y-14.288 E77.47722
G1 X-2.621 Y-26.461 E78.38141
G1 X-2.621 Y-25.866 E78.41269
G1 X-14.794 Y-13.693 E79.31687
G1 X-14.794 Y-13.097 E79.34815
G1 X-2.621 Y-25.270 E80.25234
G1 X-2.621 Y-24.675 E80.28361
G1 X-14.794 Y-12.502 E81.18780
G1 X-14.794 Y-11.906 E81.21908
G1 X-2.621 Y-24.079 E82.12326
G1 X-2.621 Y-23.484 E82.15454
G1 X-14.794 Y-11.311 E83.05872
G1 X-14.794 Y-10.715 E83.09000
G1 X-2.621 Y-22.888 E83.99419
G1 X-2.621 Y-22.293 E84.02547
G1 X-14.794 Y-10.119 E84.92965
G1 X-14.794 Y-9.524 E84.96093
G1 X-2.621 Y-21.697 E85.86511
G1 X-2.621 Y-21.102 E85.89639
G1 X-14.749 Y-8.973 E86.79724
G1 X-14.154 Y-8.973 E86.82852
G1 X-2.621 Y-20.506 E87.68514
G1 X-2.621 Y-19.910 E87.71641
G1 X-13.558 Y-8.973 E88.52880
G1 X-12.963 Y-8.973 E88.56008
G1 X-2.621 Y-19.315 E89.32822
G1 X-2.621 Y-18.719 E89.35950
G1 X-12.367 Y-8.973 E90.08342
G1 X-11.772 Y-8.973 E90.11470
G1 X-2.621 Y-18.124 E90.79438
G1 X-2.621 Y-17.528 E90.82565
G1 X-11.176 Y-8.973 E91.46110
G1 X-10.580 Y-8.973 E91.49238
G1 X-2.621 Y-16.933 E92.08359
G1 X-2.621 Y-16.337 E92.11487
G1 X-9.985 Y-8.973 E92.66185
G1 X-9.389 Y-8.973 E92.69313
G1 X-2.621 Y-15.742 E93.19587
G1 X-2.621 Y-15.146 E93.22715
G1 X-8.794 Y-8.973 E93.68566
G1 X-8.198 Y-8.973 E93.71694
G1 X-2.621 Y-14.551 E94.13122
G1 X-2.621 Y-13.955 E94.16250
G1 X-7.603 Y-8.973 E94.53254
G1 X-7.007 Y-8.973 E94.56382
G1 X-2.621 Y-13.360 E94.88963
G1 X-2.621 Y-12.764 E94.92090
G1 X-6.412 Y-8.973 E95.20248
G1 X-5.816 Y-8.973 E95.23376
G1 X-2.621 Y-12.169 E95.47110
G1 X-2.621 Y-11.573 E95.50238
G1 X-5.221 Y-8.973 E95.69548
G1 X-4.625 Y-8.973 E95.72676
G1 X-2.621 Y-10.978 E95.87563
G1 X-2.621 Y-10.382 E95.90691
G1 X-4.030 Y-8.973 E96.01155
G1 X-3.434 Y-8.973 E96.04283
G1 X-2.621 Y-9.787 E96.10324
G1 X-2.621 Y-9.191 E96.13451
G1 X-2.839 Y-8.973 E96.15068
G1 E94.15068 F2400.00000
G92 E0
G1 X-35.544 Y-28.362 F7800.000
G1 E2.00000 F2400.00000
G1 X-36.135 Y-28.362 E2.03088 F3600.000
G1 Z1.000 F7800.000
G1 X-15.058 Y-27.637 F7800.000
G1 X-37.137 Y-27.637 E3.18440 F3600.000
G1 X-37.137 Y-28.734 E3.24171
G1 X-2.374 Y-28.734 E5.05790
G1 X-2.374 Y-8.726 E6.10320
G1 X-37.137 Y-8.726 E7.91938
G1 X-37.137 Y-9.168 E7.94248
G1 X-15.058 Y-9.168 E9.09599
G1 X-15.058 Y-27.577 E10.05775
G1 X-15.477 Y-27.218 F7800.000
G1 X-37.556 Y-27.218 E11.21127 F3600.000
G1 X-37.556 Y-29.153 E11.31235
G1 X-1.955 Y-29.153 E13.17230
G1 X-1.955 Y-8.307 E14.26137
G1 X-37.556 Y-8.307 E16.12133
G1 X-37.556 Y-9.587 E16.18819
G1 X-15.477 Y-9.587 E17.34170
G1 X-15.477 Y-27.158 E18.25969
G1 X-15.854 Y-26.841 F7800.000
G1 X-37.568 Y-26.841 E19.16866 F1800.000
G1 X-37.933 Y-26.841 E19.18771 F3600.000
G1 X-37.933 Y-29.530 E19.32822
G1 X-37.568 Y-29.530 E19.34727
G1 X-1.578 Y-29.530 E20.85384 F1800.000
G1 X-1.578 Y-7.930 E21.75802
G1 X-37.568 Y-7.930 E23.26460
G1 X-37.933 Y-7.930 E23.28365 F3600.000
G1 X-37.933 Y-9.964 E23.38993
G1 X-37.568 Y-9.964 E23.40898
G1 X-15.854 Y-9.964 E24.31795 F1800.000
G1 X-15.854 Y-26.781 E25.02189
G1 X-15.854 Y-27.241 F7800.000
G1 X-14.810 Y-26.803 F7800.000
G1 X-2.621 Y-14.613 E25.92455 F1200.000
G1 X-2.621 Y-14.020 E25.95564
G1 X-14.810 Y-26.209 E26.85830
G1 X-14.794 Y-25.599 E26.89026
G1 X-2.621 Y-13.426 E27.79171
G1 X-2.621 Y-12.832 E27.82279
G1 X-14.794 Y-25.005 E28.72424
G1 X-14.794 Y-24.412 E28.75533
G1 X-2.621 Y-12.239 E29.65677
G1 X-2.621 Y-11.645 E29.68786
G1 X-14.794 Y-23.818 E30.58930
G1 X-14.794 Y-23.224 E30.62039
G1 X-2.621 Y-11.051 E31.52184
G1 X-2.621 Y-10.457 E31.55293
G1 X-14.794 Y-22.630 E32.45437
G1 X-14.794 Y-22.037 E32.48546
G1 X-2.621 Y-9.864 E33.38690
G1 X-2.621 Y-9.270 E33.41799
G1 X-14.794 Y-21.443 E34.31944
G1 X-14.794 Y-20.849 E34.35052
G1 X-2.918 Y-8.973 E35.22997
G1 X-3.512 Y-8.973 E35.26106
G1 X-14.794 Y-20.256 E36.09653
G1 X-14.794 Y-19.662 E36.12762
G1 X-4.105 Y-8.973 E36.91913
G1 X-4.699 Y-8.973 E36.95022
G1 X-14.794 Y-19.068 E37.69776
G1 X-14.794 Y-18.474 E37.72885
G1 X-5.293 Y-8.973 E38.43243
G1 X-5.887 Y-8.973 E38.46352
G1 X-14.794 Y-17.881 E39.12313
G1 X-14.794 Y-17.287 E39.15422
G1 X-6.480 Y-8.973 E39.76986
G1 X-7.074 Y-8.973 E39.80095
G1 X-14.794 Y-16.693 E40.37263
G1 X-14.794 Y-16.100 E40.40372
G1 X-7.668 Y-8.973 E40.93143
G1 X-8.262 Y-8.973 E40.96252
G1 X-14.794 Y-15.506 E41.44626
G1 X-14.794 Y-14.912 E41.47735
G1 X-8.855 Y-8.973 E41.91713
G1 X-9.449 Y-8.973 E41.94822
G1 X-14.794 Y-14.318 E42.34403
G1 X-14.794 Y-13.725 E42.37512
G1 X-10.043 Y-8.973 E42.72696
G1 X-10.636 Y-8.973 E42.75805
G1 X-14.794 Y-13.131 E43.06593
G1 X-14.794 Y-12.537 E43.09702
G1 X-11.230 Y-8.973 E43.36094
G1 X-11.824 Y-8.973 E43.39202
G1 X-14.794 Y-11.943 E43.61197
G1 X-14.794 Y-11.350 E43.64306
G1 X-12.418 Y-8.973 E43.81904
G1 X-13.011 Y-8.973 E43.85013
G1 X-14.794 Y-10.756 E43.98214
G1 X-14.794 Y-10.162 E44.01323
G1 X-13.605 Y-8.973 E44.10128
G1 X-14.199 Y-8.973 E44.13237
G1 X-14.794 Y-9.569 E44.17645
G1 X-2.621 Y-28.269 F7800.000
G1 X-2.839 Y-28.487 E44.19257 F1200.000
G1 X-3.432 Y-28.487 E44.22366
G1 X-2.621 Y-27.675 E44.28375
G1 X-2.621 Y-27.082 E44.31484
G1 X-4.026 Y-28.487 E44.41889
G1 X-4.620 Y-28.487 E44.44998
G1 X-2.621 Y-26.488 E44.59800
G1 X-2.621 Y-25.894 E44.62909
G1 X-5.214 Y-28.487 E44.82108
G1 X-5.807 Y-28.487 E44.85217
G1 X-2.621 Y-25.300 E45.08812
G1 X-2.621 Y-24.707 E45.11921
G1 X-6.401 Y-28.487 E45.39913
G1 X-6.995 Y-28.487 E45.43022
G1 X-2.621 Y-24.113 E45.75411
G1 X-2.621 Y-23.519 E45.78520
G1 X-7.588 Y-28.487 E46.15305
G1 X-8.182 Y-28.487 E46.18414
G1 X-2.621 Y-22.925 E46.59596
G1 X-2.621 Y-22.332 E46.62705
G1 X-8.776 Y-28.487 E47.08283
G1 X-9.370 Y-28.487 E47.11392
G1 X-2.621 Y-21.738 E47.61368
G1 X-2.621 Y-21.144 E47.64476
G1 X-9.963 Y-28.487 E48.18848
G1 X-10.557 Y-28.487 E48.21957
G1 X-2.621 Y-20.551 E48.80726
G1 X-2.621 Y-19.957 E48.83835
G1 X-11.151 Y-28.487 E49.47000
G1 X-11.744 Y-28.487 E49.50109
G1 X-2.621 Y-19.363 E50.17670
G1 X-2.621 Y-18.769 E50.20779
G1 X-12.338 Y-28.487 E50.92738
G1 X-12.932 Y-28.487 E50.95847
G1 X-2.621 Y-18.176 E51.72202
G1 X-2.621 Y-17.582 E51.75310
G1 X-13.526 Y-28.487 E52.56062
G1 X-14.119 Y-28.487 E52.59171
G1 X-2.621 Y-16.988 E53.44319
G1 X-2.621 Y-16.395 E53.47428
G1 X-14.713 Y-28.487 E54.36973
G1 X-14.810 Y-27.990 E54.39622
G1 X-2.621 Y-15.801 E55.29888
G1 X-2.621 Y-15.207 E55.32997
G1 X-14.810 Y-27.397 E56.23263
G1 X-14.704 Y-27.884 E56.25875
G1 X-15.307 Y-28.487 E56.30338
G1 X-15.901 Y-28.487 E56.33447
G1 X-15.298 Y-27.884 E56.37910
G1 X-15.892 Y-27.884 E56.41019
G1 X-16.494 Y-28.487 E56.45482
G1 X-17.088 Y-28.487 E56.48591
G1 X-16.485 Y-27.884 E56.53055
G1 X-17.079 Y-27.884 E56.56163
G1 X-17.682 Y-28.487 E56.60627
G1 X-18.275 Y-28.487 E56.63736
G1 X-17.673 Y-27.884 E56.68199
