; generated by Slic3r 1.2.9 on 2016-03-29 at 13:14:56

; external perimeters extrusion width = 0.40mm
; perimeters extrusion width = 0.48mm
; infill extrusion width = 0.48mm
; solid infill extrusion width = 0.48mm
; top infill extrusion width = 0.48mm

M190 S40 ; set bed temperature
M104 S220 ; set temperature
G28 ; home all axes
G1 Z5 F5000 ; lift nozzle

M109 S220 ; wait for temperature to be reached
G21 ; set units to millimeters
G90 ; use absolute coordinates
M82 ; use absolute distances for extrusion
G92 E0
G1 Z0.400 F7800.000
G1 E-2.00000 F2400.00000
G92 E0
G1 X92.159 Y81.455 F7800.000
G1 E2.00000 F2400.00000
G1 X93.956 Y79.654 E2.30219 F1800.000
G1 X96.222 Y78.496 E2.60437
G1 X98.750 Y78.093 E2.90842
G1 X121.250 Y78.093 E5.58063
G1 X123.763 Y78.491 E5.88282
G1 X126.031 Y79.645 E6.18500 F1800.000
G1 X127.832 Y81.442 E6.48719
G1 X128.990 Y83.707 E6.78938
G1 X129.392 Y86.236 E7.09342
G1 X129.392 Y118.831 E10.96464
G1 X128.995 Y121.344 E11.26683
G1 X127.841 Y123.612 E11.56902
G1 X126.044 Y125.413 E11.87120
G1 X123.778 Y126.571 E12.17339
G1 X121.250 Y126.974 E12.47743
G1 X98.750 Y126.974 E15.14965
G1 X96.237 Y126.576 E15.45184
G1 X93.969 Y125.422 E15.75402
G1 X92.168 Y123.625 E16.05621
G1 X91.010 Y121.359 E16.35839
G1 X90.608 Y118.831 E16.66244
G1 X90.608 Y86.236 E20.53366
G1 X91.005 Y83.723 E20.83585
G1 X92.132 Y81.508 E21.13091
G1 X92.811 Y81.805 F7800.000
G1 X92.868 Y81.698 E21.14528 F1800.000
G1 X94.647 Y80.043 E21.43383
G1 X96.864 Y79.051 E21.72237
G1 X98.750 Y78.807 E21.94816
G1 X121.250 Y78.807 E24.62038
G1 X123.647 Y79.205 E24.90892
G1 X125.787 Y80.354 E25.19747 F1800.000
G1 X127.442 Y82.133 E25.48601
G1 X128.435 Y84.350 E25.77456
G1 X128.678 Y86.236 E26.00035
G1 X128.678 Y118.831 E29.87157
G1 X128.281 Y121.228 E30.16012
G1 X127.132 Y123.369 E30.44866
G1 X125.353 Y125.024 E30.73721
G1 X123.136 Y126.016 E31.02575
G1 X121.250 Y126.260 E31.25154
G1 X98.750 Y126.260 E33.92376
G1 X96.353 Y125.862 E34.21230
G1 X94.213 Y124.713 E34.50085
G1 X92.558 Y122.934 E34.78939
G1 X91.565 Y120.717 E35.07794
G1 X91.322 Y118.831 E35.30373
G1 X91.322 Y86.236 E39.17495
G1 X91.719 Y83.839 E39.46350
G1 X92.783 Y81.858 E39.73054
G1 X93.454 Y82.172 F7800.000
G1 X93.577 Y81.956 E39.76008 F1800.000
G1 X95.333 Y80.456 E40.03431
G1 X97.493 Y79.640 E40.30853
G1 X98.750 Y79.521 E40.45850
G1 X121.250 Y79.521 E43.13072
G1 X123.525 Y79.919 E43.40494
G1 X125.530 Y81.063 E43.67917 F1800.000
G1 X127.030 Y82.819 E43.95339
G1 X127.845 Y84.979 E44.22762
G1 X127.964 Y86.236 E44.37758
G1 X127.964 Y118.831 E48.24881
G1 X127.567 Y121.106 E48.52303
G1 X126.423 Y123.111 E48.79726
G1 X124.667 Y124.611 E49.07148
G1 X122.507 Y125.427 E49.34571
G1 X121.250 Y125.545 E49.49567
G1 X98.750 Y125.545 E52.16789
G1 X96.475 Y125.148 E52.44211
G1 X94.470 Y124.004 E52.71634
G1 X92.970 Y122.248 E52.99056
G1 X92.155 Y120.088 E53.26479
G1 X92.036 Y118.831 E53.41476
G1 X92.036 Y86.236 E57.28598
G1 X92.433 Y83.961 E57.56020
G1 X93.424 Y82.224 E57.79776
G1 E55.79776 F2400.00000
G92 E0
G1 X119.650 Y97.874 F7800.000
G1 E2.00000 F2400.00000
G1 X100.350 Y97.874 E4.29217 F1800.000
G1 X100.350 Y118.431 E6.73364
G1 X99.150 Y118.431 E6.87616
G1 X99.150 Y86.636 E10.65237
G1 X120.850 Y86.636 E13.22958
G1 X120.850 Y87.836 E13.37209
G1 X100.850 Y87.836 E15.74740
G1 X100.850 Y96.636 E16.79253
G1 X120.850 Y96.636 E19.16783
G1 X120.850 Y118.431 E21.75639
G1 X119.650 Y118.431 E21.89891
G1 X119.650 Y97.934 E24.33326
G1 X119.650 Y97.474 F7800.000
G1 E22.33326 F2400.00000
G92 E0
G1 X120.493 Y87.236 F7800.000
G1 E2.00000 F2400.00000
G1 X100.493 Y87.236 E7.03611 F1800.000
G1 X100.000 Y87.486 E7.17529
G1 X100.000 Y97.024 E9.57701
G1 X100.493 Y97.255 E9.71400
G1 X120.007 Y97.255 E14.62777
G1 X120.197 Y97.289 E14.67625
G1 X120.250 Y97.517 E14.73521
G1 X120.250 Y118.074 E19.91161
G1 E17.91161 F2400.00000
G92 E0
G1 X99.750 Y118.074 F7800.000
G1 E2.00000 F2400.00000
G1 X99.750 Y97.517 E7.17640 F1800.000
G1 X99.993 Y97.031 E7.31318
G1 X100.493 Y96.531 E7.49124
G1 Z0.700 F7800.000
G1 X100.254 Y97.278 F7800.000
G1 X99.746 Y97.278 E7.51776 F900.000
G1 X99.746 Y87.232 E8.04263
G1 X100.254 Y87.232 E8.06915
G1 X100.254 Y97.218 E8.59088
G1 X100.173 Y97.697 F7800.000
G1 X100.173 Y119.031 E9.70550 F3600.000
G1 X100.173 Y119.985 E9.75532 F3600.000
G1 X99.327 Y119.985 E9.79950
G1 X99.327 Y119.031 E9.84933
G1 X99.327 Y86.813 E11.53257 F3600.000
G1 X120.673 Y86.813 E12.64776
G1 X120.673 Y87.658 E12.69194
G1 X100.673 Y87.658 E13.73684
G1 X100.673 Y96.813 E14.21511
G1 X120.673 Y96.813 E15.26001
G1 X120.673 Y119.031 E16.42081
G1 X120.673 Y119.985 E16.47063 F3600.000
G1 X119.827 Y119.985 E16.51481
G1 X119.827 Y119.031 E16.56463
G1 X119.827 Y97.697 E17.67925 F3600.000
G1 X100.233 Y97.697 E18.70296
G1 X100.550 Y98.074 F7800.000
G1 X100.550 Y119.031 E19.58023 F1800.000
G1 X100.550 Y120.362 E19.64977 F3600.000
G1 X98.950 Y120.362 E19.73336
G1 X98.950 Y119.031 E19.80290
G1 X98.950 Y86.436 E21.16736 F1800.000
G1 X121.050 Y86.436 E22.09247
G1 X121.050 Y88.036 E22.15945
G1 X101.050 Y88.036 E22.99666
G1 X101.050 Y96.436 E23.34828
G1 X121.050 Y96.436 E24.18549
G1 X121.050 Y119.031 E25.13135
G1 X121.050 Y120.362 E25.20089 F3600.000
G1 X119.450 Y120.362 E25.28448
G1 X119.450 Y119.031 E25.35401
G1 X119.450 Y98.074 E26.23129 F1800.000
G1 X100.610 Y98.074 E27.01994
G1 X100.150 Y98.074 F7800.000
G1 X100.463 Y97.255 F7800.000
G1 X120.037 Y97.255 E29.22232 F1200.000
G1 X120.202 Y97.284 E29.24116
G1 X120.250 Y97.487 E29.26468
G1 X120.250 Y119.776 E31.77253
G1 E29.77253 F2400.00000
G92 E0
G1 X99.750 Y119.776 F7800.000
G1 E2.00000 F2400.00000
G1 X99.750 Y97.487 E4.50785 F1200.000
G1 X100.000 Y97.069 F7800.000
G1 X100.000 Y87.441 E5.01083 F1200.000
G1 X100.463 Y87.236 F7800.000
G1 X120.463 Y87.236 E7.26122 F1200.000
G1 Z1.000 F7800.000
G1 E5.26122 F2400.00000
G92 E0
G1 X100.254 Y97.278 F7800.000
G1 E2.00000 F2400.00000
G1 X99.746 Y97.278 E2.02653 F900.000
G1 X99.746 Y87.232 E2.55139
G1 X100.254 Y87.232 E2.57792
G1 X100.254 Y97.218 E3.09965
G1 X100.173 Y97.697 F7800.000
G1 X100.173 Y120.762 E4.30470 F3600.000
G1 X100.173 Y121.023 E4.31833 F3600.000
G1 X99.327 Y121.023 E4.36251
G1 X99.327 Y120.762 E4.37614
G1 X99.327 Y86.813 E6.14982 F3600.000
G1 X120.673 Y86.813 E7.26502
G1 X120.673 Y87.658 E7.30919
G1 X100.673 Y87.658 E8.35409
G1 X100.673 Y96.813 E8.83236
G1 X120.673 Y96.813 E9.87726
G1 X120.673 Y120.762 E11.12849
G1 X120.673 Y121.023 E11.14213 F3600.000
G1 X119.827 Y121.023 E11.18630
G1 X119.827 Y120.762 E11.19994
G1 X119.827 Y97.697 E12.40499 F3600.000
G1 X100.233 Y97.697 E13.42870
G1 X100.550 Y98.074 F7800.000
G1 X100.550 Y120.762 E14.37843 F1800.000
G1 X100.550 Y121.401 E14.41178 F3600.000
G1 X98.950 Y121.401 E14.49537
G1 X98.950 Y120.762 E14.52871
G1 X98.950 Y86.436 E15.96564 F1800.000
G1 X121.050 Y86.436 E16.89075
G1 X121.050 Y88.036 E16.95773
G1 X101.050 Y88.036 E17.79493
G1 X101.050 Y96.436 E18.14656
G1 X121.050 Y96.436 E18.98376
G1 X121.050 Y120.762 E20.00208
G1 X121.050 Y121.401 E20.03543 F3600.000
G1 X119.450 Y121.401 E20.11902
G1 X119.450 Y120.762 E20.15237
G1 X119.450 Y98.074 E21.10210 F1800.000
G1 X100.610 Y98.074 E21.89075
G1 X100.150 Y98.074 F7800.000
G1 X100.463 Y97.255 F7800.000
G1 X120.037 Y97.255 E24.09313 F1200.000
G1 X120.202 Y97.284 E24.11197
G1 X120.250 Y97.487 E24.13549
G1 X120.250 Y120.814 E26.76017
G1 E24.76017 F2400.00000
G92 E0
G1 X99.750 Y120.814 F7800.000
G1 E2.00000 F2400.00000
G1 X99.750 Y97.487 E4.62467 F1200.000
G1 X100.000 Y97.069 F7800.000
G1 X100.000 Y87.441 E5.12765 F1200.000
G1 X100.463 Y87.236 F7800.000
G1 X120.463 Y87.236 E7.37804 F1200.000
G1 Z1.300 F7800.000
G1 E5.37804 F2400.00000
G92 E0
G1 X100.254 Y97.278 F7800.000
G1 E2.00000 F2400.00000
G1 X99.746 Y97.278 E2.02653 F900.000
G1 X99.746 Y87.232 E2.55139
G1 X100.254 Y87.232 E2.57792
G1 X100.254 Y97.218 E3.09965
G1 X100.173 Y97.697 F7800.000
G1 X100.173 Y121.801 E4.35894 F3600.000
G1 X100.173 Y121.878 E4.36297 F3600.000
G1 X99.327 Y121.878 E4.40715
G1 X99.327 Y121.801 E4.41118
G1 X99.327 Y86.813 E6.23910 F3600.000
G1 X120.673 Y86.813 E7.35430
G1 X120.673 Y87.658 E7.39847
G1 X100.673 Y87.658 E8.44337
G1 X100.673 Y96.813 E8.92165
G1 X120.673 Y96.813 E9.96654
G1 X120.673 Y121.801 E11.27202
G1 X120.673 Y121.878 E11.27605 F3600.000
G1 X119.827 Y121.878 E11.32023
G1 X119.827 Y121.801 E11.32426
G1 X119.827 Y97.697 E12.58355 F3600.000
G1 X100.233 Y97.697 E13.60726
G1 X100.550 Y98.074 F7800.000
G1 X100.550 Y121.801 E14.60046 F1800.000
G1 X100.550 Y122.255 E14.62420 F3600.000
G1 X98.950 Y122.255 E14.70779
G1 X98.950 Y121.801 E14.73154
G1 X98.950 Y86.436 E16.21192 F1800.000
G1 X121.050 Y86.436 E17.13703
G1 X121.050 Y88.036 E17.20401
G1 X101.050 Y88.036 E18.04122
G1 X101.050 Y96.436 E18.39284
G1 X121.050 Y96.436 E19.23005
G1 X121.050 Y121.801 E20.29183
G1 X121.050 Y122.255 E20.31557 F3600.000
G1 X119.450 Y122.255 E20.39917
G1 X119.450 Y121.801 E20.42291
G1 X119.450 Y98.074 E21.41610 F1800.000
G1 X100.610 Y98.074 E22.20475
G1 X100.150 Y98.074 F7800.000
G1 X100.463 Y97.255 F7800.000
G1 X120.037 Y97.255 E24.40714 F1200.000
G1 X120.202 Y97.284 E24.42598
G1 X120.250 Y97.487 E24.44950
G1 X120.250 Y121.668 E27.17031
G1 E25.17031 F2400.00000
G92 E0
G1 X99.750 Y121.668 F7800.000
G1 E2.00000 F2400.00000
G1 X99.750 Y97.487 E4.72082 F1200.000
G1 X100.000 Y97.069 F7800.000
G1 X100.000 Y87.441 E5.22380 F1200.000
G1 X100.463 Y87.236 F7800.000
G1 X120.463 Y87.236 E7.47419 F1200.000
G1 Z1.600 F7800.000
G1 E5.47419 F2400.00000
G92 E0
G1 X100.254 Y97.278 F7800.000
G1 E2.00000 F2400.00000
G1 X99.746 Y97.278 E2.02653 F900.000
G1 X99.746 Y87.232 E2.55139
G1 X100.254 Y87.232 E2.57792
G1 X100.254 Y97.218 E3.09965
G1 X100.173 Y97.697 F7800.000
G1 X100.173 Y122.631 E4.40232 F3600.000
G1 X99.327 Y122.631 E4.44650
G1 X99.327 Y86.813 E6.31780
G1 X120.673 Y86.813 E7.43300
G1 X120.673 Y87.658 E7.47717
G1 X100.673 Y87.658 E8.52207
G1 X100.673 Y96.813 E9.00035
G1 X120.673 Y96.813 E10.04524
G1 X120.673 Y122.631 E11.39410
G1 X119.827 Y122.631 E11.43828
G1 X119.827 Y97.697 E12.74095
G1 X100.233 Y97.697 E13.76466
G1 X100.550 Y98.074 F7800.000
G1 X100.550 Y122.655 E14.79363 F1800.000
G1 X100.550 Y123.008 E14.81208 F3600.000
G1 X98.950 Y123.008 E14.89567
G1 X98.950 Y122.655 E14.91412
G1 X98.950 Y86.436 E16.43027 F1800.000
G1 X121.050 Y86.436 E17.35539
G1 X121.050 Y88.036 E17.42236
G1 X101.050 Y88.036 E18.25957
G1 X101.050 Y96.436 E18.61120
G1 X121.050 Y96.436 E19.44840
G1 X121.050 Y122.655 E20.54595
G1 X121.050 Y123.008 E20.56440 F3600.000
G1 X119.450 Y123.008 E20.64799
G1 X119.450 Y122.655 E20.66645
G1 X119.450 Y98.074 E21.69541 F1800.000
G1 X100.610 Y98.074 E22.48406
G1 X100.150 Y98.074 F7800.000
G1 X100.463 Y97.255 F7800.000
G1 X120.037 Y97.255 E24.68644 F1200.000
G1 X120.202 Y97.284 E24.70528
G1 X120.250 Y97.487 E24.72880
G1 X120.250 Y122.421 E27.53437
G1 E25.53437 F2400.00000
G92 E0
G1 X99.750 Y122.421 F7800.000
G1 E2.00000 F2400.00000
G1 X99.750 Y97.487 E4.80556 F1200.000
G1 X100.000 Y97.069 F7800.000
G1 X100.000 Y87.441 E5.30854 F1200.000
G1 X100.463 Y87.236 F7800.000
G1 X120.463 Y87.236 E7.55893 F1200.000
G1 Z1.900 F7800.000
G1 E5.55893 F2400.00000
G92 E0
G1 X100.254 Y97.278 F7800.000
G1 E2.00000 F2400.00000
G1 X99.746 Y97.278 E2.02653 F900.000
G1 X99.746 Y87.232 E2.55139
G1 X100.254 Y87.232 E2.57792
G1 X100.254 Y97.218 E3.09965
G1 X100.173 Y97.697 F7800.000
G1 X100.173 Y123.277 E4.43610 F3600.000
G1 X99.327 Y123.277 E4.48027
G1 X99.327 Y86.813 E6.38536
G1 X120.673 Y86.813 E7.50055
G1 X120.673 Y87.658 E7.54472
G1 X100.673 Y87.658 E8.58962
G1 X100.673 Y96.813 E9.06790
G1 X120.673 Y96.813 E10.11279
G1 X120.673 Y123.277 E11.49543
G1 X119.827 Y123.277 E11.53960
G1 X119.827 Y97.697 E12.87605
G1 X100.233 Y97.697 E13.89977
G1 X100.550 Y98.074 F7800.000
G1 X100.550 Y123.408 E14.96026 F1800.000
G1 X100.550 Y123.655 E14.97313 F3600.000
G1 X98.950 Y123.655 E15.05673
G1 X98.950 Y123.408 E15.06960
G1 X98.950 Y86.436 E16.61728 F1800.000
G1 X121.050 Y86.436 E17.54240
G1 X121.050 Y88.036 E17.60937
G1 X101.050 Y88.036 E18.44658
G1 X101.050 Y96.436 E18.79821
G1 X121.050 Y96.436 E19.63541
G1 X121.050 Y123.408 E20.76449
G1 X121.050 Y123.655 E20.77737 F3600.000
G1 X119.450 Y123.655 E20.86096
G1 X119.450 Y123.408 E20.87384
G1 X119.450 Y98.074 E21.93433 F1800.000
G1 X100.610 Y98.074 E22.72298
G1 X100.150 Y98.074 F7800.000
G1 X100.463 Y97.255 F7800.000
G1 X120.037 Y97.255 E24.92536 F1200.000
G1 X120.202 Y97.284 E24.94420
G1 X120.250 Y97.487 E24.96772
G1 X120.250 Y123.068 E27.84603
G1 E25.84603 F2400.00000
G92 E0
G1 X99.750 Y123.068 F7800.000
G1 E2.00000 F2400.00000
G1 X99.750 Y97.487 E4.87831 F1200.000
G1 X100.000 Y97.069 F7800.000
G1 X100.000 Y87.441 E5.38129 F1200.000
G1 X100.463 Y87.236 F7800.000
G1 X120.463 Y87.236 E7.63168 F1200.000
G1 Z2.200 F7800.000
G1 E5.63168 F2400.00000
G92 E0
G1 X100.254 Y97.278 F7800.000
G1 E2.00000 F2400.00000
G1 X99.746 Y97.278 E2.02653 F900.000
G1 X99.746 Y87.232 E2.55139
G1 X100.254 Y87.232 E2.57792
G1 X100.254 Y97.218 E3.09965
G1 X100.173 Y97.697 F7800.000
G1 X100.173 Y123.869 E4.46703 F3600.000
G1 X99.327 Y123.869 E4.51120
G1 X99.327 Y86.813 E6.44722
G1 X120.673 Y86.813 E7.56241
G1 X120.673 Y87.658 E7.60658
G1 X100.673 Y87.658 E8.65148
G1 X100.673 Y96.813 E9.12976
G1 X120.673 Y96.813 E10.17466
G1 X120.673 Y123.869 E11.58822
G1 X119.827 Y123.869 E11.63239
G1 X119.827 Y97.697 E12.99978
G1 X100.233 Y97.697 E14.02349
G1 X100.550 Y98.074 F7800.000
G1 X100.550 Y124.055 E15.11104 F1800.000
G1 X100.550 Y124.247 E15.12107 F3600.000
G1 X98.950 Y124.247 E15.20466
G1 X98.950 Y124.055 E15.21470
G1 X98.950 Y86.436 E16.78944 F1800.000
G1 X121.050 Y86.436 E17.71455
G1 X121.050 Y88.036 E17.78153
G1 X101.050 Y88.036 E18.61873
G1 X101.050 Y96.436 E18.97036
G1 X121.050 Y96.436 E19.80757
G1 X121.050 Y124.055 E20.96371
G1 X121.050 Y124.247 E20.97374 F3600.000
G1 X119.450 Y124.247 E21.05733
G1 X119.450 Y124.055 E21.06736
G1 X119.450 Y98.074 E22.15492 F1800.000
G1 X100.610 Y98.074 E22.94356
G1 X100.150 Y98.074 F7800.000
G1 X100.463 Y97.255 F7800.000
G1 X120.037 Y97.255 E25.14595 F1200.000
G1 X120.202 Y97.284 E25.16479
G1 X120.250 Y97.487 E25.18831
G1 X120.250 Y123.660 E28.13323
G1 E26.13323 F2400.00000
G92 E0
G1 X99.750 Y123.660 F7800.000
G1 E2.00000 F2400.00000
G1 X99.750 Y97.487 E4.94492 F1200.000
G1 X100.000 Y97.069 F7800.000
G1 X100.000 Y87.441 E5.44790 F1200.000
G1 X100.463 Y87.236 F7800.000
G1 X120.463 Y87.236 E7.69829 F1200.000
G1 Z2.500 F7800.000
G1 E5.69829 F2400.00000
G92 E0
G1 X100.254 Y97.278 F7800.000
G1 E2.00000 F2400.00000
G1 X99.746 Y97.278 E2.02653 F900.000
G1 X99.746 Y87.232 E2.55139
G1 X100.254 Y87.232 E2.57792
G1 X100.254 Y97.218 E3.09965
G1 X100.173 Y97.697 F7800.000
G1 X100.173 Y124.417 E4.49563 F3600.000
G1 X99.327 Y124.417 E4.53980
G1 X99.327 Y86.813 E6.50442
G1 X120.673 Y86.813 E7.61961
G1 X120.673 Y87.658 E7.66378
G1 X100.673 Y87.658 E8.70868
G1 X100.673 Y96.813 E9.18696
G1 X120.673 Y96.813 E10.23186
G1 X120.673 Y124.417 E11.67402
G1 X119.827 Y124.417 E11.71819
G1 X119.827 Y97.697 E13.11418
G1 X100.233 Y97.697 E14.13789
G1 X100.550 Y98.074 F7800.000
G1 X100.550 Y124.647 E15.25022 F1800.000
G1 X100.550 Y124.794 E15.25793 F3600.000
G1 X98.950 Y124.794 E15.34152
G1 X98.950 Y124.647 E15.34922
G1 X98.950 Y86.436 E16.94875 F1800.000
G1 X121.050 Y86.436 E17.87386
G1 X121.050 Y88.036 E17.94083
G1 X101.050 Y88.036 E18.77804
G1 X101.050 Y96.436 E19.12967
G1 X121.050 Y96.436 E19.96687
G1 X121.050 Y124.647 E21.14780
G1 X121.050 Y124.794 E21.15550 F3600.000
G1 X119.450 Y124.794 E21.23909
G1 X119.450 Y124.647 E21.24679
G1 X119.450 Y98.074 E22.35913 F1800.000
G1 X100.610 Y98.074 E23.14777
G1 X100.150 Y98.074 F7800.000
G1 X100.463 Y97.255 F7800.000
