; generated by Slic3r 1.2.9 on 2016-02-28 at 16:24:10

; external perimeters extrusion width = 0.40mm
; perimeters extrusion width = 0.48mm
; infill extrusion width = 0.48mm
; solid infill extrusion width = 0.48mm
; top infill extrusion width = 0.48mm

M107
M190 S75 ; set bed temperature
M104 S210 ; set temperature
G28 ; home all axes
G1 Z5 F5000 ; lift nozzle

M109 S210 ; wait for temperature to be reached
G21 ; set units to millimeters
G90 ; use absolute coordinates
M82 ; use absolute distances for extrusion
G92 E0
G1 Z0.400 F7800.000
G1 E-2.00000 F2400.00000
G92 E0
G1 X90.409 Y82.804 F7800.000
G1 E2.00000 F2400.00000
G1 X92.206 Y81.003 E2.30219 F1800.000
G1 X94.472 Y79.844 E2.60437
G1 X97.000 Y79.442 E2.90842
G1 X123.000 Y79.442 E5.99631
G1 X125.513 Y79.840 E6.29850
G1 X127.781 Y80.993 E6.60068 F1800.000
G1 X129.582 Y82.791 E6.90287
G1 X130.740 Y85.056 E7.20506
G1 X131.142 Y87.584 E7.50910
G1 X131.142 Y131.270 E12.69745
G1 X130.745 Y133.783 E12.99964
G1 X129.591 Y136.051 E13.30183
G1 X127.794 Y137.852 E13.60401
G1 X125.528 Y139.010 E13.90620
G1 X123.000 Y139.413 E14.21024
G1 X97.000 Y139.413 E17.29814
G1 X94.487 Y139.015 E17.60032
G1 X92.219 Y137.861 E17.90251
G1 X90.418 Y136.064 E18.20470
G1 X89.260 Y133.798 E18.50688
G1 X88.858 Y131.270 E18.81092
G1 X88.858 Y87.584 E23.99928
G1 X89.255 Y85.071 E24.30147
G1 X90.382 Y82.857 E24.59653
G1 X91.061 Y83.154 F7800.000
G1 X91.118 Y83.047 E24.61090 F1800.000
G1 X92.897 Y81.392 E24.89945
G1 X95.114 Y80.399 E25.18799
G1 X97.000 Y80.156 E25.41378
G1 X123.000 Y80.156 E28.50168
G1 X125.397 Y80.553 E28.79022
G1 X127.537 Y81.703 E29.07877 F1800.000
G1 X129.192 Y83.481 E29.36731
G1 X130.185 Y85.699 E29.65585
G1 X130.428 Y87.584 E29.88165
G1 X130.428 Y131.270 E35.07000
G1 X130.031 Y133.667 E35.35855
G1 X128.882 Y135.808 E35.64709
G1 X127.103 Y137.463 E35.93563
G1 X124.886 Y138.455 E36.22418
G1 X123.000 Y138.699 E36.44997
G1 X97.000 Y138.699 E39.53786
G1 X94.603 Y138.301 E39.82641
G1 X92.463 Y137.152 E40.11495
G1 X90.808 Y135.373 E40.40350
G1 X89.815 Y133.156 E40.69204
G1 X89.572 Y131.270 E40.91783
G1 X89.572 Y87.584 E46.10619
G1 X89.969 Y85.188 E46.39473
G1 X91.033 Y83.207 E46.66178
G1 X91.704 Y83.520 F7800.000
G1 X91.827 Y83.304 E46.69132 F1800.000
G1 X93.583 Y81.805 E46.96555
G1 X95.743 Y80.989 E47.23977
G1 X97.000 Y80.870 E47.38974
G1 X123.000 Y80.870 E50.47763
G1 X125.275 Y81.267 E50.75186
G1 X127.280 Y82.411 E51.02608 F1800.000
G1 X128.780 Y84.167 E51.30031
G1 X129.595 Y86.327 E51.57453
G1 X129.714 Y87.584 E51.72450
G1 X129.714 Y131.270 E56.91285
G1 X129.317 Y133.545 E57.18708
G1 X128.173 Y135.550 E57.46130
G1 X126.417 Y137.050 E57.73553
G1 X124.257 Y137.866 E58.00975
G1 X123.000 Y137.984 E58.15972
G1 X97.000 Y137.984 E61.24761
G1 X94.725 Y137.587 E61.52184
G1 X92.720 Y136.443 E61.79606
G1 X91.220 Y134.687 E62.07029
G1 X90.405 Y132.527 E62.34451
G1 X90.286 Y131.270 E62.49448
G1 X90.286 Y87.584 E67.68283
G1 X90.683 Y85.310 E67.95706
G1 X91.674 Y83.572 E68.19461
G1 E66.19461 F2400.00000
G92 E0
G1 X121.172 Y101.756 F7800.000
G1 E2.00000 F2400.00000
G1 X98.828 Y101.756 E4.65361 F1800.000
G1 X98.828 Y89.413 E6.11958
G1 X121.172 Y89.413 E8.77319
G1 X121.172 Y101.696 E10.23203
G1 X120.364 Y102.470 F7800.000
G1 X99.636 Y102.470 E12.69383 F1800.000
G1 X99.636 Y130.156 E15.98194
G1 X98.114 Y130.156 E16.16266
G1 X98.114 Y88.699 E21.08637
G1 X121.886 Y88.699 E23.90962
G1 X121.886 Y130.156 E28.83333
G1 X120.364 Y130.156 E29.01405
G1 X120.364 Y102.530 E32.29504
G1 X119.650 Y103.184 F7800.000
G1 X100.350 Y103.184 E34.58721 F1800.000
G1 X100.350 Y130.870 E37.87532
G1 X97.400 Y130.870 E38.22568
G1 X97.400 Y87.984 E43.31902
G1 X122.600 Y87.984 E46.31190
G1 X122.600 Y130.870 E51.40525
G1 X119.650 Y130.870 E51.75560
G1 X119.650 Y103.244 E55.03659
G1 X119.650 Y102.784 F7800.000
G1 X121.125 Y102.113 F7800.000
G1 X121.125 Y129.799 E62.00804 F1800.000
G1 E60.00804 F2400.00000
G92 E0
G1 X98.875 Y129.799 F7800.000
G1 E2.00000 F2400.00000
G1 X98.875 Y102.113 E8.97145 F1800.000
G1 X99.607 Y101.321 F7800.000
G1 X99.264 Y100.978 E9.03080 F1800.000
G1 X99.264 Y99.937 E9.15814
G1 X100.647 Y101.321 E9.39757
G1 X101.688 Y101.321 E9.52491
G1 X99.264 Y98.896 E9.94442
G1 X99.264 Y97.856 E10.07175
G1 X102.729 Y101.321 E10.67135
G1 X103.769 Y101.321 E10.79868
G1 X99.264 Y96.815 E11.57835
G1 X99.264 Y95.775 E11.70569
G1 X104.810 Y101.321 E12.66544
G1 X105.850 Y101.321 E12.79277
G1 X99.264 Y94.734 E13.93260
G1 X99.264 Y93.693 E14.05994
G1 X106.891 Y101.321 E15.37985
G1 X107.932 Y101.321 E15.50718
G1 X99.264 Y92.653 E17.00717
G1 X99.264 Y91.612 E17.13451
G1 X108.972 Y101.321 E18.81457
G1 X110.013 Y101.321 E18.94191
G1 X99.264 Y90.572 E20.80206
G1 X99.581 Y89.848 E20.89871
G1 X111.053 Y101.321 E22.88403
G1 X112.094 Y101.321 E23.01136
G1 X100.622 Y89.848 E24.99668
G1 X101.662 Y89.848 E25.12402
G1 X113.135 Y101.321 E27.10934
G1 X114.175 Y101.321 E27.23667
G1 X102.703 Y89.848 E29.22199
G1 X103.744 Y89.848 E29.34933
G1 X115.216 Y101.321 E31.33465
G1 X116.256 Y101.321 E31.46198
G1 X104.784 Y89.848 E33.44730
G1 X105.825 Y89.848 E33.57464
G1 X117.297 Y101.321 E35.55996
G1 X118.338 Y101.321 E35.68729
G1 X106.865 Y89.848 E37.67261
G1 X107.906 Y89.848 E37.79995
G1 X119.378 Y101.321 E39.78527
G1 X120.419 Y101.321 E39.91260
G1 X108.947 Y89.848 E41.89792
G1 X109.987 Y89.848 E42.02526
G1 X120.736 Y100.597 E43.88541
G1 X120.736 Y99.557 E44.01274
G1 X111.028 Y89.848 E45.69281
G1 X112.068 Y89.848 E45.82015
G1 X120.736 Y98.516 E47.32014
G1 X120.736 Y97.475 E47.44747
G1 X113.109 Y89.848 E48.76738
G1 X114.150 Y89.848 E48.89472
G1 X120.736 Y96.435 E50.03455
G1 X120.736 Y95.394 E50.16189
G1 X115.190 Y89.848 E51.12164
G1 X116.231 Y89.848 E51.24897
G1 X120.736 Y94.354 E52.02865
G1 X120.736 Y93.313 E52.15598
G1 X117.271 Y89.848 E52.75558
G1 X118.312 Y89.848 E52.88291
G1 X120.736 Y92.272 E53.30243
G1 X120.736 Y91.232 E53.42976
G1 X119.353 Y89.848 E53.66920
G1 X120.393 Y89.848 E53.79653
G1 X120.736 Y90.191 E53.85589
G1 Z0.700 F7800.000
G1 X120.246 Y102.588 F7800.000
G1 X99.754 Y102.588 E54.92650 F3600.000
G1 X99.754 Y130.790 E56.39990
G1 X97.996 Y130.790 E56.49173
G1 X97.996 Y88.581 E58.69696
G1 X122.004 Y88.581 E59.95125
G1 X122.004 Y130.790 E62.15647
G1 X120.246 Y130.790 E62.24831
G1 X120.246 Y102.648 E63.71857
G1 X119.827 Y103.007 F7800.000
G1 X100.173 Y103.007 E64.74542 F3600.000
G1 X100.173 Y131.209 E66.21881
G1 X97.577 Y131.209 E66.35442
G1 X97.577 Y88.162 E68.60341
G1 X122.423 Y88.162 E69.90146
G1 X122.423 Y131.209 E72.15046
G1 X119.827 Y131.209 E72.28606
G1 X119.827 Y103.067 E73.75633
G1 X119.450 Y103.384 F7800.000
G1 X100.550 Y103.384 E74.54749 F1800.000
G1 X100.550 Y131.470 E75.72317
G1 X100.550 Y131.586 E75.72922 F3600.000
G1 X97.200 Y131.586 E75.90424
G1 X97.200 Y131.470 E75.91030
G1 X97.200 Y87.784 E77.73900 F1800.000
G1 X122.800 Y87.784 E78.81062
G1 X122.800 Y131.470 E80.63933
G1 X122.800 Y131.586 E80.64538 F3600.000
G1 X119.450 Y131.586 E80.82040
G1 X119.450 Y131.470 E80.82646
G1 X119.450 Y103.444 E81.99963 F1800.000
G1 X119.450 Y102.984 F7800.000
G1 X99.507 Y102.643 F7800.000
G1 X98.243 Y103.906 E82.09330 F1200.000
G1 X98.243 Y104.501 E82.12446
G1 X99.507 Y103.237 E82.21813
G1 X99.507 Y103.832 E82.24929
G1 X98.243 Y105.095 E82.34296
G1 X98.243 Y105.690 E82.37413
G1 X99.507 Y104.426 E82.46780
G1 X99.507 Y105.021 E82.49896
G1 X98.243 Y106.284 E82.59263
G1 X98.243 Y106.878 E82.62379
G1 X99.507 Y105.615 E82.71746
G1 X99.507 Y106.209 E82.74863
G1 X98.243 Y107.473 E82.84230
G1 X98.243 Y108.067 E82.87346
G1 X99.507 Y106.804 E82.96713
G1 X99.507 Y107.398 E82.99829
G1 X98.243 Y108.662 E83.09196
G1 X98.243 Y109.256 E83.12313
G1 X99.507 Y107.993 E83.21680
G1 X99.507 Y108.587 E83.24796
G1 X98.243 Y109.851 E83.34163
G1 X98.243 Y110.445 E83.37279
G1 X99.507 Y109.182 E83.46646
G1 X99.507 Y109.776 E83.49763
G1 X98.243 Y111.039 E83.59130
G1 X98.243 Y111.634 E83.62246
G1 X99.507 Y110.370 E83.71613
G1 X99.507 Y110.965 E83.74729
G1 X98.243 Y112.228 E83.84096
G1 X98.243 Y112.823 E83.87213
G1 X99.507 Y111.559 E83.96580
G1 X99.507 Y112.154 E83.99696
G1 X98.243 Y113.417 E84.09063
G1 X98.243 Y114.012 E84.12179
G1 X99.507 Y112.748 E84.21546
G1 X99.507 Y113.343 E84.24663
G1 X98.243 Y114.606 E84.34030
G1 X98.243 Y115.200 E84.37146
G1 X99.507 Y113.937 E84.46513
G1 X99.507 Y114.531 E84.49629
G1 X98.243 Y115.795 E84.58996
G1 X98.243 Y116.389 E84.62113
G1 X99.507 Y115.126 E84.71480
G1 X99.507 Y115.720 E84.74596
G1 X98.243 Y116.984 E84.83963
G1 X98.243 Y117.578 E84.87079
G1 X99.507 Y116.315 E84.96446
G1 X99.507 Y116.909 E84.99563
G1 X98.243 Y118.173 E85.08929
G1 X98.243 Y118.767 E85.12046
G1 X99.507 Y117.504 E85.21413
G1 X99.507 Y118.098 E85.24529
G1 X98.243 Y119.361 E85.33896
G1 X98.243 Y119.956 E85.37012
G1 X99.507 Y118.693 E85.46379
G1 X99.507 Y119.287 E85.49496
G1 X98.243 Y120.550 E85.58863
G1 X98.243 Y121.145 E85.61979
G1 X99.507 Y119.881 E85.71346
G1 X99.507 Y120.476 E85.74462
G1 X98.243 Y121.739 E85.83829
G1 X98.243 Y122.334 E85.86946
G1 X99.507 Y121.070 E85.96313
G1 X99.507 Y121.665 E85.99429
G1 X98.243 Y122.928 E86.08796
G1 X98.243 Y123.523 E86.11912
G1 X99.507 Y122.259 E86.21279
G1 X99.507 Y122.854 E86.24396
G1 X98.243 Y124.117 E86.33763
G1 X98.243 Y124.711 E86.36879
G1 X99.507 Y123.448 E86.46246
G1 X99.507 Y124.042 E86.49362
G1 X98.243 Y125.306 E86.58729
G1 X98.243 Y125.900 E86.61846
G1 X99.507 Y124.637 E86.71213
G1 X99.507 Y125.231 E86.74329
G1 X98.243 Y126.495 E86.83696
G1 X98.243 Y127.089 E86.86812
G1 X99.507 Y125.826 E86.96179
G1 X99.507 Y126.420 E86.99296
G1 X98.243 Y127.684 E87.08663
G1 X98.243 Y128.278 E87.11779
G1 X99.507 Y127.015 E87.21146
G1 X99.507 Y127.609 E87.24262
G1 X98.243 Y128.872 E87.33629
G1 X98.243 Y129.467 E87.36746
G1 X99.507 Y128.203 E87.46113
G1 X99.507 Y128.798 E87.49229
G1 X98.243 Y130.061 E87.58596
G1 X98.356 Y130.543 E87.61189
G1 X99.507 Y129.392 E87.69720
G1 X99.507 Y129.987 E87.72836
G1 X98.951 Y130.543 E87.76959
G1 E85.76959 F2400.00000
G92 E0
G1 X121.539 Y130.543 F7800.000
G1 E2.00000 F2400.00000
G1 X121.757 Y130.325 E2.01614 F1200.000
G1 X121.757 Y129.731 E2.04731
G1 X120.945 Y130.543 E2.10752
G1 X120.493 Y130.400 E2.13234
G1 X121.757 Y129.136 E2.22601
G1 X121.757 Y128.542 E2.25717
G1 X120.493 Y129.805 E2.35084
G1 X120.493 Y129.211 E2.38200
G1 X121.757 Y127.947 E2.47567
G1 X121.757 Y127.353 E2.50684
G1 X120.493 Y128.616 E2.60051
G1 X120.493 Y128.022 E2.63167
G1 X121.757 Y126.759 E2.72534
G1 X121.757 Y126.164 E2.75650
G1 X120.493 Y127.428 E2.85017
G1 X120.493 Y126.833 E2.88134
G1 X121.757 Y125.570 E2.97501
G1 X121.757 Y124.975 E3.00617
G1 X120.493 Y126.239 E3.09984
G1 X120.493 Y125.644 E3.13101
G1 X121.757 Y124.381 E3.22468
G1 X121.757 Y123.786 E3.25584
G1 X120.493 Y125.050 E3.34951
G1 X120.493 Y124.455 E3.38067
G1 X121.757 Y123.192 E3.47434
G1 X121.757 Y122.598 E3.50551
G1 X120.493 Y123.861 E3.59918
G1 X120.493 Y123.267 E3.63034
G1 X121.757 Y122.003 E3.72401
G1 X121.757 Y121.409 E3.75517
G1 X120.493 Y122.672 E3.84884
G1 X120.493 Y122.078 E3.88001
G1 X121.757 Y120.814 E3.97368
G1 X121.757 Y120.220 E4.00484
G1 X120.493 Y121.483 E4.09851
G1 X120.493 Y120.889 E4.12967
G1 X121.757 Y119.625 E4.22334
G1 X121.757 Y119.031 E4.25451
G1 X120.493 Y120.294 E4.34818
G1 X120.493 Y119.700 E4.37934
G1 X121.757 Y118.437 E4.47301
G1 X121.757 Y117.842 E4.50417
G1 X120.493 Y119.105 E4.59784
G1 X120.493 Y118.511 E4.62901
G1 X121.757 Y117.248 E4.72268
G1 X121.757 Y116.653 E4.75384
G1 X120.493 Y117.917 E4.84751
G1 X120.493 Y117.322 E4.87867
G1 X121.757 Y116.059 E4.97234
G1 X121.757 Y115.464 E5.00351
G1 X120.493 Y116.728 E5.09718
G1 X120.493 Y116.133 E5.12834
G1 X121.757 Y114.870 E5.22201
G1 X121.757 Y114.275 E5.25317
G1 X120.493 Y115.539 E5.34684
G1 X120.493 Y114.944 E5.37801
G1 X121.757 Y113.681 E5.47168
G1 X121.757 Y113.087 E5.50284
G1 X120.493 Y114.350 E5.59651
G1 X120.493 Y113.756 E5.62767
G1 X121.757 Y112.492 E5.72134
G1 X121.757 Y111.898 E5.75251
G1 X120.493 Y113.161 E5.84618
G1 X120.493 Y112.567 E5.87734
G1 X121.757 Y111.303 E5.97101
G1 X121.757 Y110.709 E6.00217
G1 X120.493 Y111.972 E6.09584
G1 X120.493 Y111.378 E6.12701
G1 X121.757 Y110.114 E6.22068
G1 X121.757 Y109.520 E6.25184
G1 X120.493 Y110.783 E6.34551
G1 X120.493 Y110.189 E6.37667
G1 X121.757 Y108.926 E6.47034
G1 X121.757 Y108.331 E6.50151
G1 X120.493 Y109.595 E6.59518
G1 X120.493 Y109.000 E6.62634
G1 X121.757 Y107.737 E6.72001
G1 X121.757 Y107.142 E6.75117
G1 X120.493 Y108.406 E6.84484
G1 X120.493 Y107.811 E6.87601
G1 X121.757 Y106.548 E6.96968
G1 X121.757 Y105.953 E7.00084
G1 X120.493 Y107.217 E7.09451
G1 X120.493 Y106.622 E7.12567
G1 X121.757 Y105.359 E7.21934
G1 X121.757 Y104.765 E7.25051
G1 X120.493 Y106.028 E7.34418
G1 X120.493 Y105.434 E7.37534
G1 X121.757 Y104.170 E7.46901
G1 X121.757 Y103.576 E7.50017
G1 X120.493 Y104.839 E7.59384
G1 X120.493 Y104.245 E7.62501
G1 X121.757 Y102.981 E7.71868
G1 X121.757 Y102.387 E7.74984
G1 X120.493 Y103.650 E7.84351
G1 X120.493 Y103.056 E7.87467
G1 X121.757 Y101.792 E7.96834
G1 X121.757 Y101.198 E7.99951
G1 X120.493 Y102.461 E8.09318
G1 X120.019 Y102.341 E8.11882
G1 X121.757 Y100.604 E8.24765
G1 X121.757 Y100.009 E8.27881
G1 X119.425 Y102.341 E8.45171
G1 X118.830 Y102.341 E8.48288
G1 X121.757 Y99.415 E8.69985
G1 X121.757 Y98.820 E8.73101
G1 X118.236 Y102.341 E8.99205
G1 X117.641 Y102.341 E9.02321
G1 X121.757 Y98.226 E9.32833
G1 X121.757 Y97.631 E9.35949
G1 X117.047 Y102.341 E9.70868
G1 X116.453 Y102.341 E9.73984
G1 X121.757 Y97.037 E10.13310
G1 X121.757 Y96.443 E10.16426
G1 X115.858 Y102.341 E10.60159
G1 X115.264 Y102.341 E10.63275
G1 X121.757 Y95.848 E11.11415
G1 X121.757 Y95.254 E11.14532
G1 X114.669 Y102.341 E11.67079
G1 X114.075 Y102.341 E11.70195
G1 X121.757 Y94.659 E12.27150
G1 X121.757 Y94.065 E12.30266
G1 X113.480 Y102.341 E12.91628
G1 X112.886 Y102.341 E12.94744
G1 X121.757 Y93.470 E13.60513
G1 X121.757 Y92.876 E13.63629
G1 X112.291 Y102.341 E14.33805
G1 X111.697 Y102.341 E14.36921
G1 X121.757 Y92.281 E15.11505
G1 X121.757 Y91.687 E15.14621
G1 X111.103 Y102.341 E15.93611
G1 X110.508 Y102.341 E15.96727
G1 X121.757 Y91.093 E16.80125
G1 X121.757 Y90.498 E16.83241
G1 X109.914 Y102.341 E17.71046
G1 X109.319 Y102.341 E17.74162
G1 X121.757 Y89.904 E18.66374
G1 X121.757 Y89.309 E18.69490
G1 X108.725 Y102.341 E19.66109
G1 X108.130 Y102.341 E19.69226
G1 X121.644 Y88.828 E20.69415
G1 X121.049 Y88.828 E20.72532
G1 X107.536 Y102.341 E21.72721
G1 X106.942 Y102.341 E21.75837
G1 X120.455 Y88.828 E22.76027
G1 X119.861 Y88.828 E22.79143
G1 X106.347 Y102.341 E23.79333
G1 X105.753 Y102.341 E23.82449
G1 X119.266 Y88.828 E24.82639
G1 X118.672 Y88.828 E24.85755
G1 X105.158 Y102.341 E25.85945
G1 X104.564 Y102.341 E25.89061
G1 X118.077 Y88.828 E26.89250
G1 X117.483 Y88.828 E26.92367
G1 X103.969 Y102.341 E27.92556
G1 X103.375 Y102.341 E27.95673
G1 X116.888 Y88.828 E28.95862
G1 X116.294 Y88.828 E28.98979
G1 X102.781 Y102.341 E29.99168
G1 X102.186 Y102.341 E30.02284
G1 X115.700 Y88.828 E31.02474
G1 X115.105 Y88.828 E31.05590
G1 X101.592 Y102.341 E32.05780
G1 X100.997 Y102.341 E32.08896
G1 X114.511 Y88.828 E33.09086
G1 X113.916 Y88.828 E33.12202
G1 X100.403 Y102.341 E34.12392
G1 X99.808 Y102.341 E34.15508
G1 X113.322 Y88.828 E35.15697
G1 X112.727 Y88.828 E35.18814
G1 X98.243 Y103.312 E36.26200
G1 X98.243 Y102.717 E36.29316
G1 X112.133 Y88.828 E37.32295
G1 X111.539 Y88.828 E37.35412
G1 X98.243 Y102.123 E38.33984
G1 X98.243 Y101.529 E38.37100
G1 X110.944 Y88.828 E39.31265
G1 X110.350 Y88.828 E39.34381
G1 X98.243 Y100.934 E40.24139
G1 X98.243 Y100.340 E40.27255
G1 X109.755 Y88.828 E41.12605
G1 X109.161 Y88.828 E41.15722
G1 X98.243 Y99.745 E41.96665
G1 X98.243 Y99.151 E41.99781
G1 X108.566 Y88.828 E42.76317
