; generated by Slic3r 1.2.9 on 2016-07-01 at 22:53:13

; external perimeters extrusion width = 0.30mm
; perimeters extrusion width = 0.40mm
; infill extrusion width = 0.40mm
; solid infill extrusion width = 0.40mm
; top infill extrusion width = 0.40mm

M107
M190 S40 ; set bed temperature
M104 S220 ; set temperature
G28 ; home all axes
G1 Z5 F5000 ; lift nozzle

M109 S220 ; wait for temperature to be reached
G21 ; set units to millimeters
G90 ; use absolute coordinates
M82 ; use absolute distances for extrusion
G92 E0
G1 Z-0.200 F7800.000
G1 E-2.00000 F2400.00000
G92 E0
G1 X88.121 Y92.971 F7800.000
G1 E2.00000 F2400.00000
G1 X90.118 Y91.536 E2.14783 F1800.000
G1 X93.500 Y90.743 E2.35670
G1 X117.500 Y90.743 E3.79970
G1 X119.926 Y91.141 E3.94753
G1 X122.879 Y92.971 E4.15640 F1800.000
G1 X123.029 Y93.121 E4.16915
G1 X124.464 Y95.118 E4.31698
G1 X125.257 Y98.500 E4.52585
G1 X125.257 Y106.500 E5.00685
G1 X124.859 Y108.926 E5.15468
G1 X123.029 Y111.879 E5.36355
G1 X122.879 Y112.029 E5.37631
G1 X120.882 Y113.464 E5.52414
G1 X117.500 Y114.257 E5.73301
G1 X93.500 Y114.257 E7.17600
G1 X91.074 Y113.859 E7.32384
G1 X88.121 Y112.029 E7.53270
G1 X87.971 Y111.879 E7.54546
G1 X86.536 Y109.882 E7.69329
G1 X85.743 Y106.500 E7.90216
G1 X85.743 Y98.500 E8.38316
G1 X86.141 Y96.074 E8.53099
G1 X87.971 Y93.121 E8.73986
G1 X88.089 Y93.003 E8.74991
G1 X88.500 Y93.350 F7800.000
G1 X90.433 Y91.979 E8.89241 F1800.000
G1 X93.500 Y91.279 E9.08155
G1 X117.500 Y91.279 E10.52455
G1 X119.837 Y91.676 E10.66705
G1 X122.500 Y93.350 E10.85620 F1800.000
G1 X122.650 Y93.500 E10.86895
G1 X124.021 Y95.433 E11.01145
G1 X124.721 Y98.500 E11.20060
G1 X124.721 Y106.500 E11.68160
G1 X124.324 Y108.837 E11.82409
G1 X122.650 Y111.500 E12.01324
G1 X122.500 Y111.650 E12.02600
G1 X120.567 Y113.021 E12.16850
G1 X117.500 Y113.721 E12.35765
G1 X93.500 Y113.721 E13.80064
G1 X91.163 Y113.324 E13.94314
G1 X88.500 Y111.650 E14.13229
G1 X88.350 Y111.500 E14.14504
G1 X86.979 Y109.567 E14.28754
G1 X86.279 Y106.500 E14.47669
G1 X86.279 Y98.500 E14.95769
G1 X86.676 Y96.163 E15.10019
G1 X88.350 Y93.500 E15.28933
G1 X88.468 Y93.382 E15.29938
G1 X88.879 Y93.729 F7800.000
G1 X90.745 Y92.423 E15.43634 F1800.000
G1 X93.500 Y91.814 E15.60596
G1 X117.500 Y91.814 E17.04896
G1 X119.743 Y92.211 E17.18591
G1 X122.121 Y93.729 E17.35553 F1800.000
G1 X122.271 Y93.879 E17.36829
G1 X123.577 Y95.745 E17.50524
G1 X124.186 Y98.500 E17.67486
G1 X124.186 Y106.500 E18.15586
G1 X123.789 Y108.743 E18.29282
G1 X122.271 Y111.121 E18.46244
G1 X122.121 Y111.271 E18.47520
G1 X120.255 Y112.577 E18.61215
G1 X117.500 Y113.186 E18.78177
G1 X93.500 Y113.186 E20.22477
G1 X91.257 Y112.789 E20.36172
G1 X88.879 Y111.271 E20.53135
G1 X88.729 Y111.121 E20.54410
G1 X87.423 Y109.255 E20.68105
G1 X86.814 Y106.500 E20.85068
G1 X86.814 Y98.500 E21.33168
G1 X87.211 Y96.257 E21.46863
G1 X88.729 Y93.879 E21.63825
G1 X88.847 Y93.760 E21.64830
G1 E19.64830 F2400.00000
G92 E0
G1 X115.696 Y104.964 F7800.000
G1 E2.00000 F2400.00000
G1 X115.234 Y105.309 E2.03468 F1800.000
G1 X114.713 Y105.570 E2.06977
G1 X114.153 Y105.736 E2.10485
G1 X113.573 Y105.800 E2.13993
G1 X112.991 Y105.762 E2.17502
G1 X112.424 Y105.621 E2.21010
G1 X111.898 Y105.386 E2.24478
G1 X111.638 Y105.225 E2.26314
G1 X111.192 Y104.860 E2.29782
G1 X110.812 Y104.417 E2.33291
G1 X110.520 Y103.919 E2.36759
G1 X110.404 Y103.644 E2.38554
G1 X110.297 Y103.308 E2.40678
G1 X110.213 Y102.796 E2.43794
G1 X110.199 Y102.493 E2.45616
G1 X110.250 Y101.925 E2.49045
G1 X110.317 Y101.628 E2.50880
G1 X110.517 Y101.086 E2.54348
G1 X110.812 Y100.583 E2.57857
G1 X111.192 Y100.140 E2.61365
G1 X111.643 Y99.770 E2.64873
G1 X112.153 Y99.486 E2.68382
G1 X112.698 Y99.298 E2.71850
G1 X112.997 Y99.238 E2.73684
G1 X113.549 Y99.200 E2.77012 F1800.000
G1 X113.864 Y99.220 E2.78904
G1 X114.159 Y99.266 E2.80704
G1 X114.713 Y99.430 E2.84173
G1 X115.234 Y99.691 E2.87681
G1 X115.702 Y100.040 E2.91189
G1 X116.100 Y100.466 E2.94698
G1 X116.418 Y100.956 E2.98206
G1 X116.642 Y101.488 E3.01674
G1 X116.722 Y101.782 E3.03510
G1 X116.798 Y102.354 E3.06978
G1 X116.772 Y102.937 E3.10487
G1 X116.646 Y103.500 E3.13955
G1 X116.540 Y103.786 E3.15789
G1 X116.282 Y104.275 E3.19117
G1 X116.100 Y104.533 E3.21009
G1 X115.728 Y104.932 E3.24291
G1 X115.749 Y105.259 F7800.000
G1 E1.24291 F2400.00000
G92 E0
G1 X110.186 Y100.492 F7800.000
G1 E2.00000 F2400.00000
G1 X110.186 Y99.186 E2.07853 F1800.000
G1 X111.512 Y99.186 E2.15829
G1 X110.816 Y99.756 E2.21240
G1 X110.215 Y100.457 E2.26795
G1 X110.186 Y104.508 F7800.000
G1 X110.816 Y105.244 E2.32620 F1800.000
G1 X111.512 Y105.814 E2.38032
G1 X110.186 Y105.814 E2.46008
G1 X110.186 Y104.553 E2.53590
G1 E0.53590 F2400.00000
G92 E0
G1 X115.747 Y105.594 F7800.000
G1 E2.00000 F2400.00000
G1 X116.045 Y105.372 E2.02238 F1800.000
G1 X116.301 Y105.121 E2.04390
G1 X116.590 Y104.767 E2.07138
G1 X116.814 Y104.838 E2.08553
G1 X116.814 Y105.814 E2.14422
G1 X115.820 Y105.814 E2.20399
G1 X115.761 Y105.637 E2.21522
G1 E0.21522 F2400.00000
G92 E0
G1 X116.584 Y100.228 F7800.000
G1 E2.00000 F2400.00000
G1 X116.524 Y100.135 E2.00666 F1800.000
G1 X116.060 Y99.640 E2.04746
G1 X115.747 Y99.406 E2.07096
G1 X115.820 Y99.186 E2.08490
G1 X116.814 Y99.186 E2.14467
G1 X116.814 Y100.160 E2.20324
G1 X116.627 Y100.215 E2.21497
G1 X117.350 Y98.650 F7800.000
G1 X117.350 Y106.350 E2.67793 F1800.000
G1 X109.650 Y106.350 E3.14090
G1 X109.650 Y98.650 E3.60386
G1 X117.305 Y98.650 E4.06411
G1 X117.200 Y98.910 F7800.000
G1 X115.530 Y99.211 F7800.000
G1 X114.849 Y99.051 E4.10613 F1800.000
G1 X114.231 Y98.962 E4.14370
G1 X113.880 Y98.934 E4.16487
G1 X113.246 Y98.935 F7800.000
G1 X112.616 Y98.979 E4.20286 F1800.000
G1 X112.303 Y99.031 E4.22193
G1 X112.016 Y99.192 E4.24170
G1 X111.646 Y99.444 E4.26862
G1 X110.485 Y100.578 F7800.000
G1 X110.226 Y100.943 E4.29555 F1800.000
G1 X110.038 Y101.261 E4.31773
G1 X109.952 Y101.877 E4.35511
G1 X109.935 Y102.248 E4.37749
G1 X109.934 Y102.855 F7800.000
G1 X109.977 Y103.380 E4.40915 F1800.000
G1 X110.033 Y103.741 E4.43111
G1 X110.233 Y104.067 E4.45412
G1 X110.485 Y104.422 E4.48028
G1 X111.689 Y105.591 F7800.000
G1 X112.300 Y105.976 E4.52372 F1800.000
G1 X112.943 Y106.054 E4.56263
G1 X113.251 Y106.065 E4.58116
G1 X113.769 Y106.065 F7800.000
G1 X114.218 Y106.040 E4.60822 F1800.000
G1 X114.849 Y105.949 E4.64655
G1 X115.530 Y105.789 E4.68857
G1 X116.781 Y104.547 F7800.000
G1 X116.924 Y103.969 E4.72437 F1800.000
G1 X116.990 Y103.608 E4.74642
G1 X117.060 Y102.977 E4.78457
G1 X117.065 Y102.784 E4.79618
G1 X117.065 Y102.206 F7800.000
G1 X117.033 Y101.723 E4.82534 F1800.000
G1 X116.987 Y101.375 E4.84641
G1 X116.860 Y100.744 E4.88512
G1 X116.775 Y100.451 E4.90348
G1 E2.90348 F2400.00000
G92 E0
G1 X100.771 Y102.057 F7800.000
G1 E2.00000 F2400.00000
G1 X100.798 Y102.361 E2.01836 F1800.000
G1 X100.772 Y102.937 E2.05304
G1 X100.644 Y103.506 E2.08812
G1 X100.420 Y104.038 E2.12280
G1 X100.266 Y104.301 E2.14116
G1 X99.915 Y104.750 E2.17544
G1 X99.696 Y104.964 E2.19379
G1 X99.234 Y105.309 E2.22848
G1 X98.713 Y105.570 E2.26356
G1 X98.153 Y105.736 E2.29864
G1 X97.573 Y105.800 E2.33373
G1 X96.991 Y105.762 E2.36881
G1 X96.424 Y105.621 E2.40390
G1 X95.898 Y105.386 E2.43858
G1 X95.638 Y105.225 E2.45693
G1 X95.192 Y104.860 E2.49162
G1 X94.812 Y104.417 E2.52670
G1 X94.520 Y103.919 E2.56138
G1 X94.404 Y103.644 E2.57934
G1 X94.297 Y103.308 E2.60058
G1 X94.213 Y102.796 E2.63174
G1 X94.199 Y102.493 E2.64996
G1 X94.250 Y101.925 E2.68424
G1 X94.317 Y101.628 E2.70260
G1 X94.517 Y101.087 E2.73728
G1 X94.812 Y100.583 E2.77236
G1 X95.192 Y100.140 E2.80745
G1 X95.643 Y99.770 E2.84253
G1 X96.153 Y99.486 E2.87761
G1 X96.698 Y99.298 E2.91230
G1 X96.997 Y99.238 E2.93064
G1 X97.549 Y99.200 E2.96392 F1800.000
G1 X97.864 Y99.220 E2.98284
G1 X98.159 Y99.266 E3.00084
G1 X98.713 Y99.430 E3.03552
G1 X99.234 Y99.691 E3.07060
G1 X99.702 Y100.040 E3.10569
G1 X100.100 Y100.466 E3.14077
G1 X100.418 Y100.956 E3.17586
G1 X100.644 Y101.494 E3.21094
G1 X100.761 Y102.013 E3.24292
G1 X101.048 Y102.171 F7800.000
G1 E1.24292 F2400.00000
G92 E0
G1 X95.512 Y99.186 F7800.000
G1 E2.00000 F2400.00000
G1 X94.816 Y99.756 E2.05411 F1800.000
G1 X94.186 Y100.492 E2.11237
G1 X94.186 Y99.186 E2.19090
G1 X95.467 Y99.186 E2.26795
G1 E0.26795 F2400.00000
G92 E0
G1 X94.186 Y104.508 F7800.000
G1 E2.00000 F2400.00000
G1 X94.816 Y105.244 E2.05825 F1800.000
G1 X95.512 Y105.814 E2.11237
G1 X94.186 Y105.814 E2.19213
G1 X94.186 Y104.553 E2.26795
G1 E0.26795 F2400.00000
G92 E0
G1 X99.747 Y105.594 F7800.000
G1 E2.00000 F2400.00000
G1 X100.045 Y105.372 E2.02238 F1800.000
G1 X100.315 Y105.108 E2.04502
G1 X100.598 Y104.746 E2.07266
G1 X100.814 Y104.821 E2.08643
G1 X100.814 Y105.814 E2.14617
G1 X99.820 Y105.814 E2.20594
G1 X99.761 Y105.637 E2.21717
G1 E0.21717 F2400.00000
G92 E0
G1 X100.584 Y100.228 F7800.000
G1 E2.00000 F2400.00000
G1 X100.524 Y100.135 E2.00666 F1800.000
G1 X100.060 Y99.640 E2.04746
G1 X99.747 Y99.406 E2.07096
G1 X99.820 Y99.186 E2.08490
G1 X100.814 Y99.186 E2.14467
G1 X100.814 Y100.160 E2.20324
G1 X100.627 Y100.215 E2.21497
G1 X101.350 Y98.650 F7800.000
G1 X101.350 Y106.350 E2.67793 F1800.000
G1 X93.650 Y106.350 E3.14090
G1 X93.650 Y98.650 E3.60386
G1 X101.305 Y98.650 E4.06411
G1 X101.200 Y98.910 F7800.000
G1 X99.530 Y99.211 F7800.000
G1 X98.849 Y99.051 E4.10613 F1800.000
G1 X98.231 Y98.962 E4.14370
G1 X97.880 Y98.934 E4.16487
G1 X97.246 Y98.935 F7800.000
G1 X96.616 Y98.979 E4.20286 F1800.000
G1 X96.303 Y99.031 E4.22193
G1 X96.016 Y99.192 E4.24170
G1 X95.646 Y99.444 E4.26862
G1 X94.485 Y100.578 F7800.000
G1 X94.226 Y100.943 E4.29555 F1800.000
G1 X94.038 Y101.261 E4.31773
G1 X93.952 Y101.877 E4.35511
G1 X93.935 Y102.248 E4.37749
G1 X93.934 Y102.855 F7800.000
G1 X93.977 Y103.380 E4.40914 F1800.000
G1 X94.033 Y103.741 E4.43111
G1 X94.233 Y104.067 E4.45411
G1 X94.485 Y104.422 E4.48027
G1 X95.689 Y105.591 F7800.000
G1 X96.300 Y105.976 E4.52372 F1800.000
G1 X96.943 Y106.054 E4.56262
G1 X97.251 Y106.065 E4.58116
G1 X97.769 Y106.065 F7800.000
G1 X98.218 Y106.040 E4.60821 F1800.000
G1 X98.849 Y105.949 E4.64655
G1 X99.530 Y105.789 E4.68857
G1 X100.786 Y104.528 F7800.000
G1 X100.863 Y104.243 E4.70629 F1800.000
G1 X100.987 Y103.625 E4.74422
G1 X101.060 Y102.977 E4.78340
G1 X101.065 Y102.784 E4.79501
G1 X101.065 Y102.149 F7800.000
G1 X100.987 Y101.375 E4.84176 F1800.000
G1 X100.860 Y100.744 E4.88047
G1 X100.775 Y100.451 E4.89883
G1 Z0.000 F7800.000
G1 E2.89883 F2400.00000
G92 E0
G1 X110.168 Y101.583 F7800.000
G1 E2.00000 F2400.00000
G1 X110.376 Y101.020 E2.01589 F900.000
G1 X110.685 Y100.493 E2.03206
G1 X111.083 Y100.029 E2.04822
G1 X111.556 Y99.642 E2.06438
G1 X112.089 Y99.344 E2.08054
G1 X112.657 Y99.148 E2.09644
G1 X112.976 Y99.084 E2.10503
G1 X113.520 Y99.046 E2.11946 F900.000
G1 X113.879 Y99.065 E2.12896
G1 X114.194 Y99.114 E2.13739
G1 X114.770 Y99.285 E2.15328
G1 X115.316 Y99.558 E2.16944
G1 X115.798 Y99.918 E2.18534
G1 X116.031 Y100.146 E2.19396
G1 X116.401 Y100.619 E2.20985
G1 X116.682 Y101.150 E2.22575
G1 X116.802 Y101.476 E2.23494
G1 X116.874 Y101.754 E2.24252
G1 X116.954 Y102.347 E2.25835
G1 X116.927 Y102.958 E2.27451
G1 X116.793 Y103.554 E2.29067
G1 X116.559 Y104.108 E2.30657
G1 X116.394 Y104.389 E2.31519
G1 X116.024 Y104.862 E2.33108
G1 X115.576 Y105.263 E2.34698
G1 X115.308 Y105.446 E2.35557
G1 X114.821 Y105.692 E2.37000
G1 X114.483 Y105.813 E2.37950
G1 X114.174 Y105.890 E2.38792
G1 X113.576 Y105.956 E2.40382
G1 X112.967 Y105.916 E2.41998
G1 X112.374 Y105.768 E2.43614
G1 X111.825 Y105.523 E2.45204
G1 X111.548 Y105.352 E2.46066
G1 X111.083 Y104.971 E2.47655
G1 X110.685 Y104.507 E2.49271
G1 X110.376 Y103.980 E2.50888
G1 X110.164 Y103.408 E2.52501
G1 X110.064 Y102.861 E2.53971
G1 X110.044 Y102.493 E2.54948
G1 X110.096 Y101.901 E2.56518
G1 X110.158 Y101.627 E2.57261
G1 X110.461 Y101.670 F7800.000
G1 X110.653 Y101.151 E2.58326 F900.000
G1 X110.935 Y100.671 E2.59397
G1 X111.297 Y100.248 E2.60468
G1 X111.728 Y99.895 E2.61540
G1 X112.214 Y99.624 E2.62611
G1 X112.738 Y99.443 E2.63676
G1 X113.017 Y99.387 E2.64225
G1 X113.523 Y99.351 E2.65200 F900.000
G1 X113.847 Y99.369 E2.65824
G1 X114.126 Y99.413 E2.66369
G1 X114.657 Y99.570 E2.67434
G1 X115.155 Y99.819 E2.68505
G1 X115.599 Y100.150 E2.69570
G1 X115.803 Y100.350 E2.70119
G1 X116.144 Y100.786 E2.71184
G1 X116.402 Y101.275 E2.72249
G1 X116.511 Y101.568 E2.72849
G1 X116.574 Y101.813 E2.73336
G1 X116.648 Y102.361 E2.74399
G1 X116.623 Y102.917 E2.75471
G1 X116.501 Y103.460 E2.76542
G1 X116.286 Y103.971 E2.77607
G1 X116.142 Y104.217 E2.78156
G1 X115.800 Y104.653 E2.79221
G1 X115.388 Y105.022 E2.80286
G1 X115.152 Y105.182 E2.80834
G1 X114.700 Y105.411 E2.81809
G1 X114.394 Y105.521 E2.82434
G1 X114.120 Y105.589 E2.82978
G1 X113.570 Y105.650 E2.84043
G1 X113.014 Y105.613 E2.85115
G1 X112.474 Y105.479 E2.86186
G1 X111.968 Y105.253 E2.87251
G1 X111.725 Y105.103 E2.87800
G1 X111.297 Y104.752 E2.88865
G1 X110.935 Y104.329 E2.89936
G1 X110.653 Y103.849 E2.91008
G1 X110.460 Y103.327 E2.92079
G1 X110.368 Y102.825 E2.93060
G1 X110.350 Y102.498 E2.93691
G1 X110.398 Y101.949 E2.94751
G1 X110.451 Y101.714 E2.95214
G1 X110.259 Y101.448 F7800.000
G1 X109.909 Y100.809 F7800.000
G1 X109.909 Y98.909 E3.00239 F900.000
G1 X111.818 Y98.909 E3.05289
G1 X111.860 Y99.067 E3.05723
G1 X111.356 Y99.348 E3.07248
G1 X110.835 Y99.775 E3.09030
G1 X110.396 Y100.287 E3.10812
G1 X110.065 Y100.851 E3.12543
G1 X109.952 Y100.820 E3.12852
G1 E1.12852 F2400.00000
G92 E0
G1 X115.173 Y98.909 F7800.000
G1 E2.00000 F2400.00000
G1 X117.091 Y98.909 E2.05074 F900.000
G1 X117.091 Y100.825 E2.10142
G1 X116.930 Y100.865 E2.10580
G1 X116.698 Y100.426 E2.11892
G1 X116.294 Y99.910 E2.13626
G1 X116.028 Y99.649 E2.14613
G1 X115.502 Y99.256 E2.16347
G1 X115.134 Y99.072 E2.17436
G1 X115.162 Y98.952 E2.17761
G1 E0.17761 F2400.00000
G92 E0
G1 X117.091 Y104.194 F7800.000
G1 E2.00000 F2400.00000
G1 X117.091 Y106.091 E2.05019 F900.000
G1 X115.175 Y106.091 E2.10087
G1 X115.136 Y105.928 E2.10530
G1 X115.488 Y105.751 E2.11571
G1 X115.795 Y105.542 E2.12554
G1 X116.283 Y105.104 E2.14288
G1 X116.687 Y104.588 E2.16023
G1 X116.921 Y104.159 E2.17314
G1 X117.047 Y104.185 E2.17654
G1 E0.17654 F2400.00000
G92 E0
G1 X111.819 Y106.091 F7800.000
G1 E2.00000 F2400.00000
G1 X109.909 Y106.091 E2.05052 F900.000
G1 X109.909 Y104.191 E2.10077
G1 X110.065 Y104.149 E2.10506
G1 X110.396 Y104.713 E2.12236
G1 X110.835 Y105.225 E2.14018
G1 X111.342 Y105.640 E2.15753
G1 X111.659 Y105.836 E2.16739
G1 X111.855 Y105.924 E2.17304
G1 X111.828 Y106.047 E2.17639
G1 X109.555 Y106.311 F7800.000
G1 X109.555 Y98.689 E2.37801 F900.000
G1 X109.689 Y98.555 E2.38300
G1 X117.311 Y98.555 E2.58461
G1 X117.445 Y98.689 E2.58960
G1 X117.445 Y106.311 E2.79122
G1 X117.311 Y106.445 E2.79620
G1 X109.689 Y106.445 E2.99782
G1 X109.587 Y106.343 E3.00162
G1 X109.250 Y106.311 F7800.000
G1 X109.250 Y98.562 E3.15070 F900.000
G1 X109.562 Y98.250 E3.15919
G1 X117.438 Y98.250 E3.31071
G1 X117.750 Y98.562 E3.31921
G1 X117.750 Y106.438 E3.47072 F900.000
G1 X117.438 Y106.750 E3.47922
G1 X109.562 Y106.750 E3.63073
G1 X109.250 Y106.438 E3.63923
G1 X109.250 Y106.356 E3.64079
G1 X109.510 Y106.161 F7800.000
G1 X110.114 Y105.051 F7800.000
G1 X110.288 Y104.877 E3.64807 F1200.000
G1 X110.556 Y105.168 E3.65978
G1 X110.114 Y105.610 E3.67827
G1 X110.398 Y105.886 E3.68997
G1 X110.833 Y105.450 E3.70821
G1 X111.127 Y105.716 E3.71992
G1 X110.957 Y105.886 E3.72703
G1 X112.009 Y106.044 F7800.000
G1 X112.275 Y106.100 E3.74226 F1200.000
G1 X112.798 Y106.164 E3.77182
G1 X112.798 Y106.164 F7800.000
G1 X113.576 Y106.201 E3.79242 F1200.000
G1 X114.238 Y106.165 E3.80996
G1 X114.238 Y106.164 F7800.000
