; generated by Slic3r 1.2.9 on 2016-07-02 at 00:04:12

; external perimeters extrusion width = 0.30mm
; perimeters extrusion width = 0.40mm
; infill extrusion width = 0.40mm
; solid infill extrusion width = 0.40mm
; top infill extrusion width = 0.40mm

M107
M190 S40 ; set bed temperature
M104 S220 ; set temperature
G28 ; home all axes
G1 Z5 F5000 ; lift nozzle

M109 S220 ; wait for temperature to be reached
G21 ; set units to millimeters
G90 ; use absolute coordinates
M82 ; use absolute distances for extrusion
G92 E0
G1 Z-0.200 F7800.000
G1 E-2.00000 F2400.00000
G92 E0
G1 X88.521 Y93.371 F7800.000
G1 E2.00000 F2400.00000
G1 X90.518 Y91.936 E2.14783 F1800.000
G1 X93.705 Y91.146 E2.34527
G1 X109.500 Y90.743 E3.29525
G1 X117.500 Y90.743 E3.77625
G1 X119.926 Y91.141 E3.92408
G1 X122.879 Y92.971 E4.13295 F1800.000
G1 X123.029 Y93.121 E4.14570
G1 X124.464 Y95.118 E4.29353
G1 X125.257 Y98.500 E4.50240
G1 X125.257 Y106.500 E4.98340
G1 X124.859 Y108.926 E5.13123
G1 X123.029 Y111.879 E5.34010
G1 X122.879 Y112.029 E5.35286
G1 X120.882 Y113.464 E5.50069
G1 X117.500 Y114.257 E5.70956
G1 X109.305 Y114.254 E6.20228
G1 X93.705 Y113.854 E7.14054
G1 X91.290 Y113.395 E7.28837
G1 X88.521 Y111.629 E7.48580
G1 X88.371 Y111.479 E7.49856
G1 X86.936 Y109.482 E7.64639
G1 X86.143 Y106.100 E7.85526
G1 X86.143 Y98.900 E8.28816
G1 X86.541 Y96.474 E8.43599
G1 X88.371 Y93.521 E8.64486
G1 X88.489 Y93.403 E8.65491
G1 X88.900 Y93.750 F7800.000
G1 X90.833 Y92.379 E8.79740 F1800.000
G1 X93.719 Y91.681 E8.97591
G1 X109.500 Y91.279 E9.92507
G1 X117.500 Y91.279 E10.40607
G1 X119.837 Y91.676 E10.54856
G1 X122.500 Y93.350 E10.73771 F1800.000
G1 X122.650 Y93.500 E10.75047
G1 X124.021 Y95.433 E10.89296
G1 X124.721 Y98.500 E11.08211
G1 X124.721 Y106.500 E11.56311
G1 X124.324 Y108.837 E11.70561
G1 X122.650 Y111.500 E11.89476
G1 X122.500 Y111.650 E11.90751
G1 X120.567 Y113.021 E12.05001
G1 X117.500 Y113.721 E12.23916
G1 X109.319 Y113.719 E12.73106
G1 X93.719 Y113.319 E13.66931
G1 X91.393 Y112.862 E13.81181
G1 X88.900 Y111.250 E13.99032
G1 X88.750 Y111.100 E14.00307
G1 X87.379 Y109.167 E14.14557
G1 X86.679 Y106.100 E14.33472
G1 X86.679 Y98.900 E14.76762
G1 X87.076 Y96.563 E14.91012
G1 X88.750 Y93.900 E15.09926
G1 X88.868 Y93.782 E15.10931
G1 X89.279 Y94.129 F7800.000
G1 X91.145 Y92.823 E15.24627 F1800.000
G1 X93.732 Y92.217 E15.40604
G1 X109.500 Y91.814 E16.35437
G1 X117.500 Y91.814 E16.83537
G1 X119.743 Y92.211 E16.97232
G1 X122.121 Y93.729 E17.14194 F1800.000
G1 X122.271 Y93.879 E17.15470
G1 X123.577 Y95.745 E17.29165
G1 X124.186 Y98.500 E17.46128
G1 X124.186 Y106.500 E17.94227
G1 X123.789 Y108.743 E18.07923
G1 X122.271 Y111.121 E18.24885
G1 X122.121 Y111.271 E18.26161
G1 X120.255 Y112.577 E18.39856
G1 X117.500 Y113.186 E18.56818
G1 X109.332 Y113.183 E19.05925
G1 X93.732 Y112.783 E19.99751
G1 X91.500 Y112.329 E20.13446
G1 X89.279 Y110.871 E20.29424
G1 X89.129 Y110.721 E20.30699
G1 X87.823 Y108.855 E20.44395
G1 X87.214 Y106.100 E20.61357
G1 X87.214 Y98.900 E21.04647
G1 X87.611 Y96.657 E21.18342
G1 X89.129 Y94.279 E21.35304
G1 X89.247 Y94.160 E21.36309
G1 E19.36309 F2400.00000
G92 E0
G1 X115.696 Y104.964 F7800.000
G1 E2.00000 F2400.00000
G1 X115.234 Y105.309 E2.03468 F1800.000
G1 X114.713 Y105.570 E2.06977
G1 X114.153 Y105.736 E2.10485
G1 X113.573 Y105.800 E2.13993
G1 X112.991 Y105.762 E2.17502
G1 X112.424 Y105.621 E2.21010
G1 X111.898 Y105.386 E2.24478
G1 X111.638 Y105.225 E2.26314
G1 X111.192 Y104.860 E2.29782
G1 X110.812 Y104.417 E2.33291
G1 X110.520 Y103.919 E2.36759
G1 X110.404 Y103.644 E2.38554
G1 X110.297 Y103.308 E2.40678
G1 X110.213 Y102.796 E2.43794
G1 X110.199 Y102.493 E2.45616
G1 X110.250 Y101.925 E2.49045
G1 X110.317 Y101.628 E2.50880
G1 X110.517 Y101.086 E2.54348
G1 X110.812 Y100.583 E2.57857
G1 X111.192 Y100.140 E2.61365
G1 X111.643 Y99.770 E2.64873
G1 X112.153 Y99.486 E2.68382
G1 X112.698 Y99.298 E2.71850
G1 X112.997 Y99.238 E2.73684
G1 X113.549 Y99.200 E2.77012 F1800.000
G1 X113.864 Y99.220 E2.78904
G1 X114.159 Y99.266 E2.80704
G1 X114.713 Y99.430 E2.84173
G1 X115.234 Y99.691 E2.87681
G1 X115.702 Y100.040 E2.91189
G1 X116.100 Y100.466 E2.94698
G1 X116.418 Y100.956 E2.98206
G1 X116.642 Y101.488 E3.01674
G1 X116.722 Y101.782 E3.03510
G1 X116.798 Y102.354 E3.06978
G1 X116.772 Y102.937 E3.10487
G1 X116.646 Y103.500 E3.13955
G1 X116.540 Y103.786 E3.15789
G1 X116.282 Y104.275 E3.19117
G1 X116.100 Y104.533 E3.21009
G1 X115.728 Y104.932 E3.24291
G1 X115.749 Y105.259 F7800.000
G1 E1.24291 F2400.00000
G92 E0
G1 X110.186 Y100.492 F7800.000
G1 E2.00000 F2400.00000
G1 X110.186 Y99.186 E2.07853 F1800.000
G1 X111.512 Y99.186 E2.15829
G1 X110.816 Y99.756 E2.21240
G1 X110.215 Y100.457 E2.26795
G1 X110.186 Y104.508 F7800.000
G1 X110.816 Y105.244 E2.32620 F1800.000
G1 X111.512 Y105.814 E2.38032
G1 X110.186 Y105.814 E2.46008
G1 X110.186 Y104.553 E2.53590
G1 E0.53590 F2400.00000
G92 E0
G1 X115.747 Y105.594 F7800.000
G1 E2.00000 F2400.00000
G1 X116.045 Y105.372 E2.02238 F1800.000
G1 X116.301 Y105.121 E2.04390
G1 X116.590 Y104.767 E2.07138
G1 X116.814 Y104.838 E2.08553
G1 X116.814 Y105.814 E2.14422
G1 X115.820 Y105.814 E2.20399
G1 X115.761 Y105.637 E2.21522
G1 E0.21522 F2400.00000
G92 E0
G1 X116.584 Y100.228 F7800.000
G1 E2.00000 F2400.00000
G1 X116.524 Y100.135 E2.00666 F1800.000
G1 X116.060 Y99.640 E2.04746
G1 X115.747 Y99.406 E2.07096
G1 X115.820 Y99.186 E2.08490
G1 X116.814 Y99.186 E2.14467
G1 X116.814 Y100.160 E2.20324
G1 X116.627 Y100.215 E2.21497
G1 X117.350 Y98.650 F7800.000
G1 X117.350 Y106.350 E2.67793 F1800.000
G1 X109.650 Y106.350 E3.14090
G1 X109.650 Y98.650 E3.60386
G1 X117.305 Y98.650 E4.06411
G1 X117.200 Y98.910 F7800.000
G1 X115.530 Y99.211 F7800.000
G1 X114.849 Y99.051 E4.10613 F1800.000
G1 X114.231 Y98.962 E4.14370
G1 X113.880 Y98.934 E4.16487
G1 X113.246 Y98.935 F7800.000
G1 X112.616 Y98.979 E4.20286 F1800.000
G1 X112.303 Y99.031 E4.22193
G1 X112.016 Y99.192 E4.24170
G1 X111.646 Y99.444 E4.26862
G1 X110.485 Y100.578 F7800.000
G1 X110.226 Y100.943 E4.29555 F1800.000
G1 X110.038 Y101.261 E4.31773
G1 X109.952 Y101.877 E4.35511
G1 X109.935 Y102.248 E4.37749
G1 X109.934 Y102.855 F7800.000
G1 X109.977 Y103.380 E4.40915 F1800.000
G1 X110.033 Y103.741 E4.43111
G1 X110.233 Y104.067 E4.45412
G1 X110.485 Y104.422 E4.48028
G1 X111.689 Y105.591 F7800.000
G1 X112.300 Y105.976 E4.52372 F1800.000
G1 X112.943 Y106.054 E4.56263
G1 X113.251 Y106.065 E4.58116
G1 X113.769 Y106.065 F7800.000
G1 X114.218 Y106.040 E4.60822 F1800.000
G1 X114.849 Y105.949 E4.64655
G1 X115.530 Y105.789 E4.68857
G1 X116.781 Y104.547 F7800.000
G1 X116.924 Y103.969 E4.72437 F1800.000
G1 X116.990 Y103.608 E4.74642
G1 X117.060 Y102.977 E4.78457
G1 X117.065 Y102.784 E4.79618
G1 X117.065 Y102.206 F7800.000
G1 X117.033 Y101.723 E4.82534 F1800.000
G1 X116.987 Y101.375 E4.84641
G1 X116.860 Y100.744 E4.88512
G1 X116.775 Y100.451 E4.90348
G1 E2.90348 F2400.00000
G92 E0
G1 X100.428 Y101.841 F7800.000
G1 E2.00000 F2400.00000
G1 X100.497 Y102.361 E2.03149 F1800.000
G1 X100.497 Y102.639 E2.04824
G1 X100.431 Y103.142 E2.07874
G1 X100.267 Y103.663 E2.11160
G1 X100.018 Y104.133 E2.14353
G1 X99.691 Y104.551 E2.17543
G1 X99.296 Y104.904 E2.20732
G1 X98.850 Y105.180 E2.23882
G1 X98.596 Y105.293 E2.25558
G1 X98.094 Y105.442 E2.28707
G1 X97.566 Y105.500 E2.31897
G1 X97.044 Y105.466 E2.35046
G1 X96.770 Y105.411 E2.36722
G1 X96.275 Y105.240 E2.39871
G1 X95.812 Y104.981 E2.43061
G1 X95.407 Y104.650 E2.46210
G1 X95.216 Y104.446 E2.47886
G1 X94.912 Y104.020 E2.51036
G1 X94.685 Y103.540 E2.54225
G1 X94.546 Y103.028 E2.57415
G1 X94.499 Y102.500 E2.60604
G1 X94.546 Y101.972 E2.63794
G1 X94.683 Y101.466 E2.66943
G1 X94.791 Y101.209 E2.68618
G1 X95.047 Y100.772 E2.71668
G1 X95.401 Y100.355 E2.74954
G1 X95.812 Y100.019 E2.78147
G1 X96.275 Y99.760 E2.81337
G1 X96.770 Y99.589 E2.84486
G1 X97.043 Y99.535 E2.86156
G1 X97.491 Y99.502 E2.88861 F1800.000
G1 X97.861 Y99.520 E2.91088
G1 X98.102 Y99.561 E2.92555
G1 X98.602 Y99.709 E2.95692
G1 X99.077 Y99.946 E2.98882
G1 X99.502 Y100.264 E3.02072
G1 X99.859 Y100.646 E3.05221
G1 X100.021 Y100.873 E3.06897
G1 X100.266 Y101.336 E3.10046
G1 X100.414 Y101.799 E3.12965
G1 X100.712 Y101.939 F7800.000
G1 E1.12965 F2400.00000
G92 E0
G1 X95.495 Y99.586 F7800.000
G1 E2.00000 F2400.00000
G1 X95.024 Y99.971 E2.03661 F1800.000
G1 X94.586 Y100.488 E2.07735
G1 X94.586 Y99.586 E2.13160
G1 X95.450 Y99.586 E2.18358
G1 E0.18358 F2400.00000
G92 E0
G1 X94.586 Y104.556 F7800.000
G1 E2.00000 F2400.00000
G1 X95.040 Y105.042 E2.03997 F1800.000
G1 X95.495 Y105.414 E2.07535
G1 X94.586 Y105.414 E2.13004
G1 X94.586 Y104.601 E2.17893
G1 E0.17893 F2400.00000
G92 E0
G1 X99.529 Y105.414 F7800.000
G1 E2.00000 F2400.00000
G1 X100.084 Y104.918 E2.04475 F1800.000
G1 X100.198 Y104.773 E2.05585
G1 X100.414 Y104.847 E2.06963
G1 X100.414 Y105.414 E2.10372
G1 X99.574 Y105.414 E2.15422
G1 E0.15422 F2400.00000
G92 E0
G1 X100.414 Y100.455 F7800.000
G1 E2.00000 F2400.00000
G1 X99.601 Y99.586 E2.07161 F1800.000
G1 X100.414 Y99.586 E2.12054
G1 X100.414 Y100.410 E2.17013
G1 X100.950 Y99.050 F7800.000
G1 X100.950 Y105.950 E2.58499 F1800.000
G1 X94.050 Y105.950 E2.99985
G1 X94.050 Y99.050 E3.41471
G1 X100.905 Y99.050 E3.82687
G1 X100.800 Y99.310 F7800.000
G1 Z0.000 F7800.000
G1 E1.82687 F2400.00000
G92 E0
G1 X110.168 Y101.583 F7800.000
G1 E2.00000 F2400.00000
G1 X110.376 Y101.020 E2.01589 F900.000
G1 X110.685 Y100.493 E2.03206
G1 X111.083 Y100.029 E2.04822
G1 X111.556 Y99.642 E2.06438
G1 X112.089 Y99.344 E2.08054
G1 X112.657 Y99.148 E2.09644
G1 X112.976 Y99.084 E2.10503
G1 X113.520 Y99.046 E2.11946 F900.000
G1 X113.879 Y99.065 E2.12896
G1 X114.194 Y99.114 E2.13739
G1 X114.770 Y99.285 E2.15328
G1 X115.316 Y99.558 E2.16944
G1 X115.798 Y99.918 E2.18534
G1 X116.031 Y100.146 E2.19396
G1 X116.401 Y100.619 E2.20985
G1 X116.682 Y101.150 E2.22575
G1 X116.802 Y101.476 E2.23494
G1 X116.874 Y101.754 E2.24252
G1 X116.954 Y102.347 E2.25835
G1 X116.927 Y102.958 E2.27451
G1 X116.793 Y103.554 E2.29067
G1 X116.559 Y104.108 E2.30657
G1 X116.394 Y104.389 E2.31519
G1 X116.024 Y104.862 E2.33108
G1 X115.576 Y105.263 E2.34698
G1 X115.308 Y105.446 E2.35557
G1 X114.821 Y105.692 E2.37000
G1 X114.483 Y105.813 E2.37950
G1 X114.174 Y105.890 E2.38792
G1 X113.576 Y105.956 E2.40382
G1 X112.967 Y105.916 E2.41998
G1 X112.374 Y105.768 E2.43614
G1 X111.825 Y105.523 E2.45204
G1 X111.548 Y105.352 E2.46066
G1 X111.083 Y104.971 E2.47655
G1 X110.685 Y104.507 E2.49271
G1 X110.376 Y103.980 E2.50888
G1 X110.164 Y103.408 E2.52501
G1 X110.064 Y102.861 E2.53971
G1 X110.044 Y102.493 E2.54948
G1 X110.096 Y101.901 E2.56518
G1 X110.158 Y101.627 E2.57261
G1 X110.461 Y101.670 F7800.000
G1 X110.653 Y101.151 E2.58326 F900.000
G1 X110.935 Y100.671 E2.59397
G1 X111.297 Y100.248 E2.60468
G1 X111.728 Y99.895 E2.61540
G1 X112.214 Y99.624 E2.62611
G1 X112.738 Y99.443 E2.63676
G1 X113.017 Y99.387 E2.64225
G1 X113.523 Y99.351 E2.65200 F900.000
G1 X113.847 Y99.369 E2.65824
G1 X114.126 Y99.413 E2.66369
G1 X114.657 Y99.570 E2.67434
G1 X115.155 Y99.819 E2.68505
G1 X115.599 Y100.150 E2.69570
G1 X115.803 Y100.350 E2.70119
G1 X116.144 Y100.786 E2.71184
G1 X116.402 Y101.275 E2.72249
G1 X116.511 Y101.568 E2.72849
G1 X116.574 Y101.813 E2.73336
G1 X116.648 Y102.361 E2.74399
G1 X116.623 Y102.917 E2.75471
G1 X116.501 Y103.460 E2.76542
G1 X116.286 Y103.971 E2.77607
G1 X116.142 Y104.217 E2.78156
G1 X115.800 Y104.653 E2.79221
G1 X115.388 Y105.022 E2.80286
G1 X115.152 Y105.182 E2.80834
G1 X114.700 Y105.411 E2.81809
G1 X114.394 Y105.521 E2.82434
G1 X114.120 Y105.589 E2.82978
G1 X113.570 Y105.650 E2.84043
G1 X113.014 Y105.613 E2.85115
G1 X112.474 Y105.479 E2.86186
G1 X111.968 Y105.253 E2.87251
G1 X111.725 Y105.103 E2.87800
G1 X111.297 Y104.752 E2.88865
G1 X110.935 Y104.329 E2.89936
G1 X110.653 Y103.849 E2.91008
G1 X110.460 Y103.327 E2.92079
G1 X110.368 Y102.825 E2.93060
G1 X110.350 Y102.498 E2.93691
G1 X110.398 Y101.949 E2.94751
G1 X110.451 Y101.714 E2.95214
G1 X110.259 Y101.448 F7800.000
G1 X109.909 Y100.809 F7800.000
G1 X109.909 Y98.909 E3.00239 F900.000
G1 X111.818 Y98.909 E3.05289
G1 X111.860 Y99.067 E3.05723
G1 X111.356 Y99.348 E3.07248
G1 X110.835 Y99.775 E3.09030
G1 X110.396 Y100.287 E3.10812
G1 X110.065 Y100.851 E3.12543
G1 X109.952 Y100.820 E3.12852
G1 E1.12852 F2400.00000
G92 E0
G1 X115.173 Y98.909 F7800.000
G1 E2.00000 F2400.00000
G1 X117.091 Y98.909 E2.05074 F900.000
G1 X117.091 Y100.825 E2.10142
G1 X116.930 Y100.865 E2.10580
G1 X116.698 Y100.426 E2.11892
G1 X116.294 Y99.910 E2.13626
G1 X116.028 Y99.649 E2.14613
G1 X115.502 Y99.256 E2.16347
G1 X115.134 Y99.072 E2.17436
G1 X115.162 Y98.952 E2.17761
G1 E0.17761 F2400.00000
G92 E0
G1 X117.091 Y104.194 F7800.000
G1 E2.00000 F2400.00000
G1 X117.091 Y106.091 E2.05019 F900.000
G1 X115.175 Y106.091 E2.10087
G1 X115.136 Y105.928 E2.10530
G1 X115.488 Y105.751 E2.11571
G1 X115.795 Y105.542 E2.12554
G1 X116.283 Y105.104 E2.14288
G1 X116.687 Y104.588 E2.16023
G1 X116.921 Y104.159 E2.17314
G1 X117.047 Y104.185 E2.17654
G1 E0.17654 F2400.00000
G92 E0
G1 X111.819 Y106.091 F7800.000
G1 E2.00000 F2400.00000
G1 X109.909 Y106.091 E2.05052 F900.000
G1 X109.909 Y104.191 E2.10077
G1 X110.065 Y104.149 E2.10506
G1 X110.396 Y104.713 E2.12236
G1 X110.835 Y105.225 E2.14018
G1 X111.342 Y105.640 E2.15753
G1 X111.659 Y105.836 E2.16739
G1 X111.855 Y105.924 E2.17304
G1 X111.828 Y106.047 E2.17639
G1 X109.555 Y106.311 F7800.000
G1 X109.555 Y98.689 E2.37801 F900.000
G1 X109.689 Y98.555 E2.38300
G1 X117.311 Y98.555 E2.58461
G1 X117.445 Y98.689 E2.58960
G1 X117.445 Y106.311 E2.79122
G1 X117.311 Y106.445 E2.79620
G1 X109.689 Y106.445 E2.99782
G1 X109.587 Y106.343 E3.00162
G1 X109.339 Y106.527 F7800.000
G1 X109.250 Y106.438 E3.00405 F900.000
G1 X109.250 Y98.562 E3.15557
G1 X109.562 Y98.250 E3.16406
G1 X117.438 Y98.250 E3.31558
G1 X117.750 Y98.562 E3.32407
G1 X117.750 Y106.438 E3.47559 F900.000
G1 X117.438 Y106.750 E3.48408
G1 X109.562 Y106.750 E3.63560
G1 X109.371 Y106.559 E3.64079
G1 X109.372 Y106.405 F7800.000
G1 X110.114 Y105.051 F7800.000
G1 X110.288 Y104.877 E3.64807 F1200.000
G1 X110.556 Y105.168 E3.65978
G1 X110.114 Y105.610 E3.67827
G1 X110.398 Y105.886 E3.68997
G1 X110.833 Y105.450 E3.70821
G1 X111.127 Y105.716 E3.71992
G1 X110.957 Y105.886 E3.72703
G1 X112.009 Y106.044 F7800.000
G1 X112.275 Y106.100 E3.74226 F1200.000
G1 X112.798 Y106.164 E3.77182
G1 X112.798 Y106.164 F7800.000
G1 X113.576 Y106.201 E3.79242 F1200.000
G1 X114.238 Y106.165 E3.80996
G1 X114.238 Y106.164 F7800.000
G1 X114.984 Y106.051 E3.85228 F1200.000
G1 X115.878 Y105.856 F7800.000
G1 X116.071 Y105.663 E3.86454 F1200.000
G1 X116.696 Y105.886 F7800.000
G1 X116.886 Y105.696 E3.87659 F1200.000
G1 X116.599 Y105.135 E3.90487
G1 X116.866 Y104.868 E3.92178
G1 X117.041 Y104.003 F7800.000
G1 X117.113 Y103.642 E3.94245 F1200.000
G1 X117.162 Y103.197 E3.96754
G1 X117.162 Y103.197 F7800.000
G1 X117.185 Y102.985 E3.97320 F1200.000
G1 X117.199 Y102.342 E3.99019
G1 X117.161 Y101.754 E4.00579
G1 X117.164 Y101.754 F7800.000
G1 X117.052 Y101.017 E4.04762 F1200.000
G1 X116.715 Y100.133 F7800.000
G1 X116.886 Y99.962 E4.05486 F1200.000
G1 X116.453 Y99.829 E4.06842
G1 X116.886 Y99.396 E4.08674
G1 X116.602 Y99.114 E4.09872
G1 X116.171 Y99.545 E4.11697
G1 X115.866 Y99.284 E4.12899
G1 X116.036 Y99.114 E4.13619
G1 X114.983 Y98.943 F7800.000
G1 X114.228 Y98.834 E4.17900 F1200.000
G1 X114.228 Y98.836 F7800.000
G1 X113.523 Y98.800 E4.19767 F1200.000
G1 X112.754 Y98.839 E4.21802
G1 X112.754 Y98.839 F7800.000
G1 X112.012 Y98.951 E4.26015 F1200.000
G1 X110.834 Y99.426 F7800.000
G1 X111.127 Y99.134 E4.27857 F1200.000
G1 X110.304 Y99.114 E4.31527
G1 X110.114 Y99.304 E4.32725
G1 X110.419 Y99.841 E4.35481
