; generated by Slic3r 1.2.9 on 2016-04-01 at 18:21:46

; external perimeters extrusion width = 0.40mm
; perimeters extrusion width = 0.68mm
; infill extrusion width = 1.28mm
; solid infill extrusion width = 0.68mm
; top infill extrusion width = 0.68mm

M190 S40 ; set bed temperature
M104 S220 ; set temperature
G28 ; home all axes
G1 Z5 F5000 ; lift nozzle

M109 S220 ; wait for temperature to be reached
G21 ; set units to millimeters
G90 ; use absolute coordinates
M82 ; use absolute distances for extrusion
G92 E0
G1 Z0.400 F7800.000
G1 E-2.00000 F2400.00000
G92 E0
G1 X98.590 Y98.538 F7800.000
G1 E2.00000 F2400.00000
G1 X161.920 Y35.179 E12.63925 F1800.000
G1 X163.978 Y33.684 E12.94143
G1 X166.398 Y32.896 E13.24362
G1 X168.942 Y32.893 E13.54581
G1 X171.363 Y33.676 E13.84799
G1 X173.418 Y35.162 E14.14914 F1800.000
G1 X183.347 Y45.032 E15.81186
G1 X184.779 Y46.464 E16.05230
G1 X186.275 Y48.522 E16.35449
G1 X187.062 Y50.941 E16.65668
G1 X187.065 Y53.486 E16.95886
G1 X186.282 Y55.906 E17.26105
G1 X184.780 Y57.977 E17.56484
G1 X18.021 Y224.820 E45.58069
G1 X15.962 Y226.316 E45.88288
G1 X13.543 Y227.104 E46.18507
G1 X10.999 Y227.107 E46.48725
G1 X8.578 Y226.324 E46.78944
G1 X6.505 Y224.820 E47.09348
G1 X5.074 Y223.389 E47.33392
G1 X-4.796 Y213.460 E48.99664
G1 X-6.286 Y211.397 E49.29882
G1 X-7.066 Y208.975 E49.60101
G1 X-7.061 Y206.431 E49.90320
G1 X-6.271 Y204.012 E50.20538
G1 X-4.780 Y201.963 E50.50630
G1 X98.548 Y98.580 E67.86581
G1 X99.095 Y99.043 F7800.000
G1 X162.425 Y35.684 E78.50503 F1800.000
G1 X164.401 Y34.271 E78.79358
G1 X166.727 Y33.570 E79.08212
G1 X169.155 Y33.657 E79.37067
G1 X171.425 Y34.523 E79.65921 F1800.000
G1 X172.914 Y35.669 E79.88235
G1 X184.274 Y46.969 E81.78526
G1 X185.688 Y48.944 E82.07380
G1 X186.388 Y51.271 E82.36234
G1 X186.301 Y53.699 E82.65089
G1 X185.435 Y55.968 E82.93943
G1 X184.275 Y57.472 E83.16499
G1 X17.516 Y224.315 E111.18082
G1 X15.540 Y225.729 E111.46937
G1 X13.213 Y226.430 E111.75791
G1 X10.786 Y226.343 E112.04646
G1 X8.516 Y225.477 E112.33500
G1 X7.010 Y224.315 E112.56079
G1 X-4.289 Y212.956 E114.46369
G1 X-5.697 Y210.976 E114.75224
G1 X-6.391 Y208.648 E115.04078
G1 X-6.296 Y206.220 E115.32933
G1 X-5.424 Y203.953 E115.61787
G1 X-4.275 Y202.468 E115.84080
G1 X99.053 Y99.085 E133.20031
G1 X99.601 Y99.548 F7800.000
G1 X162.930 Y36.189 E143.83951 F1800.000
G1 X164.819 Y34.862 E144.11373
G1 X167.046 Y34.253 E144.38796
G1 X169.348 Y34.434 E144.66218
G1 X171.452 Y35.385 E144.93641 F1800.000
G1 X172.411 Y36.175 E145.08397
G1 X183.769 Y47.474 E146.98662
G1 X185.096 Y49.363 E147.26084
G1 X185.705 Y51.590 E147.53507
G1 X185.524 Y53.892 E147.80929
G1 X184.574 Y55.996 E148.08352
G1 X183.770 Y56.967 E148.23327
G1 X17.011 Y223.810 E176.24908
G1 X15.121 Y225.138 E176.52331
G1 X12.894 Y225.747 E176.79753
G1 X10.592 Y225.566 E177.07176
G1 X8.488 Y224.615 E177.34598
G1 X7.515 Y223.810 E177.49595
G1 X-3.783 Y212.453 E179.39859
G1 X-5.105 Y210.560 E179.67282
G1 X-5.707 Y208.331 E179.94704
G1 X-5.519 Y206.029 E180.22127
G1 X-4.562 Y203.928 E180.49549
G1 X-3.770 Y202.973 E180.64286
G1 X99.558 Y99.590 E198.00237
G1 E196.00237 F2400.00000
G92 E0
G1 X26.824 Y196.578 F7800.000
G1 E2.00000 F2400.00000
G1 X24.359 Y199.043 E2.41406 F1800.000
G1 X22.700 Y202.705 E2.89155
G1 X17.423 Y197.718 E3.75387
G1 X22.083 Y195.884 E4.34872
G1 X24.107 Y193.860 E4.68856
G1 X26.782 Y196.536 E5.13790
G1 X156.689 Y66.713 F7800.000
G1 X153.971 Y63.995 E5.59435 F1800.000
G1 X155.941 Y62.026 E5.92521
G1 X157.734 Y57.373 E6.51736
G1 X162.908 Y62.547 E7.38633
G1 X159.154 Y64.248 E7.87578
G1 X156.732 Y66.671 E8.28271
G1 X155.443 Y66.477 F7800.000
G1 X26.588 Y195.332 E29.92509 F1800.000
G1 X27.834 Y196.578 E30.13439
G1 X24.956 Y199.456 E30.61783
G1 X22.937 Y203.912 E31.19881
G1 X16.115 Y197.465 E32.31353
G1 X21.683 Y195.274 E33.02421
G1 X24.107 Y192.850 E33.43121
G1 X25.353 Y194.096 E33.64051
G1 X154.208 Y65.242 E55.28289
G1 X152.961 Y63.995 E55.49219
G1 X155.329 Y61.628 E55.88989
G1 X157.463 Y56.092 E56.59449
G1 X164.143 Y62.772 E57.71642
G1 X159.567 Y64.845 E58.31298
G1 X156.689 Y67.723 E58.79643
G1 X155.485 Y66.519 E58.99860
G1 X155.443 Y67.487 F7800.000
G1 X27.598 Y195.332 E80.47134 F1800.000
G1 X28.844 Y196.578 E80.68064
G1 X25.553 Y199.869 E81.23347
G1 X21.130 Y209.630 E82.50613
G1 X12.263 Y218.497 E83.99546
G1 X11.414 Y217.649 E84.13797
G1 X20.127 Y208.936 E85.60137
G1 X22.252 Y204.247 E86.21272
G1 X15.771 Y198.123 E87.27168
G1 X10.934 Y200.027 E87.88905
G1 X2.393 Y208.568 E89.32361
G1 X1.545 Y207.719 E89.46613
G1 X10.262 Y199.002 E90.93035
G1 X21.283 Y194.664 E92.33702
G1 X24.107 Y191.840 E92.81119
G1 X25.353 Y193.087 E93.02049
G1 X153.198 Y65.242 E114.49323
G1 X151.951 Y63.995 E114.70254
G1 X154.717 Y61.230 E115.16709
G1 X158.961 Y50.220 E116.56847
G1 X167.678 Y41.503 E118.03251
G1 X168.526 Y42.351 E118.17503
G1 X159.989 Y50.888 E119.60889
G1 X158.120 Y55.739 E120.22626
G1 X164.471 Y62.090 E121.29296
G1 X168.894 Y60.085 E121.86971
G1 X177.607 Y51.373 E123.33311
G1 X178.455 Y52.221 E123.47563
G1 X169.588 Y61.088 E124.96496
G1 X159.981 Y65.442 E126.21768
G1 X156.689 Y68.733 E126.77051
G1 X155.485 Y67.529 E126.97268
G1 X155.160 Y67.204 F7800.000
G1 X155.078 Y65.607 F7800.000
G1 X25.718 Y194.967 E173.03863 F1800.000
G1 X24.107 Y194.719 F7800.000
G1 X25.966 Y196.578 E173.36360 F1800.000
G1 X23.852 Y198.692 E173.73312
G1 X22.498 Y201.680 E174.13848
G1 X18.534 Y197.933 E174.81261
G1 X22.423 Y196.402 E175.32920
G1 X24.064 Y194.761 E175.61604
G1 X24.107 Y195.770 F7800.000
G1 X24.915 Y196.578 E175.75730 F1800.000
G1 X23.231 Y198.262 E176.05168
G1 X22.251 Y200.424 E176.34497
G1 X19.894 Y198.196 E176.74576
G1 X22.839 Y197.037 E177.13691
G1 X24.064 Y195.812 E177.35101
G1 X15.657 Y197.523 F7800.000
G1 X10.600 Y199.516 E178.71970 F1800.000
G1 X2.221 Y207.891 E181.70264
G1 E179.70264 F2400.00000
G92 E0
G1 X12.091 Y217.820 F7800.000
G1 E2.00000 F2400.00000
G1 X20.627 Y209.282 E5.04018 F1800.000
G1 X22.869 Y204.339 E6.40681
G1 E4.40681 F2400.00000
G92 E0
G1 X154.830 Y63.995 F7800.000
G1 E2.00000 F2400.00000
G1 X156.461 Y62.364 E2.29968 F1800.000
G1 X157.965 Y58.463 E2.84271
G1 X161.859 Y62.356 E3.55787
G1 X158.803 Y63.741 E3.99355
G1 X156.689 Y65.855 E4.38186
G1 X154.872 Y64.038 E4.71556
G1 X155.934 Y63.995 F7800.000
G1 X157.131 Y62.799 E4.93529 F1800.000
G1 X158.262 Y59.864 E5.34385
G1 X160.509 Y62.110 E5.75650
G1 X158.351 Y63.088 E6.06408
G1 X156.689 Y64.750 E6.36941
G1 X155.977 Y64.038 E6.50025
G1 X157.515 Y55.639 F7800.000
G1 X159.477 Y50.555 E7.87240 F1800.000
G1 X167.849 Y42.180 E10.85440
G1 E8.85440 F2400.00000
G92 E0
G1 X177.779 Y52.049 F7800.000
G1 E2.00000 F2400.00000
G1 X169.240 Y60.585 E5.04018 F1800.000
G1 X164.576 Y62.700 E6.32961
G1 Z0.500 F7800.000
G1 X155.545 Y66.207 F7800.000
G1 X26.318 Y195.434 E11.33322 F3600.000
G1 X27.462 Y196.578 E11.37752
G1 X24.736 Y199.304 E11.48308
G1 X22.850 Y203.468 E11.60823
G1 X16.597 Y197.558 E11.84379
G1 X21.831 Y195.498 E11.99779
G1 X24.107 Y193.222 E12.08592
G1 X25.251 Y194.366 E12.13021
G1 X154.477 Y65.140 E17.13382
G1 X153.333 Y63.995 E17.17812
G1 X155.555 Y61.774 E17.26413
G1 X157.563 Y56.564 E17.41702
G1 X163.688 Y62.689 E17.65419
G1 X159.415 Y64.625 E17.78262
G1 X156.689 Y67.351 E17.88818
G1 X155.587 Y66.250 E17.93083
G1 X155.545 Y67.139 F7800.000
G1 X27.250 Y195.434 E22.89838 F3600.000
G1 X28.394 Y196.578 E22.94268
G1 X25.287 Y199.685 E23.06299
G1 X20.864 Y209.446 E23.35637
G1 X12.263 Y218.047 E23.68940
G1 X11.865 Y217.649 E23.70481
G1 X20.393 Y209.120 E24.03504
G1 X22.636 Y204.172 E24.18378
G1 X15.843 Y197.752 E24.43966
G1 X10.756 Y199.755 E24.58934
G1 X2.393 Y208.117 E24.91314
G1 X1.995 Y207.719 E24.92855
G1 X10.441 Y199.274 E25.25556
G1 X21.462 Y194.936 E25.57984
G1 X24.107 Y192.291 E25.68225
G1 X25.251 Y193.435 E25.72655
G1 X153.546 Y65.140 E30.69409
G1 X152.402 Y63.995 E30.73839
G1 X154.990 Y61.407 E30.83861
G1 X159.234 Y50.397 E31.16167
G1 X167.678 Y41.953 E31.48861
G1 X168.076 Y42.351 E31.50402
G1 X159.716 Y50.711 E31.82769
G1 X157.748 Y55.817 E31.97754
G1 X164.401 Y62.471 E32.23515
G1 X169.078 Y60.352 E32.37573
G1 X177.607 Y51.823 E32.70595
G1 X178.005 Y52.221 E32.72137
G1 X169.404 Y60.822 E33.05439
G1 X159.796 Y65.175 E33.34318
G1 X156.689 Y68.283 E33.46349
G1 X155.587 Y67.181 E33.50615
G1 X155.545 Y67.872 F7800.000
G1 X27.983 Y195.434 E36.34526 F1800.000
G1 X29.127 Y196.578 E36.37072
G1 X25.720 Y199.985 E36.44655
G1 X21.297 Y209.746 E36.61519
G1 X12.263 Y218.780 E36.81627
G1 X11.132 Y217.649 E36.84145
G1 X19.960 Y208.820 E37.03794
G1 X22.011 Y204.295 E37.11614
G1 X15.726 Y198.356 E37.25222
G1 X11.046 Y200.198 E37.33137
G1 X2.393 Y208.851 E37.52396
G1 X1.262 Y207.719 E37.54914
G1 X10.150 Y198.831 E37.74697
G1 X21.171 Y194.493 E37.93337
G1 X24.107 Y191.558 E37.99870
G1 X25.251 Y192.702 E38.02416
G1 X152.813 Y65.140 E40.86327
G1 X151.669 Y63.995 E40.88873
G1 X154.546 Y61.118 E40.95277
G1 X158.790 Y50.108 E41.13847
G1 X167.678 Y41.220 E41.33629
G1 X168.809 Y42.351 E41.36147
G1 X160.161 Y51.000 E41.55396
G1 X158.353 Y55.689 E41.63305
G1 X164.514 Y61.850 E41.77018
G1 X168.778 Y59.918 E41.84385
G1 X177.607 Y51.090 E42.04035
G1 X178.738 Y52.221 E42.06553
G1 X169.704 Y61.255 E42.26660
G1 X160.096 Y65.609 E42.43260
G1 X156.689 Y69.016 E42.50844
G1 X155.587 Y67.914 E42.53295
G1 X155.262 Y67.589 F7800.000
G1 X155.244 Y65.441 F7800.000
G1 X25.552 Y195.133 E52.73987 F1200.000
G1 X21.031 Y196.308 F7800.000
G1 X18.476 Y198.864 E52.84407 F1200.000
G1 X18.980 Y199.340 E52.86407
G1 X24.346 Y193.974 E53.08288
G1 X24.618 Y194.683 E53.10477
G1 X19.484 Y199.817 E53.31410
G1 X19.989 Y200.293 E53.33410
G1 X25.108 Y195.173 E53.54286
G1 X25.599 Y195.664 E53.56286
G1 X20.493 Y200.770 E53.77105
G1 X20.997 Y201.246 E53.79105
G1 X26.089 Y196.154 E53.99868
G1 X26.798 Y196.426 E54.02058
G1 X21.501 Y201.723 E54.23656
G1 X22.510 Y202.676 F7800.000
G1 X22.843 Y202.342 E54.25017 F1200.000
G1 X22.006 Y202.199 E54.27467
G1 X23.656 Y200.549 E54.34198
G1 X19.414 Y196.945 F7800.000
G1 X17.972 Y198.387 E54.40077 F1200.000
G1 X17.482 Y197.896 E54.42077
G1 X17.796 Y197.581 E54.43360
G1 E52.43360 F2400.00000
G92 E0
G1 X156.361 Y60.961 F7800.000
G1 E2.00000 F2400.00000
G1 X158.904 Y58.417 E2.10459 F1200.000
G1 X159.399 Y58.912 E2.12492
G1 X154.080 Y64.230 E2.34360
G1 X154.793 Y64.506 E2.36583
G1 X159.893 Y59.406 E2.57552
G1 X160.388 Y59.901 E2.59586
G1 X155.288 Y65.001 E2.80555
G1 X155.782 Y65.495 E2.82588
G1 X160.882 Y60.395 E3.03557
G1 X161.377 Y60.890 E3.05590
G1 X156.277 Y65.990 E3.26559
G1 X156.553 Y66.703 E3.28782
G1 X161.871 Y61.384 E3.50650
G1 X162.541 Y62.693 F7800.000
G1 X162.860 Y62.373 E3.51964 F1200.000
G1 X162.366 Y61.879 E3.53997
G1 X160.732 Y63.512 E3.60714
G1 X156.981 Y59.352 F7800.000
G1 X158.410 Y57.923 E3.66589 F1200.000
G1 X157.915 Y57.428 E3.68622
G1 X157.601 Y57.743 E3.69914
G1 Z0.600 F7800.000
G1 X155.586 Y66.248 F7800.000
G1 X26.359 Y195.475 E8.70275 F3600.000
G1 X27.462 Y196.578 E8.74547
G1 X24.736 Y199.304 E8.85103
G1 X22.850 Y203.468 E8.97618
G1 X16.597 Y197.558 E9.21174
G1 X21.831 Y195.498 E9.36574
G1 X24.107 Y193.222 E9.45386
G1 X25.210 Y194.325 E9.49658
G1 X154.437 Y65.099 E14.50019
G1 X153.333 Y63.995 E14.54291
G1 X155.555 Y61.774 E14.62892
G1 X157.563 Y56.564 E14.78180
G1 X163.688 Y62.689 E15.01897
G1 X159.415 Y64.625 E15.14741
G1 X156.689 Y67.351 E15.25297
G1 X155.628 Y66.290 E15.29404
G1 X155.586 Y67.179 F7800.000
G1 X27.290 Y195.475 E20.26159 F3600.000
G1 X28.394 Y196.578 E20.30431
G1 X25.287 Y199.685 E20.42462
G1 X20.864 Y209.446 E20.71800
G1 X12.263 Y218.047 E21.05103
G1 X11.865 Y217.649 E21.06644
G1 X20.393 Y209.120 E21.39666
G1 X22.636 Y204.172 E21.54540
G1 X15.843 Y197.752 E21.80129
G1 X10.756 Y199.755 E21.95097
G1 X2.393 Y208.117 E22.27477
G1 X1.995 Y207.719 E22.29018
G1 X10.441 Y199.274 E22.61719
G1 X21.462 Y194.936 E22.94147
G1 X24.107 Y192.291 E23.04387
G1 X25.210 Y193.394 E23.08659
G1 X153.505 Y65.099 E28.05414
G1 X152.402 Y63.995 E28.09686
G1 X154.990 Y61.407 E28.19708
G1 X159.234 Y50.397 E28.52014
G1 X167.678 Y41.953 E28.84707
G1 X168.076 Y42.351 E28.86249
G1 X159.716 Y50.711 E29.18616
G1 X157.748 Y55.817 E29.33600
G1 X164.401 Y62.471 E29.59361
G1 X169.078 Y60.352 E29.73420
G1 X177.607 Y51.823 E30.06442
G1 X178.005 Y52.221 E30.07983
G1 X169.404 Y60.822 E30.41286
G1 X159.796 Y65.175 E30.70165
G1 X156.689 Y68.283 E30.82196
G1 X155.628 Y67.222 E30.86303
G1 X155.586 Y67.913 F7800.000
G1 X28.024 Y195.475 E33.70214 F1800.000
G1 X29.127 Y196.578 E33.72669
G1 X25.720 Y199.985 E33.80253
G1 X21.297 Y209.746 E33.97117
G1 X12.263 Y218.780 E34.17224
G1 X11.132 Y217.649 E34.19742
G1 X19.960 Y208.820 E34.39392
G1 X22.011 Y204.295 E34.47211
G1 X15.726 Y198.356 E34.60819
G1 X11.046 Y200.198 E34.68734
G1 X2.393 Y208.851 E34.87993
G1 X1.262 Y207.719 E34.90511
G1 X10.150 Y198.831 E35.10294
G1 X21.171 Y194.493 E35.28935
G1 X24.107 Y191.558 E35.35467
G1 X25.210 Y192.661 E35.37923
G1 X152.772 Y65.099 E38.21834
G1 X151.669 Y63.995 E38.24289
G1 X154.546 Y61.118 E38.30693
G1 X158.790 Y50.108 E38.49263
G1 X167.678 Y41.220 E38.69045
G1 X168.809 Y42.351 E38.71563
G1 X160.161 Y51.000 E38.90811
G1 X158.353 Y55.689 E38.98721
G1 X164.514 Y61.850 E39.12433
G1 X168.778 Y59.918 E39.19801
G1 X177.607 Y51.090 E39.39450
G1 X178.738 Y52.221 E39.41968
G1 X169.704 Y61.255 E39.62076
G1 X160.096 Y65.609 E39.78676
G1 X156.689 Y69.016 E39.86259
G1 X155.628 Y67.955 E39.88620
G1 X155.303 Y67.630 F7800.000
G1 X155.244 Y65.441 F7800.000
G1 X25.552 Y195.133 E50.09312 F1200.000
G1 X26.111 Y196.019 F7800.000
G1 X26.825 Y196.732 E50.12345 F1200.000
G1 X26.313 Y197.243 E50.14519
G1 X23.441 Y194.371 E50.26732
G1 X23.953 Y193.860 E50.28906
G1 X24.666 Y194.573 E50.31939
G1 X25.802 Y197.755 F7800.000
G1 X22.930 Y194.883 E50.44152 F1200.000
G1 X22.419 Y195.394 E50.46326
G1 X25.290 Y198.266 E50.58539
G1 X24.779 Y198.777 E50.60714
G1 X21.870 Y195.868 E50.73085
G1 X21.136 Y196.157 E50.75457
G1 X24.327 Y199.348 E50.89026
G1 X24.008 Y200.052 E50.91350
G1 X20.402 Y196.446 E51.06684
G1 X19.668 Y196.735 E51.09055
G1 X23.689 Y200.756 E51.26154
G1 X23.370 Y201.460 E51.28478
G1 X18.934 Y197.024 E51.47341
G1 X18.200 Y197.313 E51.49713
G1 X23.051 Y202.164 E51.70341
G1 X18.261 Y198.397 F7800.000
G1 X17.482 Y197.617 E51.73658 F1200.000
G1 X26.222 Y196.129 F7800.000
G1 X26.810 Y196.718 E51.75936 F1200.000
G1 X156.130 Y66.000 F7800.000
G1 X156.843 Y66.714 E51.78924 F1200.000
G1 X157.347 Y66.210 E51.81035
G1 X154.475 Y63.338 E51.93069
G1 X154.979 Y62.834 E51.95180
G1 X157.851 Y65.706 E52.07214
G1 X158.355 Y65.202 E52.09325
G1 X155.483 Y62.330 E52.21359
G1 X155.938 Y61.778 E52.23480
G1 X158.859 Y64.698 E52.35716
G1 X159.408 Y64.239 E52.37836
G1 X156.219 Y61.050 E52.51198
G1 X156.499 Y60.323 E52.53508
G1 X160.101 Y63.925 E52.68601
G1 X160.795 Y63.611 E52.70857
G1 X156.779 Y59.595 E52.87681
G1 X157.060 Y58.868 E52.89991
G1 X161.488 Y63.296 E53.08547
G1 X162.182 Y62.982 E53.10803
G1 X157.340 Y58.140 E53.31090
G1 X157.636 Y57.428 E53.33374
G1 X162.860 Y62.653 E53.55264
G1 X154.684 Y64.555 F7800.000
G1 X153.971 Y63.842 E53.58252 F1200.000
G1 Z0.700 F7800.000
G1 X155.627 Y66.289 F7800.000
G1 X26.400 Y195.516 E58.58613 F3600.000
G1 X27.462 Y196.578 E58.62727
G1 X24.736 Y199.304 E58.73282
G1 X22.850 Y203.468 E58.85797
G1 X16.597 Y197.558 E59.09353
G1 X21.831 Y195.498 E59.24753
G1 X24.107 Y193.222 E59.33566
G1 X25.169 Y194.285 E59.37680
G1 X154.396 Y65.058 E64.38040
G1 X153.333 Y63.995 E64.42154
G1 X155.555 Y61.774 E64.50755
G1 X157.563 Y56.564 E64.66044
G1 X163.688 Y62.689 E64.89761
G1 X159.415 Y64.625 E65.02604
G1 X156.689 Y67.351 E65.13160
G1 X155.669 Y66.331 E65.17109
G1 X155.627 Y67.220 F7800.000
