; generated by Slic3r 1.2.9 on 2016-04-01 at 17:04:44

; external perimeters extrusion width = 0.40mm
; perimeters extrusion width = 0.68mm
; infill extrusion width = 1.28mm
; solid infill extrusion width = 0.68mm
; top infill extrusion width = 0.68mm

M190 S40 ; set bed temperature
M104 S220 ; set temperature
G28 ; home all axes
G1 Z5 F5000 ; lift nozzle

M109 S220 ; wait for temperature to be reached
G21 ; set units to millimeters
G90 ; use absolute coordinates
M82 ; use absolute distances for extrusion
G92 E0
G1 Z0.400 F7800.000
G1 E-2.00000 F2400.00000
G92 E0
G1 X104.226 Y27.584 F7800.000
G1 E2.00000 F2400.00000
G1 X105.379 Y25.316 E2.30219 F1800.000
G1 X107.177 Y23.515 E2.60437
G1 X109.442 Y22.357 E2.90656
G1 X111.946 Y21.954 E3.20773
G1 X125.946 Y21.912 E4.87045
G1 X127.970 Y21.912 E5.11089
G1 X130.484 Y22.310 E5.41307
G1 X132.751 Y23.464 E5.71526 F1800.000
G1 X134.552 Y25.261 E6.01745
G1 X135.710 Y27.526 E6.31963
G1 X136.113 Y30.052 E6.62340
G1 X136.172 Y249.945 E32.73904
G1 X135.774 Y252.459 E33.04123
G1 X134.621 Y254.726 E33.34341
G1 X132.823 Y256.527 E33.64560
G1 X130.558 Y257.685 E33.94779
G1 X128.030 Y258.088 E34.25183
G1 X112.005 Y258.046 E36.15498
G1 X109.493 Y257.641 E36.45717
G1 X107.229 Y256.480 E36.75936
G1 X105.433 Y254.677 E37.06154
G1 X104.282 Y252.408 E37.36373
G1 X103.887 Y249.906 E37.66463
G1 X103.828 Y30.097 E63.77027
G1 X104.216 Y27.643 E64.06533
G1 X104.939 Y27.702 F7800.000
G1 X106.089 Y25.559 E64.35410 F1800.000
G1 X107.867 Y23.904 E64.64264
G1 X110.085 Y22.912 E64.93119
G1 X111.948 Y22.668 E65.15435
G1 X127.970 Y22.626 E67.05725
G1 X130.367 Y23.024 E67.34580
G1 X132.508 Y24.173 E67.63434 F1800.000
G1 X134.163 Y25.952 E67.92288
G1 X135.155 Y28.169 E68.21143
G1 X135.399 Y30.053 E68.43697
G1 X135.458 Y249.945 E94.55258
G1 X135.061 Y252.342 E94.84113
G1 X133.911 Y254.483 E95.12967
G1 X132.133 Y256.138 E95.41822
G1 X129.915 Y257.130 E95.70676
G1 X128.030 Y257.374 E95.93255
G1 X112.007 Y257.332 E97.83545
G1 X109.612 Y256.927 E98.12400
G1 X107.475 Y255.771 E98.41254
G1 X105.825 Y253.988 E98.70108
G1 X104.839 Y251.767 E98.98963
G1 X104.601 Y249.905 E99.21254
G1 X104.542 Y30.097 E125.31816
G1 X104.929 Y27.761 E125.59934
G1 X105.653 Y27.826 F7800.000
G1 X106.797 Y25.817 E125.87405 F1800.000
G1 X108.553 Y24.317 E126.14827
G1 X110.713 Y23.501 E126.42250
G1 X111.950 Y23.383 E126.57008
G1 X127.970 Y23.340 E128.47272
G1 X130.245 Y23.738 E128.74695
G1 X132.251 Y24.882 E129.02117 F1800.000
G1 X133.750 Y26.638 E129.29540
G1 X134.566 Y28.798 E129.56962
G1 X134.685 Y30.053 E129.71936
G1 X134.744 Y249.945 E155.83495
G1 X134.347 Y252.220 E156.10917
G1 X133.203 Y254.226 E156.38340
G1 X131.447 Y255.725 E156.65762
G1 X129.287 Y256.541 E156.93185
G1 X128.030 Y256.660 E157.08182
G1 X112.009 Y256.617 E158.98446
G1 X109.736 Y256.214 E159.25869
G1 X107.734 Y255.063 E159.53291
G1 X106.240 Y253.303 E159.80714
G1 X105.430 Y251.141 E160.08136
G1 X105.315 Y249.905 E160.22871
G1 X105.256 Y30.097 E186.33431
G1 X105.642 Y27.885 E186.60090
G1 E184.60090 F2400.00000
G92 E0
G1 X122.427 Y223.750 F7800.000
G1 E2.00000 F2400.00000
G1 X122.427 Y227.236 E2.41406 F1800.000
G1 X123.843 Y230.999 E2.89154
G1 X116.585 Y231.204 E3.75387
G1 X118.583 Y226.611 E4.34872
G1 X118.583 Y223.750 E4.68856
G1 X122.367 Y223.750 E5.13789
G1 X122.427 Y56.093 F7800.000
G1 X118.583 Y56.093 E5.59435 F1800.000
G1 X118.583 Y53.307 E5.92520
G1 X116.562 Y48.750 E6.51735
G1 X123.878 Y48.750 E7.38633
G1 X122.427 Y52.607 E7.87577
G1 X122.427 Y56.033 E8.28270
G1 X121.379 Y56.807 F7800.000
G1 X121.379 Y223.036 E28.02484 F1800.000
G1 X123.141 Y223.036 E28.23414
G1 X123.141 Y227.106 E28.71758
G1 X124.864 Y231.684 E29.29856
G1 X115.482 Y231.950 E30.41328
G1 X117.869 Y226.463 E31.12395
G1 X117.869 Y223.036 E31.53096
G1 X119.632 Y223.036 E31.74026
G1 X119.632 Y56.807 E51.48239
G1 X117.869 Y56.807 E51.69169
G1 X117.869 Y53.459 E52.08940
G1 X115.464 Y48.036 E52.79399
G1 X124.910 Y48.036 E53.91592
G1 X123.141 Y52.737 E54.51248
G1 X123.141 Y56.807 E54.99593
G1 X121.439 Y56.807 E55.19810
G1 X122.093 Y57.521 F7800.000
G1 X122.093 Y222.321 E74.77060 F1800.000
G1 X123.855 Y222.321 E74.97990
G1 X123.855 Y226.976 E75.53273
G1 X127.630 Y237.005 E76.80538
G1 X127.630 Y249.545 E78.29472
G1 X126.430 Y249.545 E78.43724
G1 X126.430 Y237.224 E79.90064
G1 X124.616 Y232.406 E80.51199
G1 X115.704 Y232.658 E81.57095
G1 X113.630 Y237.424 E82.18832
G1 X113.630 Y249.503 E83.62288
G1 X112.430 Y249.503 E83.76540
G1 X112.430 Y237.175 E85.22962
G1 X117.155 Y226.314 E86.63629
G1 X117.155 Y222.321 E87.11047
G1 X118.917 Y222.321 E87.31977
G1 X118.917 Y57.521 E106.89226
G1 X117.155 Y57.521 E107.10157
G1 X117.155 Y53.610 E107.56612
G1 X112.370 Y42.824 E108.96750
G1 X112.370 Y30.497 E110.43154
G1 X113.570 Y30.497 E110.57406
G1 X113.570 Y42.570 E112.00791
G1 X115.678 Y47.321 E112.62529
G1 X124.660 Y47.321 E113.69199
G1 X126.370 Y42.776 E114.26874
G1 X126.370 Y30.455 E115.73214
G1 X127.570 Y30.455 E115.87466
G1 X127.570 Y42.995 E117.36399
G1 X123.855 Y52.867 E118.61671
G1 X123.855 Y57.521 E119.16954
G1 X122.153 Y57.521 E119.37171
G1 X121.693 Y57.521 F7800.000
G1 X120.505 Y56.450 F7800.000
G1 X120.505 Y223.393 E161.40877 F1800.000
G1 X119.190 Y224.357 F7800.000
G1 X121.820 Y224.357 E161.74935 F1800.000
G1 X121.820 Y227.347 E162.13662
G1 X122.975 Y230.416 E162.56144
G1 X117.523 Y230.570 E163.26794
G1 X119.190 Y226.738 E163.80933
G1 X119.190 Y224.417 E164.10994
G1 X119.969 Y225.136 F7800.000
G1 X121.041 Y225.136 E164.24874 F1800.000
G1 X121.041 Y227.488 E164.55348
G1 X121.861 Y229.668 E164.85520
G1 X118.726 Y229.757 E165.26148
G1 X119.969 Y226.900 E165.66510
G1 X119.969 Y225.196 E165.88582
G1 X125.118 Y232.035 F7800.000
G1 X127.028 Y237.115 E167.25246 F1800.000
G1 X127.030 Y249.188 E170.29265
G1 E168.29265 F2400.00000
G92 E0
G1 X113.030 Y249.146 F7800.000
G1 E2.00000 F2400.00000
G1 X113.032 Y237.300 E4.98295 F1800.000
G1 X115.198 Y232.315 E6.35164
G1 E4.35164 F2400.00000
G92 E0
G1 X117.495 Y49.357 F7800.000
G1 E2.00000 F2400.00000
G1 X123.001 Y49.357 E2.72032 F1800.000
G1 X121.820 Y52.496 E3.15914
G1 X121.820 Y55.486 E3.55026
G1 X119.190 Y55.486 E3.89421
G1 X119.190 Y53.179 E4.19605
G1 X117.519 Y49.412 E4.73516
G1 X118.704 Y50.143 F7800.000
G1 X121.865 Y50.143 E5.14858 F1800.000
G1 X121.033 Y52.353 E5.45746
G1 X121.033 Y54.699 E5.76439
G1 X119.977 Y54.699 E5.90254
G1 X119.977 Y53.012 E6.12328
G1 X118.729 Y50.198 E6.52597
G1 X115.180 Y47.679 F7800.000
G1 X112.973 Y42.696 E7.89812 F1800.000
G1 X112.970 Y30.854 E10.88013
G1 E8.88013 F2400.00000
G92 E0
G1 X126.970 Y30.812 F7800.000
G1 E2.00000 F2400.00000
G1 X126.968 Y42.885 E5.04018 F1800.000
G1 X125.167 Y47.679 E6.32962
G1 Z0.500 F7800.000
G1 X121.260 Y56.544 F7800.000
G1 X121.260 Y223.299 E10.89516 F3600.000
G1 X122.878 Y223.299 E10.93946
G1 X122.878 Y227.154 E11.04502
G1 X124.488 Y231.432 E11.17017
G1 X115.888 Y231.675 E11.40572
G1 X118.132 Y226.517 E11.55973
G1 X118.132 Y223.299 E11.64785
G1 X119.750 Y223.299 E11.69215
G1 X119.750 Y56.544 E16.25770
G1 X118.132 Y56.544 E16.30199
G1 X118.132 Y53.403 E16.38800
G1 X115.868 Y48.299 E16.54089
G1 X124.530 Y48.299 E16.77806
G1 X122.878 Y52.689 E16.90649
G1 X122.878 Y56.544 E17.01205
G1 X121.320 Y56.544 E17.05471
G1 X121.919 Y57.203 F7800.000
G1 X121.919 Y222.640 E21.58419 F3600.000
G1 X123.537 Y222.640 E21.62849
G1 X123.537 Y227.034 E21.74880
G1 X127.311 Y237.063 E22.04219
G1 X127.311 Y249.227 E22.37521
G1 X126.748 Y249.227 E22.39063
G1 X126.748 Y237.166 E22.72085
G1 X124.835 Y232.081 E22.86959
G1 X115.492 Y232.345 E23.12548
G1 X113.311 Y237.358 E23.27515
G1 X113.311 Y249.185 E23.59896
G1 X112.748 Y249.185 E23.61437
G1 X112.748 Y237.241 E23.94138
G1 X117.474 Y226.380 E24.26566
G1 X117.474 Y222.640 E24.36806
G1 X119.092 Y222.640 E24.41236
G1 X119.092 Y57.203 E28.94185
G1 X117.474 Y57.203 E28.98615
G1 X117.474 Y53.542 E29.08637
G1 X112.689 Y42.756 E29.40943
G1 X112.689 Y30.815 E29.73636
G1 X113.252 Y30.815 E29.75177
G1 X113.252 Y42.637 E30.07545
G1 X115.471 Y47.640 E30.22529
G1 X124.880 Y47.640 E30.48290
G1 X126.689 Y42.834 E30.62349
G1 X126.689 Y30.773 E30.95371
G1 X127.252 Y30.773 E30.96912
G1 X127.252 Y42.937 E31.30215
G1 X123.537 Y52.809 E31.59094
G1 X123.537 Y57.203 E31.71125
G1 X121.979 Y57.203 E31.75390
G1 X122.437 Y57.721 F7800.000
G1 X122.437 Y222.121 E34.34120 F1800.000
G1 X124.055 Y222.121 E34.36667
G1 X124.055 Y226.940 E34.44250
G1 X127.830 Y236.969 E34.61114
G1 X127.830 Y249.745 E34.81222
G1 X126.230 Y249.745 E34.83740
G1 X126.230 Y237.260 E35.03389
G1 X124.479 Y232.610 E35.11209
G1 X115.836 Y232.854 E35.24817
G1 X113.830 Y237.466 E35.32732
G1 X113.830 Y249.703 E35.51991
G1 X112.230 Y249.703 E35.54509
G1 X112.230 Y237.133 E35.74292
G1 X116.955 Y226.272 E35.92932
G1 X116.955 Y222.121 E35.99465
G1 X118.573 Y222.121 E36.02011
G1 X118.573 Y57.721 E38.60741
G1 X116.955 Y57.721 E38.63288
G1 X116.955 Y53.652 E38.69692
G1 X112.170 Y42.866 E38.88262
G1 X112.170 Y30.297 E39.08044
G1 X113.770 Y30.297 E39.10562
G1 X113.770 Y42.527 E39.29810
G1 X115.808 Y47.121 E39.37720
G1 X124.521 Y47.121 E39.51432
G1 X126.170 Y42.740 E39.58800
G1 X126.170 Y30.255 E39.78449
G1 X127.770 Y30.255 E39.80967
G1 X127.770 Y43.031 E40.01075
G1 X124.055 Y52.903 E40.17675
G1 X124.055 Y57.721 E40.25258
G1 X122.497 Y57.721 E40.27710
G1 X122.037 Y57.721 F7800.000
G1 X122.159 Y56.144 F7800.000
G1 X122.478 Y55.825 E40.29009 F1200.000
G1 X121.510 Y55.815 E40.31793
G1 X122.478 Y54.847 E40.35731
G1 X122.478 Y53.869 E40.38544
G1 X120.532 Y55.815 E40.46460
G1 X119.553 Y55.815 E40.49273
G1 X122.478 Y52.890 E40.61166
G1 X122.803 Y51.587 E40.65029
G1 X118.532 Y55.858 E40.82397
G1 X118.532 Y54.880 E40.85210
G1 X123.393 Y50.019 E41.04979
G1 X123.735 Y48.699 E41.08901
G1 X118.532 Y53.902 E41.30061
G1 X118.377 Y53.079 E41.32469
G1 X122.757 Y48.699 E41.50282
G1 X121.779 Y48.699 E41.53095
G1 X118.077 Y52.401 E41.68152
G1 X117.776 Y51.723 E41.70283
G1 X120.801 Y48.699 E41.82585
G1 X119.823 Y48.699 E41.85398
G1 X117.475 Y51.046 E41.94944
G1 X117.175 Y50.368 E41.97075
G1 X118.845 Y48.699 E42.03865
G1 X117.866 Y48.699 E42.06678
G1 X116.874 Y49.691 E42.10713
G1 X116.574 Y49.013 E42.12845
G1 X116.888 Y48.699 E42.14124
G1 X120.505 Y56.215 F7800.000
G1 X120.505 Y223.628 E51.45776 F1200.000
G1 X118.852 Y223.699 F7800.000
G1 X118.532 Y224.018 E51.47107 F1200.000
G1 X118.532 Y225.021 E51.50063
G1 X119.525 Y224.028 E51.54201
G1 X120.528 Y224.028 E51.57157
G1 X118.532 Y226.023 E51.65476
G1 X118.335 Y227.224 E51.69062
G1 X121.530 Y224.028 E51.82385
G1 X122.478 Y224.083 E51.85183
G1 X117.562 Y228.999 E52.05675
G1 X116.790 Y230.774 F7800.000
G1 X122.478 Y225.086 E52.29388 F1200.000
G1 X122.478 Y226.088 E52.32343
G1 X117.336 Y231.230 E52.53777
G1 X118.368 Y231.201 E52.56820
G1 X122.478 Y227.091 E52.73952
G1 X122.746 Y227.825 E52.76257
G1 X119.400 Y231.172 E52.90206
G1 X120.432 Y231.142 E52.93249
G1 X123.020 Y228.554 E53.04040
G1 X123.295 Y229.282 E53.06335
G1 X121.464 Y231.113 E53.13967
G1 X122.496 Y231.084 E53.17010
G1 X123.569 Y230.011 E53.21484
G1 X123.843 Y230.739 E53.23778
G1 X123.528 Y231.055 E53.25093
G1 Z0.600 F7800.000
G1 E51.25093 F2400.00000
G92 E0
G1 X121.318 Y56.544 F7800.000
G1 E2.00000 F2400.00000
G1 X121.318 Y223.299 E6.56555 F3600.000
G1 X122.878 Y223.299 E6.60826
G1 X122.878 Y227.154 E6.71382
G1 X124.488 Y231.432 E6.83897
G1 X115.888 Y231.675 E7.07453
G1 X118.132 Y226.517 E7.22853
G1 X118.132 Y223.299 E7.31666
G1 X119.692 Y223.299 E7.35937
G1 X119.692 Y56.544 E11.92492
G1 X118.132 Y56.544 E11.96764
G1 X118.132 Y53.403 E12.05365
G1 X115.868 Y48.299 E12.20653
G1 X124.530 Y48.299 E12.44370
G1 X122.878 Y52.689 E12.57214
G1 X122.878 Y56.544 E12.67770
G1 X121.378 Y56.544 E12.71877
G1 X121.976 Y57.203 F7800.000
G1 X121.976 Y222.640 E17.24826 F3600.000
G1 X123.537 Y222.640 E17.29097
G1 X123.537 Y227.034 E17.41128
G1 X127.311 Y237.063 E17.70467
G1 X127.311 Y249.227 E18.03769
G1 X126.748 Y249.227 E18.05311
G1 X126.748 Y237.166 E18.38333
G1 X124.835 Y232.081 E18.53207
G1 X115.492 Y232.345 E18.78796
G1 X113.311 Y237.358 E18.93763
G1 X113.311 Y249.185 E19.26144
G1 X112.748 Y249.185 E19.27685
G1 X112.748 Y237.241 E19.60386
G1 X117.474 Y226.380 E19.92814
G1 X117.474 Y222.640 E20.03054
G1 X119.034 Y222.640 E20.07326
G1 X119.034 Y57.203 E24.60275
G1 X117.474 Y57.203 E24.64546
G1 X117.474 Y53.542 E24.74568
G1 X112.689 Y42.756 E25.06874
G1 X112.689 Y30.815 E25.39568
G1 X113.252 Y30.815 E25.41109
G1 X113.252 Y42.637 E25.73477
G1 X115.471 Y47.640 E25.88461
G1 X124.880 Y47.640 E26.14222
G1 X126.689 Y42.834 E26.28280
G1 X126.689 Y30.773 E26.61303
G1 X127.252 Y30.773 E26.62844
G1 X127.252 Y42.937 E26.96147
G1 X123.537 Y52.809 E27.25026
G1 X123.537 Y57.203 E27.37056
G1 X122.036 Y57.203 E27.41164
G1 X122.495 Y57.721 F7800.000
G1 X122.495 Y222.121 E29.99894 F1800.000
G1 X124.055 Y222.121 E30.02350
G1 X124.055 Y226.940 E30.09933
G1 X127.830 Y236.969 E30.26797
G1 X127.830 Y249.745 E30.46905
G1 X126.230 Y249.745 E30.49423
G1 X126.230 Y237.260 E30.69072
G1 X124.479 Y232.610 E30.76891
G1 X115.836 Y232.854 E30.90500
G1 X113.830 Y237.466 E30.98415
G1 X113.830 Y249.703 E31.17674
G1 X112.230 Y249.703 E31.20192
G1 X112.230 Y237.133 E31.39975
G1 X116.955 Y226.272 E31.58615
G1 X116.955 Y222.121 E31.65148
G1 X118.515 Y222.121 E31.67603
G1 X118.515 Y57.721 E34.26334
G1 X116.955 Y57.721 E34.28789
G1 X116.955 Y53.652 E34.35193
G1 X112.170 Y42.866 E34.53763
G1 X112.170 Y30.297 E34.73545
G1 X113.770 Y30.297 E34.76063
G1 X113.770 Y42.527 E34.95311
G1 X115.808 Y47.121 E35.03221
G1 X124.521 Y47.121 E35.16933
G1 X126.170 Y42.740 E35.24301
G1 X126.170 Y30.255 E35.43950
G1 X127.770 Y30.255 E35.46468
G1 X127.770 Y43.031 E35.66576
G1 X124.055 Y52.903 E35.83176
G1 X124.055 Y57.721 E35.90759
G1 X122.555 Y57.721 E35.93120
G1 X122.095 Y57.721 F7800.000
G1 X120.505 Y56.215 F7800.000
G1 X120.505 Y223.628 E45.24772 F1200.000
G1 X122.478 Y224.018 F7800.000
G1 X122.159 Y223.699 E45.26079 F1200.000
G1 X121.503 Y224.028 E45.28201
G1 X122.478 Y225.002 E45.32190
G1 X122.478 Y225.987 E45.35040
G1 X120.519 Y224.028 E45.43058
G1 X119.534 Y224.028 E45.45907
G1 X122.478 Y226.971 E45.57955
G1 X122.818 Y228.296 E45.61913
G1 X118.532 Y224.010 E45.79456
G1 X118.532 Y224.994 E45.82305
G1 X123.412 Y229.875 E46.02279
G1 X123.614 Y231.060 E46.05760
G1 X118.532 Y225.979 E46.26558
G1 X118.389 Y226.820 E46.29027
G1 X122.656 Y231.088 E46.46494
G1 X121.699 Y231.115 E46.49266
G1 X118.090 Y227.506 E46.64036
G1 X117.792 Y228.192 E46.66201
G1 X120.741 Y231.142 E46.78274
G1 X119.784 Y231.169 E46.81046
G1 X117.493 Y228.878 E46.90423
G1 X117.195 Y229.564 E46.92588
G1 X118.827 Y231.196 E46.99267
G1 X117.869 Y231.223 E47.02039
G1 X116.896 Y230.250 E47.06021
G1 X116.598 Y230.936 E47.08186
G1 X116.912 Y231.250 E47.09472
G1 E45.09472 F2400.00000
G92 E0
G1 X118.852 Y56.144 F7800.000
G1 E2.00000 F2400.00000
G1 X118.532 Y55.825 E2.01242 F1200.000
G1 X118.532 Y54.890 E2.03812
G1 X119.457 Y55.815 E2.07409
G1 X120.393 Y55.815 E2.09980
G1 X118.532 Y53.955 E2.17212
G1 X118.429 Y52.917 E2.20079
G1 X121.328 Y55.815 E2.31347
G1 X122.478 Y56.030 E2.34564
G1 X117.684 Y51.236 E2.53203
G1 X116.938 Y49.555 F7800.000
G1 X122.478 Y55.095 E2.74740 F1200.000
G1 X122.478 Y54.160 E2.77310
G1 X117.016 Y48.699 E2.98543
G1 X117.951 Y48.699 E3.01113
G1 X122.478 Y53.225 E3.18711
G1 X122.598 Y52.410 E3.20975
G1 X118.887 Y48.699 E3.35405
G1 X119.822 Y48.699 E3.37976
G1 X122.854 Y51.731 E3.49765
G1 X123.110 Y51.052 E3.51760
G1 X120.757 Y48.699 E3.60908
G1 X121.692 Y48.699 E3.63479
G1 X123.365 Y50.372 E3.69986
G1 X123.621 Y49.693 E3.71981
G1 X122.627 Y48.699 E3.75847
G1 X123.562 Y48.699 E3.78417
G1 X123.877 Y49.013 E3.79641
G1 Z0.700 F7800.000
