; generated by Slic3r 1.2.9 on 2016-06-30 at 20:33:15

; external perimeters extrusion width = 0.30mm
; perimeters extrusion width = 0.40mm
; infill extrusion width = 0.40mm
; solid infill extrusion width = 0.40mm
; top infill extrusion width = 0.40mm

M107
M190 S60 ; set bed temperature
M104 S220 ; set temperature
G28 ; home all axes
G1 Z5 F5000 ; lift nozzle

M109 S220 ; wait for temperature to be reached
G21 ; set units to millimeters
G90 ; use absolute coordinates
M82 ; use absolute distances for extrusion
G92 E0
G1 Z-0.200 F7800.000
G1 E-2.00000 F2400.00000
G92 E0
G1 X97.941 Y101.937 F7800.000
G1 E2.00000 F2400.00000
G1 X100.197 Y99.948 E2.18078 F1800.000
G1 X106.197 Y96.484 E2.59735
G1 X108.497 Y95.615 E2.74518
G1 X110.954 Y95.525 E2.89302
G1 X113.803 Y96.484 E3.07378
G1 X119.803 Y99.948 E3.49034 F1800.000
G1 X121.706 Y101.506 E3.63818
G1 X123.013 Y103.588 E3.78601
G1 X123.607 Y106.536 E3.96679
G1 X123.607 Y113.464 E4.38335
G1 X123.209 Y115.891 E4.53118
G1 X122.059 Y118.063 E4.67901
G1 X119.803 Y120.052 E4.85980
G1 X113.803 Y123.516 E5.27635
G1 X111.503 Y124.385 E5.42419
G1 X109.046 Y124.475 E5.57202
G1 X106.197 Y123.516 E5.75280
G1 X100.197 Y120.052 E6.16936
G1 X98.294 Y118.494 E6.31719
G1 X96.987 Y116.412 E6.46502
G1 X96.393 Y113.464 E6.64580
G1 X96.393 Y106.536 E7.06236
G1 X96.791 Y104.109 E7.21019
G1 X97.920 Y101.976 E7.35532
G1 X98.428 Y102.206 F7800.000
G1 X98.473 Y102.125 E7.36086 F1800.000
G1 X100.464 Y100.412 E7.51881
G1 X106.465 Y96.948 E7.93538
G1 X108.687 Y96.124 E8.07788
G1 X111.056 Y96.080 E8.22037
G1 X113.536 Y96.948 E8.37831
G1 X119.536 Y100.412 E8.79488 F1800.000
G1 X121.361 Y101.924 E8.93737
G1 X122.583 Y103.954 E9.07987
G1 X123.071 Y106.536 E9.23783
G1 X123.071 Y113.464 E9.65438
G1 X122.674 Y115.801 E9.79688
G1 X121.527 Y117.875 E9.93938
G1 X119.536 Y119.588 E10.09733
G1 X113.536 Y123.052 E10.51389
G1 X111.314 Y123.876 E10.65639
G1 X108.944 Y123.920 E10.79889
G1 X106.464 Y123.052 E10.95684
G1 X100.464 Y119.588 E11.37340
G1 X98.639 Y118.076 E11.51589
G1 X97.417 Y116.046 E11.65839
G1 X96.929 Y113.464 E11.81635
G1 X96.929 Y106.536 E12.23291
G1 X97.326 Y104.199 E12.37540
G1 X98.407 Y102.245 E12.50966
G1 X98.910 Y102.485 F7800.000
G1 X99.004 Y102.322 E12.52096 F1800.000
G1 X100.732 Y100.876 E12.65647
G1 X106.732 Y97.412 E13.07303
G1 X108.873 Y96.634 E13.20999
G1 X111.151 Y96.638 E13.34694
G1 X113.268 Y97.412 E13.48243 F1800.000
G1 X119.268 Y100.876 E13.89900
G1 X121.012 Y102.341 E14.03595
G1 X122.147 Y104.316 E14.17290
G1 X122.536 Y106.536 E14.30841
G1 X122.536 Y113.464 E14.72497
G1 X122.139 Y115.707 E14.86192
G1 X120.996 Y117.678 E14.99887
G1 X119.268 Y119.124 E15.13438
G1 X113.268 Y122.588 E15.55094
G1 X111.127 Y123.366 E15.68789
G1 X108.849 Y123.362 E15.82485
G1 X106.732 Y122.588 E15.96035
G1 X100.732 Y119.124 E16.37691
G1 X98.988 Y117.659 E16.51386
G1 X97.853 Y115.684 E16.65082
G1 X97.464 Y113.464 E16.78632
G1 X97.464 Y106.536 E17.20288
G1 X97.861 Y104.293 E17.33983
G1 X98.887 Y102.524 E17.46278
G1 E15.46278 F2400.00000
G92 E0
G1 X112.784 Y112.784 F7800.000
G1 E2.00000 F2400.00000
G1 X112.397 Y113.124 E2.03097 F1800.000
G1 X111.969 Y113.410 E2.06193
G1 X111.507 Y113.638 E2.09290
G1 X111.019 Y113.803 E2.12387
G1 X110.514 Y113.904 E2.15483
G1 X110.000 Y113.937 E2.18580
G1 X109.486 Y113.904 E2.21677
G1 X108.981 Y113.803 E2.24773
G1 X108.464 Y113.628 E2.28056
G1 X108.028 Y113.408 E2.30992
G1 X107.603 Y113.124 E2.34065
G1 X107.216 Y112.784 E2.37161
G1 X106.876 Y112.397 E2.40258
G1 X106.590 Y111.969 E2.43355
G1 X106.362 Y111.507 E2.46451
G1 X106.197 Y111.019 E2.49548
G1 X106.098 Y110.524 E2.52586
G1 X106.063 Y110.001 E2.55734
G1 X106.096 Y109.486 E2.58838
G1 X106.197 Y108.981 E2.61934
G1 X106.362 Y108.493 E2.65031
G1 X106.590 Y108.031 E2.68128
G1 X106.876 Y107.603 E2.71224
G1 X107.216 Y107.216 E2.74321
G1 X107.603 Y106.876 E2.77418
G1 X108.031 Y106.590 E2.80514
G1 X108.493 Y106.362 E2.83611
G1 X108.981 Y106.197 E2.86708
G1 X109.486 Y106.096 E2.89804
G1 X109.990 Y106.063 E2.92842 F1800.000
G1 X110.513 Y106.096 E2.95990
G1 X111.019 Y106.197 E2.99094
G1 X111.536 Y106.372 E3.02377
G1 X111.972 Y106.592 E3.05312
G1 X112.397 Y106.876 E3.08385
G1 X112.784 Y107.216 E3.11482
G1 X113.124 Y107.603 E3.14579
G1 X113.410 Y108.031 E3.17675
G1 X113.638 Y108.493 E3.20772
G1 X113.803 Y108.981 E3.23869
G1 X113.904 Y109.486 E3.26965
G1 X113.937 Y110.000 E3.30062
G1 X113.904 Y110.514 E3.33159
G1 X113.803 Y111.019 E3.36255
G1 X113.638 Y111.507 E3.39352
G1 X113.410 Y111.969 E3.42449
G1 X113.124 Y112.397 E3.45545
G1 X112.814 Y112.750 E3.48371
G1 X112.405 Y112.405 F7800.000
G1 X112.070 Y112.698 E3.51046 F1800.000
G1 X111.700 Y112.945 E3.53720
G1 X111.301 Y113.142 E3.56395
G1 X110.880 Y113.285 E3.59069
G1 X110.444 Y113.372 E3.61744
G1 X110.000 Y113.401 E3.64418
G1 X109.556 Y113.372 E3.67093
G1 X109.120 Y113.285 E3.69767
G1 X108.672 Y113.133 E3.72613
G1 X108.299 Y112.944 E3.75126
G1 X107.930 Y112.698 E3.77792
G1 X107.595 Y112.405 E3.80467
G1 X107.302 Y112.070 E3.83141
G1 X107.055 Y111.700 E3.85816
G1 X106.858 Y111.301 E3.88490
G1 X106.715 Y110.880 E3.91165
G1 X106.630 Y110.453 E3.93785
G1 X106.599 Y110.000 E3.96511
G1 X106.628 Y109.556 E3.99188
G1 X106.715 Y109.120 E4.01863
G1 X106.858 Y108.699 E4.04537
G1 X107.055 Y108.300 E4.07212
G1 X107.302 Y107.930 E4.09886
G1 X107.595 Y107.595 E4.12561
G1 X107.930 Y107.302 E4.15235
G1 X108.300 Y107.055 E4.17910
G1 X108.699 Y106.858 E4.20584
G1 X109.120 Y106.715 E4.23259
G1 X109.556 Y106.628 E4.25933
G1 X109.991 Y106.600 E4.28553 F1800.000
G1 X110.443 Y106.628 E4.31279
G1 X110.880 Y106.715 E4.33956
G1 X111.328 Y106.867 E4.36802
G1 X111.701 Y107.056 E4.39315
G1 X112.070 Y107.302 E4.41981
G1 X112.405 Y107.595 E4.44656
G1 X112.698 Y107.930 E4.47330
G1 X112.945 Y108.300 E4.50005
G1 X113.142 Y108.699 E4.52679
G1 X113.285 Y109.120 E4.55354
G1 X113.372 Y109.556 E4.58028
G1 X113.401 Y110.000 E4.60703
G1 X113.372 Y110.444 E4.63377
G1 X113.285 Y110.880 E4.66052
G1 X113.142 Y111.301 E4.68726
G1 X112.945 Y111.700 E4.71401
G1 X112.698 Y112.070 E4.74075
G1 X112.434 Y112.371 E4.76479
G1 X112.476 Y112.696 F7800.000
G1 E2.76479 F2400.00000
G92 E0
G1 X111.274 Y105.701 F7800.000
G1 E2.00000 F2400.00000
G1 X110.582 Y105.564 E2.04241 F1800.000
G1 X109.989 Y105.527 E2.07812
G1 X109.416 Y105.564 E2.11267
G1 X108.726 Y105.701 E2.15497
G1 X108.630 Y105.446 E2.17136
G1 X110.000 Y104.655 E2.26648
G1 X111.370 Y105.446 E2.36160
G1 X111.290 Y105.659 E2.37528
G1 X113.086 Y106.747 F7800.000
G1 X113.259 Y106.537 E2.39168 F1800.000
G1 X114.629 Y107.328 E2.48679
G1 X114.629 Y108.910 E2.58191
G1 X114.360 Y108.954 E2.59831
G1 X114.134 Y108.288 E2.64060
G1 X113.875 Y107.763 E2.67579
G1 X113.550 Y107.276 E2.71098
G1 X113.115 Y106.781 E2.75057
G1 X114.360 Y111.046 F7800.000
G1 X114.629 Y111.090 E2.76697 F1800.000
G1 X114.629 Y112.672 E2.86208
G1 X113.259 Y113.463 E2.95720
G1 X113.086 Y113.253 E2.97359
G1 X113.550 Y112.724 E3.01589
G1 X113.875 Y112.237 E3.05108
G1 X114.134 Y111.712 E3.08627
G1 X114.345 Y111.089 E3.12586
G1 X111.274 Y114.299 F7800.000
G1 X111.370 Y114.554 E3.14226 F1800.000
G1 X110.000 Y115.345 E3.23737
G1 X108.630 Y114.554 E3.33249
G1 X108.726 Y114.299 E3.34888
G1 X109.416 Y114.436 E3.39118
G1 X110.000 Y114.474 E3.42637
G1 X110.584 Y114.436 E3.46156
G1 X111.230 Y114.307 E3.50115
G1 X106.914 Y113.253 F7800.000
G1 X106.741 Y113.463 E3.51755 F1800.000
G1 X105.371 Y112.672 E3.61266
G1 X105.371 Y111.090 E3.70778
G1 X105.640 Y111.046 E3.72417
G1 X105.866 Y111.712 E3.76647
G1 X106.125 Y112.237 E3.80166
G1 X106.450 Y112.724 E3.83685
G1 X106.885 Y113.219 E3.87644
G1 X105.640 Y108.954 F7800.000
G1 X105.371 Y108.910 E3.89283 F1800.000
G1 X105.371 Y107.328 E3.98795
G1 X106.741 Y106.537 E4.08307
G1 X106.914 Y106.747 E4.09946
G1 X106.450 Y107.276 E4.14176
G1 X106.125 Y107.763 E4.17695
G1 X105.866 Y108.288 E4.21214
G1 X105.655 Y108.911 E4.25173
G1 X104.836 Y107.018 F7800.000
G1 X110.000 Y104.037 E4.61027 F1800.000
G1 X115.164 Y107.018 E4.96882
G1 X115.164 Y112.982 E5.32736
G1 X110.000 Y115.963 E5.68590
G1 X104.836 Y112.982 E6.04445
G1 X104.836 Y107.063 E6.40028
G1 X104.300 Y106.709 F7800.000
G1 X110.000 Y103.418 E6.79601 F1800.000
G1 X115.700 Y106.709 E7.19174
G1 X115.700 Y113.291 E7.58747
G1 X110.000 Y116.582 E7.98320
G1 X104.300 Y113.291 E8.37893
G1 X104.300 Y106.754 E8.77195
G1 X104.595 Y106.761 F7800.000
G1 X105.475 Y109.198 F7800.000
G1 X105.449 Y109.979 E8.87154 F1800.000
G1 X105.476 Y110.802 E8.97649
G1 X107.043 Y113.518 F7800.000
G1 X107.737 Y113.948 E9.08058 F1800.000
G1 X108.431 Y114.323 E9.18110
G1 X111.568 Y114.320 F7800.000
G1 X112.256 Y113.952 E9.28049 F1800.000
G1 X112.957 Y113.518 E9.38565
G1 X114.525 Y110.802 F7800.000
G1 X114.551 Y110.023 E9.48505 F1800.000
G1 X114.525 Y109.198 E9.59020
G1 X112.957 Y106.482 F7800.000
G1 X112.263 Y106.052 E9.69429 F1800.000
G1 X111.569 Y105.677 E9.79481
G1 X108.432 Y105.680 F7800.000
G1 X107.744 Y106.048 E9.89421 F1800.000
G1 X107.043 Y106.482 E9.99936
G1 Z0.000 F7800.000
G1 X106.613 Y108.045 F7800.000
G1 X106.883 Y107.641 E10.01220 F900.000
G1 X107.233 Y107.237 E10.02634
G1 X107.619 Y106.898 E10.03994
G1 X108.045 Y106.613 E10.05347
G1 X108.504 Y106.387 E10.06700
G1 X108.988 Y106.223 E10.08053
G1 X109.490 Y106.123 E10.09406
G1 X109.974 Y106.091 E10.10690 F900.000
G1 X110.508 Y106.122 E10.12104
G1 X111.012 Y106.223 E10.13464
G1 X111.496 Y106.387 E10.14817
G1 X111.955 Y106.613 E10.16170
G1 X112.381 Y106.898 E10.17523
G1 X112.765 Y107.235 E10.18876
G1 X113.102 Y107.619 E10.20229
G1 X113.387 Y108.045 E10.21581
G1 X113.613 Y108.504 E10.22934
G1 X113.777 Y108.988 E10.24287
G1 X113.877 Y109.490 E10.25640
G1 X113.910 Y110.000 E10.26993
G1 X113.877 Y110.510 E10.28346
G1 X113.777 Y111.012 E10.29699
G1 X113.613 Y111.496 E10.31052
G1 X113.387 Y111.955 E10.32405
G1 X113.102 Y112.381 E10.33757
G1 X112.765 Y112.765 E10.35110
G1 X112.381 Y113.102 E10.36463
G1 X111.955 Y113.387 E10.37816
G1 X111.496 Y113.613 E10.39169
G1 X111.012 Y113.777 E10.40522
G1 X110.510 Y113.877 E10.41875
G1 X110.000 Y113.910 E10.43228
G1 X109.490 Y113.877 E10.44580
G1 X108.988 Y113.777 E10.45933
G1 X108.504 Y113.613 E10.47286
G1 X108.045 Y113.387 E10.48639
G1 X107.619 Y113.102 E10.49992
G1 X107.235 Y112.765 E10.51345
G1 X106.898 Y112.381 E10.52698
G1 X106.613 Y111.955 E10.54051
G1 X106.387 Y111.496 E10.55404
G1 X106.223 Y111.012 E10.56756
G1 X106.128 Y110.536 E10.58040
G1 X106.089 Y110.003 E10.59454
G1 X106.123 Y109.490 E10.60815
G1 X106.223 Y108.988 E10.62167
G1 X106.387 Y108.504 E10.63520
G1 X106.594 Y108.085 E10.64754
G1 X106.920 Y108.222 F7800.000
G1 X107.165 Y107.856 E10.65919 F900.000
G1 X107.484 Y107.486 E10.67210
G1 X107.835 Y107.179 E10.68445
G1 X108.222 Y106.920 E10.69675
G1 X108.639 Y106.714 E10.70905
G1 X109.080 Y106.565 E10.72136
G1 X109.536 Y106.474 E10.73366
G1 X109.975 Y106.445 E10.74531 F900.000
G1 X110.463 Y106.474 E10.75822
G1 X110.920 Y106.565 E10.77057
G1 X111.361 Y106.714 E10.78287
G1 X111.778 Y106.920 E10.79517
G1 X112.165 Y107.179 E10.80748
G1 X112.515 Y107.485 E10.81978
G1 X112.821 Y107.835 E10.83208
G1 X113.080 Y108.222 E10.84439
G1 X113.286 Y108.639 E10.85669
G1 X113.435 Y109.080 E10.86899
G1 X113.526 Y109.536 E10.88130
G1 X113.556 Y110.000 E10.89360
G1 X113.526 Y110.464 E10.90591
G1 X113.435 Y110.920 E10.91821
G1 X113.286 Y111.361 E10.93051
G1 X113.080 Y111.778 E10.94282
G1 X112.821 Y112.165 E10.95512
G1 X112.515 Y112.515 E10.96742
G1 X112.165 Y112.821 E10.97973
G1 X111.778 Y113.080 E10.99203
G1 X111.361 Y113.286 E11.00433
G1 X110.920 Y113.435 E11.01664
G1 X110.464 Y113.526 E11.02894
G1 X110.000 Y113.556 E11.04124
G1 X109.536 Y113.526 E11.05355
G1 X109.080 Y113.435 E11.06585
G1 X108.639 Y113.286 E11.07815
G1 X108.222 Y113.080 E11.09046
G1 X107.835 Y112.821 E11.10276
G1 X107.485 Y112.515 E11.11506
G1 X107.179 Y112.165 E11.12737
G1 X106.920 Y111.778 E11.13967
G1 X106.714 Y111.361 E11.15197
G1 X106.565 Y110.920 E11.16428
G1 X106.479 Y110.488 E11.17593
G1 X106.444 Y110.002 E11.18884
G1 X106.474 Y109.536 E11.20118
G1 X106.565 Y109.080 E11.21349
G1 X106.714 Y108.639 E11.22579
G1 X106.900 Y108.262 E11.23690
G1 X107.185 Y108.375 F7800.000
G1 X107.408 Y108.041 E11.24463 F900.000
G1 X107.701 Y107.702 E11.25325
G1 X108.021 Y107.421 E11.26144
G1 X108.375 Y107.185 E11.26962
G1 X108.756 Y106.997 E11.27780
G1 X109.159 Y106.860 E11.28598
G1 X109.576 Y106.777 E11.29416
G1 X109.976 Y106.751 E11.30188 F900.000
G1 X110.424 Y106.777 E11.31050
G1 X110.841 Y106.860 E11.31869
G1 X111.244 Y106.997 E11.32687
G1 X111.625 Y107.185 E11.33505
G1 X111.979 Y107.421 E11.34323
G1 X112.298 Y107.702 E11.35141
G1 X112.579 Y108.021 E11.35959
G1 X112.815 Y108.375 E11.36777
G1 X113.003 Y108.756 E11.37595
G1 X113.140 Y109.159 E11.38413
G1 X113.223 Y109.576 E11.39231
G1 X113.250 Y110.000 E11.40049
G1 X113.223 Y110.424 E11.40867
G1 X113.140 Y110.841 E11.41685
G1 X113.003 Y111.244 E11.42503
G1 X112.815 Y111.625 E11.43321
G1 X112.579 Y111.979 E11.44139
G1 X112.298 Y112.298 E11.44956
G1 X111.979 Y112.579 E11.45774
G1 X111.625 Y112.815 E11.46592
G1 X111.244 Y113.003 E11.47410
G1 X110.841 Y113.140 E11.48228
G1 X110.424 Y113.223 E11.49046
G1 X110.000 Y113.250 E11.49864
G1 X109.576 Y113.223 E11.50682
G1 X109.159 Y113.140 E11.51500
G1 X108.756 Y113.003 E11.52318
G1 X108.375 Y112.815 E11.53136
G1 X108.021 Y112.579 E11.53954
G1 X107.702 Y112.298 E11.54772
G1 X107.421 Y111.979 E11.55590
G1 X107.185 Y111.625 E11.56408
G1 X106.997 Y111.244 E11.57226
G1 X106.860 Y110.841 E11.58044
G1 X106.782 Y110.447 E11.58816
G1 X106.750 Y110.001 E11.59678
G1 X106.777 Y109.576 E11.60497
G1 X106.860 Y109.159 E11.61315
G1 X106.997 Y108.756 E11.62133
G1 X107.165 Y108.415 E11.62865
G1 X107.041 Y108.112 F7800.000
G1 X104.809 Y107.003 F7800.000
G1 X110.000 Y104.006 E11.78719 F900.000
G1 X115.191 Y107.003 E11.94574
G1 X115.191 Y112.997 E12.10428
G1 X110.000 Y115.994 E12.26283
G1 X104.809 Y112.997 E12.42138
G1 X104.809 Y107.048 E12.57873
G1 X104.455 Y106.799 F7800.000
G1 X110.000 Y103.597 E12.74807 F900.000
G1 X115.545 Y106.799 E12.91741
G1 X115.545 Y113.201 E13.08675
G1 X110.000 Y116.403 E13.25609
G1 X104.455 Y113.201 E13.42543
G1 X104.455 Y106.844 E13.59358
G1 X104.150 Y106.622 F7800.000
G1 X110.000 Y103.245 E13.72354 F900.000
G1 X115.850 Y106.622 E13.85350
G1 X115.850 Y113.378 E13.98345
G1 X110.000 Y116.755 E14.11341
G1 X104.150 Y113.378 E14.24337
G1 X104.150 Y106.667 E14.37246
G1 X104.445 Y106.675 F7800.000
G1 X105.014 Y107.271 F7800.000
G1 X105.239 Y107.047 E14.38110 F1200.000
G1 X105.014 Y107.786 F7800.000
G1 X106.456 Y106.344 E14.43658 F1200.000
G1 X107.672 Y105.641 F7800.000
G1 X105.014 Y108.300 E14.53890 F1200.000
G1 X105.014 Y108.814 E14.55289
G1 X108.889 Y104.939 E14.70205
G1 X108.825 Y106.031 F7800.000
G1 X110.409 Y104.447 E14.76301 F1200.000
G1 X110.735 Y104.636 E14.77326
G1 X109.457 Y105.914 E14.82246
G1 X109.995 Y105.891 E14.83711
G1 X111.062 Y104.824 E14.87818
G1 X111.388 Y105.012 E14.88842
G1 X110.479 Y105.921 E14.92339
G1 X110.908 Y106.006 E14.93530
G1 X111.714 Y105.200 E14.96631
G1 X112.040 Y105.389 E14.97655
G1 X111.303 Y106.126 E15.00492
G1 X111.670 Y106.272 E15.01569
G1 X112.366 Y105.577 E15.04246
G1 X112.692 Y105.765 E15.05271
G1 X112.015 Y106.442 E15.07876
G1 X112.324 Y106.648 E15.08886
G1 X113.018 Y105.953 E15.11557
G1 X113.344 Y106.142 E15.12582
G1 X112.615 Y106.871 E15.15388
G1 X112.889 Y107.111 E15.16380
G1 X113.670 Y106.330 E15.19387
G1 X113.996 Y106.518 E15.20412
G1 X113.129 Y107.385 E15.23749
G1 X113.352 Y107.676 E15.24747
G1 X114.322 Y106.706 E15.28479
G1 X114.648 Y106.895 E15.29504
G1 X113.558 Y107.985 E15.33701
G1 X113.728 Y108.330 E15.34746
G1 X114.961 Y107.096 E15.39493
G1 X114.986 Y107.586 E15.40826
