; generated by Slic3r 1.2.9 on 2016-06-28 at 20:24:44

; external perimeters extrusion width = 0.30mm
; perimeters extrusion width = 0.40mm
; infill extrusion width = 0.40mm
; solid infill extrusion width = 0.40mm
; top infill extrusion width = 0.40mm

M107
M190 S40 ; set bed temperature
M104 S220 ; set temperature
G28 ; home all axes
G1 Z5 F5000 ; lift nozzle

M109 S220 ; wait for temperature to be reached
G21 ; set units to millimeters
G90 ; use absolute coordinates
M82 ; use absolute distances for extrusion
G92 E0
G1 Z-0.200 F7800.000
G1 E-2.00000 F2400.00000
G92 E0
G1 X89.941 Y91.367 F7800.000
G1 E2.00000 F2400.00000
G1 X92.197 Y89.378 E2.18078 F1800.000
G1 X98.197 Y85.914 E2.59735
G1 X100.497 Y85.045 E2.74518
G1 X102.954 Y84.955 E2.89302
G1 X105.803 Y85.914 E3.07378
G1 X111.803 Y89.378 E3.49034 F1800.000
G1 X113.706 Y90.936 E3.63818
G1 X115.013 Y93.018 E3.78601
G1 X115.607 Y95.966 E3.96679
G1 X115.607 Y122.894 E5.58585
G1 X115.209 Y125.321 E5.73368
G1 X114.059 Y127.493 E5.88151
G1 X111.803 Y129.482 E6.06229
G1 X105.803 Y132.946 E6.47886
G1 X103.503 Y133.815 E6.62669
G1 X101.046 Y133.905 E6.77452
G1 X98.197 Y132.946 E6.95529
G1 X92.197 Y129.482 E7.37186
G1 X90.294 Y127.924 E7.51969
G1 X88.987 Y125.842 E7.66752
G1 X88.393 Y122.894 E7.84830
G1 X88.393 Y95.966 E9.46736
G1 X88.791 Y93.539 E9.61519
G1 X89.920 Y91.406 E9.76032
G1 X90.428 Y91.636 F7800.000
G1 X90.473 Y91.555 E9.76585 F1800.000
G1 X92.464 Y89.842 E9.92381
G1 X98.465 Y86.378 E10.34038
G1 X100.687 Y85.554 E10.48287
G1 X103.056 Y85.510 E10.62537
G1 X105.536 Y86.378 E10.78331
G1 X111.536 Y89.842 E11.19987 F1800.000
G1 X113.361 Y91.354 E11.34237
G1 X114.583 Y93.385 E11.48487
G1 X115.071 Y95.966 E11.64282
G1 X115.071 Y122.894 E13.26188
G1 X114.674 Y125.231 E13.40437
G1 X113.527 Y127.305 E13.54687
G1 X111.536 Y129.018 E13.70483
G1 X105.536 Y132.482 E14.12139
G1 X103.313 Y133.306 E14.26389
G1 X100.944 Y133.350 E14.40638
G1 X98.465 Y132.482 E14.56433
G1 X92.464 Y129.018 E14.98089
G1 X90.639 Y127.506 E15.12339
G1 X89.417 Y125.475 E15.26589
G1 X88.929 Y122.894 E15.42384
G1 X88.929 Y95.966 E17.04290
G1 X89.326 Y93.629 E17.18539
G1 X90.407 Y91.675 E17.31965
G1 X90.910 Y91.915 F7800.000
G1 X91.004 Y91.752 E17.33095 F1800.000
G1 X92.732 Y90.306 E17.46646
G1 X98.732 Y86.842 E17.88302
G1 X100.873 Y86.064 E18.01998
G1 X103.151 Y86.068 E18.15693
G1 X105.268 Y86.842 E18.29242 F1800.000
G1 X111.268 Y90.306 E18.70899
G1 X113.012 Y91.771 E18.84594
G1 X114.147 Y93.746 E18.98289
G1 X114.536 Y95.966 E19.11840
G1 X114.536 Y122.894 E20.73745
G1 X114.139 Y125.137 E20.87441
G1 X112.996 Y127.108 E21.01136
G1 X111.268 Y128.554 E21.14687
G1 X105.268 Y132.018 E21.56343
G1 X103.127 Y132.796 E21.70038
G1 X100.849 Y132.792 E21.83734
G1 X98.732 Y132.018 E21.97283
G1 X92.732 Y128.554 E22.38940
G1 X90.988 Y127.089 E22.52635
G1 X89.853 Y125.114 E22.66330
G1 X89.464 Y122.894 E22.79881
G1 X89.464 Y95.966 E24.41786
G1 X89.861 Y93.723 E24.55482
G1 X90.887 Y91.954 E24.67776
G1 E22.67776 F2400.00000
G92 E0
G1 X105.124 Y121.827 F7800.000
G1 E2.00000 F2400.00000
G1 X104.784 Y122.214 E2.03097 F1800.000
G1 X104.397 Y122.554 E2.06193
G1 X103.969 Y122.840 E2.09290
G1 X103.507 Y123.068 E2.12387
G1 X103.019 Y123.233 E2.15483
G1 X102.514 Y123.334 E2.18580
G1 X102.000 Y123.367 E2.21677
G1 X101.486 Y123.334 E2.24773
G1 X100.991 Y123.235 E2.27811
G1 X100.494 Y123.068 E2.30959
G1 X100.031 Y122.840 E2.34063
G1 X99.603 Y122.554 E2.37160
G1 X99.216 Y122.214 E2.40256
G1 X98.876 Y121.827 E2.43353
G1 X98.590 Y121.399 E2.46449
G1 X98.362 Y120.937 E2.49546
G1 X98.197 Y120.449 E2.52643
G1 X98.098 Y119.954 E2.55680
G1 X98.063 Y119.431 E2.58829
G1 X98.096 Y118.916 E2.61932
G1 X98.197 Y118.411 E2.65029
G1 X98.362 Y117.923 E2.68126
G1 X98.590 Y117.461 E2.71222
G1 X98.871 Y117.041 E2.74260
G1 X99.215 Y116.647 E2.77408
G1 X99.603 Y116.306 E2.80512
G1 X100.031 Y116.020 E2.83609
G1 X100.493 Y115.792 E2.86705
G1 X100.981 Y115.627 E2.89802
G1 X101.486 Y115.526 E2.92899
G1 X101.990 Y115.493 E2.95936 F1800.000
G1 X102.513 Y115.526 E2.99085
G1 X103.019 Y115.627 E3.02188
G1 X103.507 Y115.792 E3.05285
G1 X103.969 Y116.020 E3.08381
G1 X104.397 Y116.306 E3.11478
G1 X104.784 Y116.646 E3.14575
G1 X105.124 Y117.033 E3.17671
G1 X105.410 Y117.461 E3.20768
G1 X105.638 Y117.923 E3.23865
G1 X105.803 Y118.411 E3.26961
G1 X105.902 Y118.906 E3.29999
G1 X105.937 Y119.429 E3.33147
G1 X105.904 Y119.944 E3.36251
G1 X105.803 Y120.449 E3.39348
G1 X105.628 Y120.966 E3.42631
G1 X105.408 Y121.402 E3.45566
G1 X105.149 Y121.790 E3.48368
G1 X104.698 Y121.500 F7800.000
G1 X104.405 Y121.835 E3.51043 F1800.000
G1 X104.070 Y122.128 E3.53718
G1 X103.700 Y122.375 E3.56392
G1 X103.301 Y122.572 E3.59067
G1 X102.880 Y122.715 E3.61741
G1 X102.444 Y122.802 E3.64416
G1 X102.000 Y122.831 E3.67090
G1 X101.556 Y122.802 E3.69765
G1 X101.129 Y122.717 E3.72384
G1 X100.699 Y122.572 E3.75111
G1 X100.300 Y122.375 E3.77788
G1 X99.930 Y122.128 E3.80462
G1 X99.595 Y121.835 E3.83137
G1 X99.302 Y121.500 E3.85811
G1 X99.055 Y121.130 E3.88486
G1 X98.858 Y120.731 E3.91160
G1 X98.715 Y120.310 E3.93835
G1 X98.630 Y119.883 E3.96455
G1 X98.599 Y119.430 E3.99181
G1 X98.628 Y118.986 E4.01858
G1 X98.715 Y118.550 E4.04532
G1 X98.858 Y118.129 E4.07207
G1 X99.055 Y117.730 E4.09881
G1 X99.297 Y117.367 E4.12501
G1 X99.595 Y117.026 E4.15227
G1 X99.930 Y116.732 E4.17904
G1 X100.300 Y116.485 E4.20579
G1 X100.699 Y116.288 E4.23253
G1 X101.120 Y116.145 E4.25928
G1 X101.556 Y116.058 E4.28602
G1 X101.991 Y116.030 E4.31222 F1800.000
G1 X102.443 Y116.058 E4.33949
G1 X102.880 Y116.145 E4.36626
G1 X103.301 Y116.288 E4.39300
G1 X103.700 Y116.485 E4.41975
G1 X104.070 Y116.732 E4.44649
G1 X104.405 Y117.025 E4.47324
G1 X104.698 Y117.360 E4.49998
G1 X104.945 Y117.730 E4.52673
G1 X105.142 Y118.129 E4.55347
G1 X105.285 Y118.550 E4.58022
G1 X105.370 Y118.977 E4.60641
G1 X105.401 Y119.430 E4.63368
G1 X105.372 Y119.874 E4.66045
G1 X105.285 Y120.310 E4.68719
G1 X105.133 Y120.758 E4.71565
G1 X104.944 Y121.131 E4.74078
G1 X104.723 Y121.463 E4.76474
G1 X104.807 Y121.780 F7800.000
G1 E2.76474 F2400.00000
G92 E0
G1 X103.274 Y115.131 F7800.000
G1 E2.00000 F2400.00000
G1 X102.582 Y114.994 E2.04241 F1800.000
G1 X101.989 Y114.957 E2.07812
G1 X101.416 Y114.994 E2.11267
G1 X100.726 Y115.131 E2.15497
G1 X100.630 Y114.876 E2.17136
G1 X102.000 Y114.085 E2.26648
G1 X103.370 Y114.876 E2.36159
G1 X103.290 Y115.089 E2.37528
G1 X105.086 Y116.177 F7800.000
G1 X105.259 Y115.967 E2.39168 F1800.000
G1 X106.629 Y116.758 E2.48679
G1 X106.629 Y118.340 E2.58191
G1 X106.360 Y118.384 E2.59830
G1 X106.134 Y117.718 E2.64060
G1 X105.875 Y117.193 E2.67579
G1 X105.550 Y116.706 E2.71098
G1 X105.115 Y116.211 E2.75057
G1 X106.360 Y120.476 F7800.000
G1 X106.629 Y120.520 E2.76697 F1800.000
G1 X106.629 Y122.102 E2.86208
G1 X105.259 Y122.893 E2.95720
G1 X105.086 Y122.683 E2.97359
G1 X105.550 Y122.154 E3.01589
G1 X105.871 Y121.672 E3.05069
G1 X106.123 Y121.174 E3.08427
G1 X106.345 Y120.519 E3.12588
G1 X103.274 Y123.729 F7800.000
G1 X103.370 Y123.984 E3.14227 F1800.000
G1 X102.000 Y124.775 E3.23739
G1 X100.630 Y123.984 E3.33250
G1 X100.726 Y123.729 E3.34890
G1 X101.416 Y123.866 E3.39120
G1 X102.000 Y123.904 E3.42638
G1 X102.584 Y123.866 E3.46157
G1 X103.230 Y123.737 E3.50116
G1 X98.914 Y122.683 F7800.000
G1 X98.741 Y122.893 E3.51756 F1800.000
G1 X97.371 Y122.102 E3.61267
G1 X97.371 Y120.520 E3.70779
G1 X97.640 Y120.476 E3.72419
G1 X97.866 Y121.142 E3.76648
G1 X98.125 Y121.667 E3.80167
G1 X98.450 Y122.154 E3.83686
G1 X98.885 Y122.649 E3.87645
G1 X97.640 Y118.384 F7800.000
G1 X97.371 Y118.340 E3.89285 F1800.000
G1 X97.371 Y116.758 E3.98796
G1 X98.741 Y115.967 E4.08303
G1 X98.914 Y116.177 E4.09940
G1 X98.445 Y116.715 E4.14231
G1 X98.125 Y117.193 E4.17687
G1 X97.866 Y117.718 E4.21205
G1 X97.655 Y118.341 E4.25165
G1 X102.000 Y113.467 F7800.000
G1 X107.164 Y116.448 E4.61019 F1800.000
G1 X107.164 Y122.412 E4.96873
G1 X102.000 Y125.393 E5.32728
G1 X96.836 Y122.412 E5.68582
G1 X96.836 Y116.448 E6.04436
G1 X101.961 Y113.489 E6.40020
G1 X102.000 Y112.848 F7800.000
G1 X107.700 Y116.139 E6.79593 F1800.000
G1 X107.700 Y122.721 E7.19166
G1 X102.000 Y126.012 E7.58739
G1 X96.300 Y122.721 E7.98312
G1 X96.300 Y116.139 E8.37885
G1 X101.961 Y112.871 E8.77187
G1 X102.103 Y113.130 F7800.000
G1 X100.432 Y115.110 F7800.000
G1 X99.744 Y115.478 E8.87127 F1800.000
G1 X99.042 Y115.912 E8.97650
G1 X97.475 Y118.628 F7800.000
G1 X97.449 Y119.409 E9.07609 F1800.000
G1 X97.476 Y120.232 E9.18104
G1 X99.043 Y122.948 F7800.000
G1 X99.744 Y123.382 E9.28619 F1800.000
G1 X100.432 Y123.750 E9.38559
G1 X103.568 Y123.750 F7800.000
G1 X104.295 Y123.360 E9.49075 F1800.000
G1 X104.957 Y122.948 E9.59014
G1 X106.525 Y120.232 F7800.000
G1 X106.551 Y119.451 E9.68973 F1800.000
G1 X106.524 Y118.628 E9.79468
G1 X104.957 Y115.912 F7800.000
G1 X104.295 Y115.500 E9.89407 F1800.000
G1 X103.568 Y115.110 E9.99923
G1 E7.99923 F2400.00000
G92 E0
G1 X102.000 Y103.367 F7800.000
G1 E2.00000 F2400.00000
G1 X101.486 Y103.334 E2.03097 F1800.000
G1 X100.991 Y103.235 E2.06134
G1 X100.494 Y103.068 E2.09283
G1 X100.008 Y102.829 E2.12540
G1 X99.601 Y102.552 E2.15503
G1 X99.216 Y102.214 E2.18581
G1 X98.876 Y101.827 E2.21677
G1 X98.590 Y101.399 E2.24774
G1 X98.362 Y100.937 E2.27871
G1 X98.197 Y100.449 E2.30967
G1 X98.098 Y99.954 E2.34005
G1 X98.063 Y99.431 E2.37153
G1 X98.096 Y98.916 E2.40257
G1 X98.197 Y98.411 E2.43354
G1 X98.362 Y97.923 E2.46450
G1 X98.590 Y97.461 E2.49547
G1 X98.876 Y97.033 E2.52644
G1 X99.216 Y96.646 E2.55740
G1 X99.603 Y96.306 E2.58837
G1 X100.031 Y96.020 E2.61934
G1 X100.493 Y95.792 E2.65030
G1 X100.981 Y95.627 E2.68127
G1 X101.486 Y95.526 E2.71224
G1 X101.990 Y95.493 E2.74261 F1800.000
G1 X102.513 Y95.526 E2.77410
G1 X103.019 Y95.627 E2.80513
G1 X103.507 Y95.792 E2.83610
G1 X103.969 Y96.020 E2.86707
G1 X104.397 Y96.306 E2.89803
G1 X104.784 Y96.646 E2.92900
G1 X105.124 Y97.033 E2.95996
G1 X105.410 Y97.461 E2.99093
G1 X105.638 Y97.923 E3.02190
G1 X105.803 Y98.411 E3.05286
G1 X105.904 Y98.916 E3.08383
G1 X105.937 Y99.430 E3.11480
G1 X105.904 Y99.944 E3.14576
G1 X105.803 Y100.449 E3.17673
G1 X105.638 Y100.937 E3.20770
G1 X105.410 Y101.399 E3.23866
G1 X105.124 Y101.827 E3.26963
G1 X104.784 Y102.214 E3.30060
G1 X104.397 Y102.554 E3.33156
G1 X103.969 Y102.840 E3.36253
G1 X103.507 Y103.068 E3.39350
G1 X103.019 Y103.233 E3.42446
G1 X102.514 Y103.334 E3.45543
G1 X102.045 Y103.364 E3.48369
G1 X102.000 Y102.831 F7800.000
G1 X101.556 Y102.802 E3.51044 F1800.000
G1 X101.129 Y102.717 E3.53663
G1 X100.699 Y102.572 E3.56390
G1 X100.279 Y102.365 E3.59208
G1 X99.929 Y102.127 E3.61749
G1 X99.595 Y101.835 E3.64417
G1 X99.302 Y101.500 E3.67091
G1 X99.055 Y101.130 E3.69766
G1 X98.858 Y100.731 E3.72440
G1 X98.715 Y100.310 E3.75115
G1 X98.630 Y99.883 E3.77735
G1 X98.599 Y99.430 E3.80461
G1 X98.628 Y98.986 E3.83138
G1 X98.715 Y98.550 E3.85813
G1 X98.858 Y98.129 E3.88487
G1 X99.055 Y97.730 E3.91162
G1 X99.302 Y97.360 E3.93836
G1 X99.595 Y97.025 E3.96511
G1 X99.930 Y96.732 E3.99185
G1 X100.300 Y96.485 E4.01860
G1 X100.699 Y96.288 E4.04534
G1 X101.120 Y96.145 E4.07209
G1 X101.556 Y96.058 E4.09883
G1 X101.991 Y96.030 E4.12503 F1800.000
G1 X102.443 Y96.058 E4.15229
G1 X102.880 Y96.145 E4.17906
G1 X103.301 Y96.288 E4.20581
G1 X103.700 Y96.485 E4.23255
G1 X104.070 Y96.732 E4.25930
G1 X104.405 Y97.025 E4.28604
G1 X104.698 Y97.360 E4.31279
G1 X104.945 Y97.730 E4.33953
G1 X105.142 Y98.129 E4.36628
G1 X105.285 Y98.550 E4.39302
G1 X105.372 Y98.986 E4.41977
G1 X105.401 Y99.430 E4.44651
G1 X105.372 Y99.874 E4.47326
G1 X105.285 Y100.310 E4.50000
G1 X105.142 Y100.731 E4.52675
G1 X104.945 Y101.130 E4.55349
G1 X104.698 Y101.500 E4.58024
G1 X104.405 Y101.835 E4.60698
G1 X104.070 Y102.128 E4.63373
G1 X103.700 Y102.375 E4.66047
G1 X103.301 Y102.572 E4.68722
G1 X102.880 Y102.715 E4.71396
G1 X102.444 Y102.802 E4.74071
G1 X102.045 Y102.828 E4.76475
G1 X101.844 Y103.087 F7800.000
G1 E2.76475 F2400.00000
G92 E0
G1 X103.274 Y95.131 F7800.000
G1 E2.00000 F2400.00000
G1 X102.582 Y94.994 E2.04241 F1800.000
G1 X101.989 Y94.957 E2.07812
G1 X101.416 Y94.994 E2.11267
G1 X100.726 Y95.131 E2.15497
G1 X100.630 Y94.876 E2.17136
G1 X102.000 Y94.085 E2.26648
G1 X103.370 Y94.876 E2.36159
G1 X103.290 Y95.089 E2.37528
G1 X105.086 Y96.177 F7800.000
G1 X105.259 Y95.967 E2.39168 F1800.000
G1 X106.629 Y96.758 E2.48679
G1 X106.629 Y98.340 E2.58191
G1 X106.360 Y98.384 E2.59830
G1 X106.134 Y97.718 E2.64060
G1 X105.875 Y97.193 E2.67579
G1 X105.550 Y96.706 E2.71098
G1 X105.115 Y96.211 E2.75057
G1 X106.360 Y100.476 F7800.000
G1 X106.629 Y100.520 E2.76697 F1800.000
G1 X106.629 Y102.102 E2.86208
G1 X105.259 Y102.893 E2.95720
G1 X105.086 Y102.683 E2.97359
G1 X105.550 Y102.154 E3.01589
G1 X105.875 Y101.667 E3.05108
G1 X106.134 Y101.142 E3.08627
G1 X106.345 Y100.519 E3.12586
G1 X103.274 Y103.729 F7800.000
G1 X103.370 Y103.984 E3.14226 F1800.000
G1 X102.000 Y104.775 E3.23737
G1 X100.630 Y103.984 E3.33249
G1 X100.726 Y103.729 E3.34888
G1 X101.416 Y103.866 E3.39118
G1 X102.000 Y103.904 E3.42637
G1 X102.584 Y103.866 E3.46156
G1 X103.230 Y103.737 E3.50115
G1 X98.914 Y102.683 F7800.000
G1 X98.741 Y102.893 E3.51755 F1800.000
G1 X97.371 Y102.102 E3.61266
G1 X97.371 Y100.520 E3.70778
G1 X97.640 Y100.476 E3.72417
G1 X97.866 Y101.142 E3.76647
G1 X98.125 Y101.667 E3.80166
G1 X98.450 Y102.154 E3.83685
G1 X98.885 Y102.649 E3.87644
G1 X97.640 Y98.384 F7800.000
G1 X97.371 Y98.340 E3.89283 F1800.000
G1 X97.371 Y96.758 E3.98795
G1 X98.741 Y95.967 E4.08307
G1 X98.914 Y96.177 E4.09946
G1 X98.450 Y96.706 E4.14176
G1 X98.125 Y97.193 E4.17695
G1 X97.866 Y97.718 E4.21214
G1 X97.655 Y98.341 E4.25173
G1 X102.000 Y93.467 F7800.000
G1 X107.164 Y96.448 E4.61027 F1800.000
G1 X107.164 Y102.412 E4.96882
G1 X102.000 Y105.393 E5.32736
G1 X96.836 Y102.412 E5.68590
G1 X96.836 Y96.448 E6.04445
G1 X101.961 Y93.489 E6.40028
G1 X102.000 Y92.848 F7800.000
G1 X107.700 Y96.139 E6.79601 F1800.000
G1 X107.700 Y102.721 E7.19174
G1 X102.000 Y106.012 E7.58747
G1 X96.300 Y102.721 E7.98320
G1 X96.300 Y96.139 E8.37893
G1 X101.961 Y92.871 E8.77195
G1 X102.103 Y93.130 F7800.000
G1 X100.432 Y95.110 F7800.000
G1 X99.744 Y95.478 E8.87135 F1800.000
G1 X99.043 Y95.912 E8.97651
G1 X97.475 Y98.628 F7800.000
G1 X97.449 Y99.409 E9.07610 F1800.000
G1 X97.476 Y100.232 E9.18104
G1 X99.044 Y102.947 F7800.000
G1 X99.721 Y103.370 E9.28280 F1800.000
G1 X100.432 Y103.750 E9.38559
G1 X103.568 Y103.750 F7800.000
G1 X104.256 Y103.382 E9.48498 F1800.000
G1 X104.957 Y102.948 E9.59013
G1 X106.525 Y100.232 F7800.000
G1 X106.551 Y99.453 E9.68953 F1800.000
G1 X106.525 Y98.628 E9.79469
G1 X104.957 Y95.912 F7800.000
G1 X104.295 Y95.500 E9.89408 F1800.000
G1 X103.568 Y95.110 E9.99924
G1 Z0.000 F7800.000
G1 E7.99924 F2400.00000
G92 E0
G1 X101.974 Y115.521 F7800.000
G1 E2.00000 F2400.00000
G1 X102.508 Y115.552 E2.01414 F900.000
G1 X103.012 Y115.653 E2.02774
G1 X103.496 Y115.817 E2.04127
G1 X103.955 Y116.043 E2.05480
G1 X104.381 Y116.328 E2.06833
G1 X104.765 Y116.665 E2.08186
G1 X105.102 Y117.049 E2.09539
G1 X105.387 Y117.475 E2.10891
G1 X105.613 Y117.934 E2.12244
G1 X105.777 Y118.418 E2.13597
G1 X105.877 Y118.920 E2.14950
G1 X105.910 Y119.430 E2.16303
G1 X105.877 Y119.940 E2.17656
G1 X105.782 Y120.417 E2.18940
G1 X105.614 Y120.924 E2.20354
G1 X105.387 Y121.385 E2.21714
G1 X105.102 Y121.811 E2.23067
G1 X104.765 Y122.195 E2.24420
G1 X104.381 Y122.532 E2.25773
G1 X103.955 Y122.817 E2.27126
G1 X103.496 Y123.043 E2.28478
G1 X103.012 Y123.207 E2.29831
G1 X102.510 Y123.307 E2.31184
G1 X102.000 Y123.340 E2.32537
G1 X101.490 Y123.307 E2.33890
G1 X100.988 Y123.207 E2.35243
G1 X100.504 Y123.043 E2.36596
G1 X100.045 Y122.817 E2.37949
