; generated by Slic3r 1.2.9 on 2016-06-23 at 16:48:36

; external perimeters extrusion width = 0.30mm
; perimeters extrusion width = 0.40mm
; infill extrusion width = 0.40mm
; solid infill extrusion width = 0.40mm
; top infill extrusion width = 0.40mm

M107
M190 S40 ; set bed temperature
M104 S220 ; set temperature
G28 ; home all axes
G1 Z5 F5000 ; lift nozzle

M109 S220 ; wait for temperature to be reached
G21 ; set units to millimeters
G90 ; use absolute coordinates
M82 ; use absolute distances for extrusion
G92 E0
G1 Z0.300 F7800.000
G1 E-2.00000 F2400.00000
G92 E0
G1 X97.941 Y101.937 F7800.000
G1 E2.00000 F2400.00000
G1 X100.197 Y99.948 E2.18078 F1800.000
G1 X106.197 Y96.484 E2.59735
G1 X108.497 Y95.615 E2.74518
G1 X110.954 Y95.525 E2.89302
G1 X113.803 Y96.484 E3.07378
G1 X119.803 Y99.948 E3.49034 F1800.000
G1 X121.706 Y101.506 E3.63818
G1 X123.013 Y103.588 E3.78601
G1 X123.607 Y106.536 E3.96679
G1 X123.607 Y113.464 E4.38335
G1 X123.209 Y115.891 E4.53118
G1 X122.059 Y118.063 E4.67901
G1 X119.803 Y120.052 E4.85980
G1 X113.803 Y123.516 E5.27635
G1 X111.503 Y124.385 E5.42419
G1 X109.046 Y124.475 E5.57202
G1 X106.197 Y123.516 E5.75280
G1 X100.197 Y120.052 E6.16936
G1 X98.294 Y118.494 E6.31719
G1 X96.987 Y116.412 E6.46502
G1 X96.393 Y113.464 E6.64580
G1 X96.393 Y106.536 E7.06236
G1 X96.791 Y104.109 E7.21019
G1 X97.920 Y101.976 E7.35532
G1 X98.428 Y102.206 F7800.000
G1 X98.473 Y102.125 E7.36086 F1800.000
G1 X100.464 Y100.412 E7.51881
G1 X106.465 Y96.948 E7.93538
G1 X108.687 Y96.124 E8.07788
G1 X111.056 Y96.080 E8.22037
G1 X113.536 Y96.948 E8.37831
G1 X119.536 Y100.412 E8.79488 F1800.000
G1 X121.361 Y101.924 E8.93737
G1 X122.583 Y103.954 E9.07987
G1 X123.071 Y106.536 E9.23783
G1 X123.071 Y113.464 E9.65438
G1 X122.674 Y115.801 E9.79688
G1 X121.527 Y117.875 E9.93938
G1 X119.536 Y119.588 E10.09733
G1 X113.536 Y123.052 E10.51389
G1 X111.314 Y123.876 E10.65639
G1 X108.944 Y123.920 E10.79889
G1 X106.464 Y123.052 E10.95684
G1 X100.464 Y119.588 E11.37340
G1 X98.639 Y118.076 E11.51589
G1 X97.417 Y116.046 E11.65839
G1 X96.929 Y113.464 E11.81635
G1 X96.929 Y106.536 E12.23291
G1 X97.326 Y104.199 E12.37540
G1 X98.407 Y102.245 E12.50966
G1 X98.910 Y102.485 F7800.000
G1 X99.004 Y102.322 E12.52096 F1800.000
G1 X100.732 Y100.876 E12.65647
G1 X106.732 Y97.412 E13.07303
G1 X108.873 Y96.634 E13.20999
G1 X111.151 Y96.638 E13.34694
G1 X113.268 Y97.412 E13.48243 F1800.000
G1 X119.268 Y100.876 E13.89900
G1 X121.012 Y102.341 E14.03595
G1 X122.147 Y104.316 E14.17290
G1 X122.536 Y106.536 E14.30841
G1 X122.536 Y113.464 E14.72497
G1 X122.139 Y115.707 E14.86192
G1 X120.996 Y117.678 E14.99887
G1 X119.268 Y119.124 E15.13438
G1 X113.268 Y122.588 E15.55094
G1 X111.127 Y123.366 E15.68789
G1 X108.849 Y123.362 E15.82485
G1 X106.732 Y122.588 E15.96035
G1 X100.732 Y119.124 E16.37691
G1 X98.988 Y117.659 E16.51386
G1 X97.853 Y115.684 E16.65082
G1 X97.464 Y113.464 E16.78632
G1 X97.464 Y106.536 E17.20288
G1 X97.861 Y104.293 E17.33983
G1 X98.887 Y102.524 E17.46278
G1 E15.46278 F2400.00000
G92 E0
G1 X112.647 Y112.915 F7800.000
G1 E2.00000 F2400.00000
G1 X112.253 Y113.229 E2.03034 F1800.000
G1 X111.821 Y113.491 E2.06067
G1 X111.360 Y113.695 E2.09101
G1 X110.885 Y113.836 E2.12076
G1 X110.379 Y113.919 E2.15160
G1 X109.874 Y113.935 E2.18201
G1 X109.372 Y113.887 E2.21234
G1 X108.880 Y113.775 E2.24268
G1 X108.406 Y113.600 E2.27301
G1 X107.959 Y113.367 E2.30335
G1 X107.545 Y113.078 E2.33368
G1 X107.172 Y112.739 E2.36402
G1 X106.845 Y112.355 E2.39435
G1 X106.569 Y111.932 E2.42469
G1 X106.350 Y111.478 E2.45502
G1 X106.191 Y110.999 E2.48536
G1 X106.095 Y110.503 E2.51569
G1 X106.063 Y110.000 E2.54603
G1 X106.095 Y109.497 E2.57636
G1 X106.191 Y109.001 E2.60670
G1 X106.350 Y108.522 E2.63703
G1 X106.569 Y108.068 E2.66737
G1 X106.845 Y107.645 E2.69770
G1 X107.172 Y107.261 E2.72804
G1 X107.545 Y106.922 E2.75837
G1 X107.959 Y106.633 E2.78870
G1 X108.406 Y106.400 E2.81904
G1 X108.880 Y106.225 E2.84937
G1 X109.372 Y106.113 E2.87971
G1 X109.864 Y106.066 E2.90946 F1800.000
G1 X110.377 Y106.081 E2.94031
G1 X110.876 Y106.161 E2.97071
G1 X111.360 Y106.305 E3.00105
G1 X111.821 Y106.509 E3.03138
G1 X112.253 Y106.771 E3.06172
G1 X112.647 Y107.085 E3.09205
G1 X112.998 Y107.448 E3.12239
G1 X113.300 Y107.852 E3.15272
G1 X113.547 Y108.292 E3.18306
G1 X113.737 Y108.759 E3.21339
G1 X113.862 Y109.238 E3.24315
G1 X113.929 Y109.747 E3.27399
G1 X113.929 Y110.252 E3.30439
G1 X113.865 Y110.753 E3.33473
G1 X113.737 Y111.241 E3.36506
G1 X113.547 Y111.708 E3.39540
G1 X113.300 Y112.148 E3.42573
G1 X112.998 Y112.552 E3.45607
G1 X112.678 Y112.882 E3.48369
G1 X112.286 Y112.517 F7800.000
G1 X111.946 Y112.789 E3.50989 F1800.000
G1 X111.573 Y113.015 E3.53609
G1 X111.174 Y113.191 E3.56229
G1 X110.765 Y113.313 E3.58796
G1 X110.327 Y113.385 E3.61467
G1 X109.891 Y113.399 E3.64089
G1 X109.457 Y113.357 E3.66709
G1 X109.032 Y113.260 E3.69329
G1 X108.623 Y113.110 E3.71949
G1 X108.237 Y112.908 E3.74569
G1 X107.880 Y112.659 E3.77189
G1 X107.557 Y112.366 E3.79809
G1 X107.275 Y112.034 E3.82429
G1 X107.037 Y111.669 E3.85049
G1 X106.848 Y111.276 E3.87669
G1 X106.711 Y110.863 E3.90289
G1 X106.627 Y110.435 E3.92909
G1 X106.599 Y110.000 E3.95529
G1 X106.627 Y109.565 E3.98149
G1 X106.711 Y109.137 E4.00769
G1 X106.848 Y108.724 E4.03389
G1 X107.037 Y108.331 E4.06009
G1 X107.275 Y107.966 E4.08629
G1 X107.557 Y107.634 E4.11249
G1 X107.880 Y107.341 E4.13869
G1 X108.237 Y107.092 E4.16488
G1 X108.623 Y106.890 E4.19109
G1 X109.032 Y106.740 E4.21728
G1 X109.457 Y106.643 E4.24348
G1 X109.882 Y106.602 E4.26915 F1800.000
G1 X110.326 Y106.615 E4.29586
G1 X110.757 Y106.685 E4.32208
G1 X111.174 Y106.809 E4.34828
G1 X111.573 Y106.985 E4.37448
G1 X111.946 Y107.211 E4.40068
G1 X112.286 Y107.483 E4.42688
G1 X112.589 Y107.796 E4.45308
G1 X112.850 Y108.145 E4.47928
G1 X113.064 Y108.525 E4.50548
G1 X113.227 Y108.928 E4.53168
G1 X113.336 Y109.341 E4.55734
G1 X113.394 Y109.782 E4.58405
G1 X113.394 Y110.218 E4.61027
G1 X113.338 Y110.650 E4.63647
G1 X113.227 Y111.072 E4.66267
G1 X113.064 Y111.475 E4.68887
G1 X112.850 Y111.855 E4.71507
G1 X112.589 Y112.204 E4.74127
G1 X112.318 Y112.485 E4.76477
G1 X112.344 Y112.812 F7800.000
G1 E2.76477 F2400.00000
G92 E0
G1 X111.283 Y105.723 F7800.000
G1 E2.00000 F2400.00000
G1 X110.996 Y105.638 E2.01801 F1800.000
G1 X110.428 Y105.546 E2.05260
G1 X109.846 Y105.529 E2.08757
G1 X109.286 Y105.583 E2.12142
G1 X108.713 Y105.714 E2.15677
G1 X108.612 Y105.457 E2.17339
G1 X110.000 Y104.655 E2.26977
G1 X111.396 Y105.461 E2.36667
G1 X111.301 Y105.682 E2.38113
G1 X113.060 Y106.741 F7800.000
G1 X113.232 Y106.521 E2.39794 F1800.000
G1 X114.629 Y107.328 E2.49494
G1 X114.629 Y108.944 E2.59215
G1 X114.348 Y108.981 E2.60915
G1 X114.246 Y108.590 E2.63341
G1 X114.031 Y108.059 E2.66788
G1 X113.750 Y107.559 E2.70235
G1 X113.407 Y107.100 E2.73682
G1 X113.091 Y106.774 E2.76411
G1 X114.348 Y111.019 F7800.000
G1 X114.629 Y111.056 E2.78110 F1800.000
G1 X114.629 Y112.672 E2.87831
G1 X113.232 Y113.479 E2.97532
G1 X113.060 Y113.259 E2.99212
G1 X113.407 Y112.900 E3.02213
G1 X113.750 Y112.441 E3.05660
G1 X114.031 Y111.941 E3.09107
G1 X114.246 Y111.410 E3.12554
G1 X114.337 Y111.063 E3.14709
G1 X111.283 Y114.277 F7800.000
G1 X111.396 Y114.539 E3.16427 F1800.000
G1 X110.000 Y115.345 E3.26116
G1 X108.612 Y114.543 E3.35754
G1 X108.713 Y114.286 E3.37417
G1 X109.286 Y114.417 E3.40951
G1 X109.857 Y114.472 E3.44398
G1 X110.431 Y114.453 E3.47856
G1 X111.006 Y114.359 E3.51354
G1 X111.240 Y114.289 E3.52823
G1 X106.923 Y113.237 F7800.000
G1 X106.753 Y113.470 E3.54559 F1800.000
G1 X105.371 Y112.672 E3.64149
G1 X105.371 Y111.085 E3.73691
G1 X105.641 Y111.042 E3.75336
G1 X105.853 Y111.679 E3.79374
G1 X106.102 Y112.196 E3.82821
G1 X106.414 Y112.676 E3.86268
G1 X106.786 Y113.113 E3.89715
G1 X106.889 Y113.206 E3.90554
G1 X105.641 Y108.958 F7800.000
G1 X105.371 Y108.915 E3.92199 F1800.000
G1 X105.371 Y107.328 E4.01742
G1 X106.753 Y106.530 E4.11332
G1 X106.923 Y106.763 E4.13068
G1 X106.786 Y106.887 E4.14178
G1 X106.414 Y107.324 E4.17625
G1 X106.102 Y107.804 E4.21072
G1 X105.853 Y108.321 E4.24519
G1 X105.655 Y108.916 E4.28286
G1 X104.836 Y107.018 F7800.000
G1 X110.000 Y104.037 E4.64140 F1800.000
G1 X115.164 Y107.018 E4.99995
G1 X115.164 Y112.982 E5.35849
G1 X110.000 Y115.963 E5.71703
G1 X104.836 Y112.982 E6.07558
G1 X104.836 Y107.063 E6.43142
G1 X104.300 Y106.709 F7800.000
G1 X110.000 Y103.418 E6.82714 F1800.000
G1 X115.700 Y106.709 E7.22287
G1 X115.700 Y113.291 E7.61860
G1 X110.000 Y116.582 E8.01433
G1 X104.300 Y113.291 E8.41006
G1 X104.300 Y106.754 E8.80309
G1 X104.595 Y106.761 F7800.000
G1 X105.474 Y109.203 F7800.000
G1 X105.449 Y109.978 E8.90196 F1800.000
G1 X105.474 Y110.797 E9.00649
G1 X107.050 Y113.517 F7800.000
G1 X107.660 Y113.903 E9.09852 F1800.000
G1 X108.413 Y114.317 E9.20807
G1 X111.585 Y114.302 F7800.000
G1 X112.125 Y114.026 E9.28540 F1800.000
G1 X112.589 Y113.751 E9.35411
G1 X112.926 Y113.523 E9.40600
G1 X114.516 Y110.771 F7800.000
G1 X114.547 Y110.269 E9.47006 F1800.000
G1 X114.547 Y109.729 E9.53895
G1 X114.516 Y109.229 E9.60282
G1 X112.926 Y106.477 F7800.000
G1 X112.589 Y106.249 E9.65471 F1800.000
G1 X112.125 Y105.974 E9.72341
G1 X111.585 Y105.698 E9.80075
G1 X108.413 Y105.683 F7800.000
G1 X107.660 Y106.097 E9.91029 F1800.000
G1 X107.050 Y106.483 E10.00233
G1 Z0.500 F7800.000
G1 X106.593 Y108.081 F7800.000
G1 X106.866 Y107.661 E10.01558 F900.000
G1 X107.191 Y107.280 E10.02884
G1 X107.562 Y106.943 E10.04209
G1 X107.973 Y106.656 E10.05534
G1 X108.417 Y106.424 E10.06859
G1 X108.887 Y106.251 E10.08185
G1 X109.376 Y106.140 E10.09510
G1 X109.849 Y106.094 E10.10768 F900.000
G1 X110.373 Y106.107 E10.12153
G1 X110.870 Y106.188 E10.13485
G1 X111.350 Y106.330 E10.14811
G1 X111.809 Y106.533 E10.16136
G1 X112.237 Y106.793 E10.17461
G1 X112.629 Y107.105 E10.18786
G1 X112.978 Y107.465 E10.20112
G1 X113.262 Y107.846 E10.21370
G1 X113.522 Y108.301 E10.22754
G1 X113.711 Y108.768 E10.24087
G1 X113.838 Y109.253 E10.25412
G1 X113.902 Y109.749 E10.26738
G1 X113.902 Y110.251 E10.28063
G1 X113.841 Y110.722 E10.29321
G1 X113.712 Y111.230 E10.30706
G1 X113.523 Y111.697 E10.32038
G1 X113.277 Y112.133 E10.33364
G1 X112.978 Y112.535 E10.34689
G1 X112.629 Y112.895 E10.36014
G1 X112.237 Y113.207 E10.37340
G1 X111.809 Y113.467 E10.38665
G1 X111.350 Y113.670 E10.39990
G1 X110.870 Y113.812 E10.41315
G1 X110.375 Y113.892 E10.42641
G1 X109.875 Y113.908 E10.43966
G1 X109.376 Y113.860 E10.45291
G1 X108.887 Y113.749 E10.46617
G1 X108.417 Y113.576 E10.47942
G1 X107.973 Y113.344 E10.49267
G1 X107.562 Y113.057 E10.50592
G1 X107.191 Y112.720 E10.51918
G1 X106.866 Y112.339 E10.53243
G1 X106.593 Y111.919 E10.54568
G1 X106.375 Y111.467 E10.55894
G1 X106.218 Y110.992 E10.57219
G1 X106.122 Y110.500 E10.58544
G1 X106.090 Y110.000 E10.59870
G1 X106.120 Y109.525 E10.61127
G1 X106.217 Y109.011 E10.62512
G1 X106.375 Y108.533 E10.63845
G1 X106.573 Y108.122 E10.65051
G1 X106.901 Y108.255 F7800.000
G1 X107.150 Y107.873 E10.66256 F900.000
G1 X107.445 Y107.526 E10.67462
G1 X107.783 Y107.220 E10.68667
G1 X108.156 Y106.959 E10.69872
G1 X108.561 Y106.748 E10.71077
G1 X108.988 Y106.591 E10.72283
G1 X109.432 Y106.489 E10.73488
G1 X109.862 Y106.448 E10.74629 F900.000
G1 X110.340 Y106.460 E10.75894
G1 X110.791 Y106.533 E10.77103
G1 X111.228 Y106.663 E10.78309
G1 X111.645 Y106.847 E10.79514
G1 X112.035 Y107.083 E10.80719
G1 X112.391 Y107.367 E10.81924
G1 X112.708 Y107.695 E10.83130
G1 X112.966 Y108.041 E10.84271
G1 X113.203 Y108.456 E10.85535
G1 X113.375 Y108.879 E10.86745
G1 X113.491 Y109.320 E10.87950
G1 X113.549 Y109.772 E10.89155
G1 X113.549 Y110.228 E10.90361
G1 X113.494 Y110.656 E10.91502
G1 X113.376 Y111.119 E10.92767
G1 X113.204 Y111.543 E10.93976
G1 X112.980 Y111.940 E10.95181
G1 X112.708 Y112.305 E10.96387
G1 X112.391 Y112.633 E10.97592
G1 X112.035 Y112.917 E10.98797
G1 X111.645 Y113.153 E11.00002
G1 X111.228 Y113.337 E11.01208
G1 X110.791 Y113.467 E11.02413
G1 X110.341 Y113.540 E11.03618
G1 X109.886 Y113.554 E11.04823
G1 X109.432 Y113.511 E11.06029
G1 X108.988 Y113.409 E11.07234
G1 X108.561 Y113.252 E11.08439
G1 X108.156 Y113.041 E11.09644
G1 X107.783 Y112.780 E11.10850
G1 X107.445 Y112.474 E11.12055
G1 X107.150 Y112.127 E11.13260
G1 X106.901 Y111.745 E11.14465
G1 X106.704 Y111.335 E11.15671
G1 X106.560 Y110.902 E11.16876
G1 X106.473 Y110.455 E11.18081
G1 X106.444 Y110.000 E11.19286
G1 X106.471 Y109.569 E11.20427
G1 X106.560 Y109.099 E11.21692
G1 X106.704 Y108.665 E11.22902
G1 X106.882 Y108.295 E11.23988
G1 X107.168 Y108.405 F7800.000
G1 X107.395 Y108.056 E11.24789 F900.000
G1 X107.665 Y107.739 E11.25591
G1 X107.973 Y107.459 E11.26392
G1 X108.315 Y107.221 E11.27193
G1 X108.684 Y107.028 E11.27994
G1 X109.075 Y106.884 E11.28796
G1 X109.481 Y106.791 E11.29597
G1 X109.873 Y106.754 E11.30354 F900.000
G1 X110.312 Y106.765 E11.31198
G1 X110.723 Y106.831 E11.32000
G1 X111.123 Y106.950 E11.32802
G1 X111.503 Y107.118 E11.33603
G1 X111.860 Y107.334 E11.34404
G1 X112.185 Y107.594 E11.35206
G1 X112.475 Y107.893 E11.36007
G1 X112.710 Y108.208 E11.36764
G1 X112.928 Y108.589 E11.37608
G1 X113.085 Y108.976 E11.38410
G1 X113.190 Y109.379 E11.39212
G1 X113.244 Y109.792 E11.40013
G1 X113.244 Y110.208 E11.40814
G1 X113.193 Y110.598 E11.41571
G1 X113.085 Y111.024 E11.42415
G1 X112.928 Y111.410 E11.43218
G1 X112.724 Y111.773 E11.44019
G1 X112.475 Y112.107 E11.44820
G1 X112.185 Y112.406 E11.45622
G1 X111.860 Y112.666 E11.46423
G1 X111.503 Y112.882 E11.47224
G1 X111.123 Y113.050 E11.48025
G1 X110.723 Y113.169 E11.48827
G1 X110.312 Y113.235 E11.49628
G1 X109.896 Y113.249 E11.50429
G1 X109.481 Y113.209 E11.51231
G1 X109.075 Y113.116 E11.52032
G1 X108.684 Y112.972 E11.52833
G1 X108.315 Y112.779 E11.53634
G1 X107.973 Y112.541 E11.54436
G1 X107.665 Y112.261 E11.55237
G1 X107.395 Y111.944 E11.56038
G1 X107.168 Y111.595 E11.56840
G1 X106.987 Y111.220 E11.57641
G1 X106.856 Y110.824 E11.58442
G1 X106.776 Y110.416 E11.59243
G1 X106.750 Y110.000 E11.60045
G1 X106.775 Y109.608 E11.60801
G1 X106.856 Y109.176 E11.61646
G1 X106.987 Y108.780 E11.62448
G1 X107.148 Y108.446 E11.63163
G1 X107.021 Y108.144 F7800.000
G1 X104.809 Y107.003 F7800.000
G1 X110.000 Y104.006 E11.79017 F900.000
G1 X115.191 Y107.003 E11.94872
G1 X115.191 Y112.997 E12.10727
G1 X110.000 Y115.994 E12.26581
G1 X104.809 Y112.997 E12.42436
G1 X104.809 Y107.048 E12.58172
G1 X104.455 Y106.799 F7800.000
G1 X110.000 Y103.597 E12.75106 F900.000
G1 X115.545 Y106.799 E12.92040
G1 X115.545 Y113.201 E13.08974
G1 X110.000 Y116.403 E13.25908
G1 X104.455 Y113.201 E13.42842
G1 X104.455 Y106.844 E13.59657
G1 X104.150 Y106.622 F7800.000
G1 X110.000 Y103.245 E13.72652 F900.000
G1 X115.850 Y106.622 E13.85648
G1 X115.850 Y113.378 E13.98644
G1 X110.000 Y116.755 E14.11639
G1 X104.150 Y113.378 E14.24635
G1 X104.150 Y106.667 E14.37544
G1 X104.445 Y106.675 F7800.000
G1 X105.014 Y107.271 F7800.000
G1 X105.239 Y107.047 E14.38409 F1200.000
G1 X105.014 Y107.786 F7800.000
G1 X106.456 Y106.344 E14.43957 F1200.000
G1 X107.672 Y105.641 F7800.000
G1 X105.014 Y108.300 E14.54188 F1200.000
G1 X105.014 Y108.814 E14.55588
G1 X108.889 Y104.939 E14.70503
G1 X108.820 Y106.037 F7800.000
G1 X110.409 Y104.447 E14.76621 F1200.000
G1 X110.735 Y104.636 E14.77645
G1 X109.453 Y105.918 E14.82582
G1 X109.991 Y105.894 E14.84050
G1 X111.062 Y104.824 E14.88168
G1 X111.388 Y105.012 E14.89193
G1 X110.473 Y105.927 E14.92712
G1 X110.910 Y106.004 E14.93919
G1 X111.714 Y105.200 E14.97013
G1 X112.040 Y105.389 E14.98038
G1 X111.306 Y106.122 E15.00860
G1 X111.670 Y106.273 E15.01930
G1 X112.366 Y105.577 E15.04609
G1 X112.692 Y105.765 E15.05634
G1 X112.010 Y106.447 E15.08260
G1 X112.329 Y106.642 E15.09278
