; generated by Slic3r 1.2.9 on 2016-03-27 at 21:43:32

; external perimeters extrusion width = 0.40mm
; perimeters extrusion width = 0.68mm
; infill extrusion width = 1.28mm
; solid infill extrusion width = 0.68mm
; top infill extrusion width = 0.68mm

M190 S40 ; set bed temperature
M104 S220 ; set temperature
G28 ; home all axes
G1 Z5 F5000 ; lift nozzle

M109 S220 ; wait for temperature to be reached
G21 ; set units to millimeters
G90 ; use absolute coordinates
M82 ; use absolute distances for extrusion
G92 E0
G1 Z0.400 F7800.000
G1 E-2.00000 F2400.00000
G92 E0
G1 X27.080 Y59.214 F7800.000
G1 E2.00000 F2400.00000
G1 X27.925 Y58.918 E2.10638 F1800.000
G1 X29.703 Y58.512 E2.32293
G1 X30.593 Y58.412 E2.42932
G1 X31.505 Y58.361 E2.53775
G1 X183.505 Y58.361 E20.59006
G1 X184.416 Y58.412 E20.69850
G1 X185.307 Y58.512 E20.80489 F1800.000
G1 X187.084 Y58.918 E21.02144
G1 X187.930 Y59.214 E21.12785
G1 X189.572 Y60.005 E21.34437
G1 X190.312 Y60.469 E21.44809
G1 X191.756 Y61.618 E21.66728
G1 X192.390 Y62.252 E21.77366
G1 X193.526 Y63.677 E21.99019
G1 X194.003 Y64.435 E22.09657
G1 X194.794 Y66.078 E22.31313
G1 X195.090 Y66.925 E22.41964
G1 X195.496 Y68.701 E22.63606
G1 X195.596 Y69.591 E22.74244
G1 X195.645 Y70.303 E22.82721
G1 X196.638 Y110.897 E27.64975
G1 X196.638 Y129.897 E29.90629
G1 X196.587 Y130.809 E30.01475
G1 X196.486 Y131.700 E30.12132
G1 X196.081 Y133.476 E30.33763
G1 X195.785 Y134.322 E30.44401
G1 X194.993 Y135.965 E30.66061
G1 X194.516 Y136.725 E30.76722
G1 X193.380 Y138.148 E30.98352
G1 X192.763 Y138.766 E31.08724
G1 X191.321 Y139.919 E31.30643
G1 X190.562 Y140.395 E31.41286
G1 X188.920 Y141.186 E31.62936
G1 X188.073 Y141.483 E31.73588
G1 X186.297 Y141.888 E31.95228
G1 X185.406 Y141.988 E32.05879
G1 X184.495 Y142.039 E32.16712
G1 X32.495 Y142.039 E50.21943
G1 X31.583 Y141.988 E50.32788
G1 X30.693 Y141.888 E50.43426
G1 X28.916 Y141.482 E50.65080
G1 X28.070 Y141.186 E50.75718
G1 X26.428 Y140.395 E50.97373
G1 X25.669 Y139.919 E51.08011
G1 X24.244 Y138.782 E51.29665
G1 X23.626 Y138.164 E51.40037
G1 X22.473 Y136.723 E51.61957
G1 X21.997 Y135.965 E51.72595
G1 X21.206 Y134.322 E51.94250
G1 X20.910 Y133.476 E52.04888
G1 X20.504 Y131.699 E52.26543
G1 X20.404 Y130.809 E52.37182
G1 X20.355 Y130.097 E52.45657
G1 X19.365 Y89.703 E57.25541
G1 X19.362 Y70.503 E59.53565
G1 X19.413 Y69.591 E59.64410
G1 X19.514 Y68.701 E59.75048
G1 X19.919 Y66.924 E59.96703
G1 X20.215 Y66.078 E60.07344
G1 X21.006 Y64.435 E60.28995
G1 X21.483 Y63.677 E60.39633
G1 X22.620 Y62.251 E60.61288
G1 X23.253 Y61.618 E60.71926
G1 X24.679 Y60.481 E60.93581
G1 X25.437 Y60.005 E61.04223
G1 X27.026 Y59.240 E61.25161
G1 X27.316 Y59.888 F7800.000
G1 X28.161 Y59.592 E61.35799 F1800.000
G1 X29.783 Y59.222 E61.55555
G1 X30.673 Y59.121 E61.66194
G1 X31.505 Y59.075 E61.76086
G1 X183.505 Y59.075 E79.81317
G1 X184.336 Y59.121 E79.91210
G1 X185.227 Y59.222 E80.01848 F1800.000
G1 X186.848 Y59.592 E80.21604
G1 X187.694 Y59.888 E80.32245
G1 X189.192 Y60.609 E80.51998
G1 X189.932 Y61.074 E80.62370
G1 X191.251 Y62.123 E80.82390
G1 X191.885 Y62.756 E80.93028
G1 X192.922 Y64.057 E81.12782
G1 X193.398 Y64.815 E81.23420
G1 X194.120 Y66.314 E81.43176
G1 X194.409 Y67.138 E81.53548
G1 X194.786 Y68.781 E81.73569
G1 X194.886 Y69.671 E81.84207
G1 X194.931 Y70.321 E81.91940
G1 X195.924 Y110.897 E86.73986
G1 X195.924 Y129.897 E88.99640
G1 X195.877 Y130.729 E89.09534
G1 X195.776 Y131.620 E89.20190
G1 X195.406 Y133.240 E89.39924
G1 X195.111 Y134.086 E89.50562
G1 X194.389 Y135.585 E89.70322
G1 X193.911 Y136.345 E89.80980
G1 X192.875 Y137.644 E90.00713
G1 X192.257 Y138.262 E90.11097
G1 X190.941 Y139.314 E90.31106
G1 X190.183 Y139.791 E90.41748
G1 X188.684 Y140.512 E90.61499
G1 X187.838 Y140.808 E90.72150
G1 X186.217 Y141.178 E90.91892
G1 X185.326 Y141.279 E91.02541
G1 X184.495 Y141.325 E91.12424
G1 X32.495 Y141.325 E109.17655
G1 X31.663 Y141.279 E109.27549
G1 X30.773 Y141.178 E109.38187
G1 X29.152 Y140.808 E109.57942
G1 X28.306 Y140.512 E109.68580
G1 X26.808 Y139.791 E109.88335
G1 X26.049 Y139.314 E109.98973
G1 X24.749 Y138.277 E110.18729
G1 X24.131 Y137.659 E110.29107
G1 X23.078 Y136.343 E110.49121
G1 X22.602 Y135.585 E110.59759
G1 X21.880 Y134.086 E110.79515
G1 X21.584 Y133.240 E110.90153
G1 X21.214 Y131.619 E111.09909
G1 X21.114 Y130.729 E111.20548
G1 X21.069 Y130.079 E111.28280
G1 X20.079 Y89.685 E116.08163
G1 X20.076 Y70.503 E118.35980
G1 X20.123 Y69.671 E118.45873
G1 X20.223 Y68.781 E118.56511
G1 X20.594 Y67.160 E118.76266
G1 X20.890 Y66.314 E118.86908
G1 X21.611 Y64.815 E119.06660
G1 X22.088 Y64.057 E119.17298
G1 X23.125 Y62.756 E119.37053
G1 X23.758 Y62.123 E119.47692
G1 X25.059 Y61.086 E119.67447
G1 X25.817 Y60.609 E119.78088
G1 X27.262 Y59.914 E119.97128
G1 X27.552 Y60.562 F7800.000
G1 X28.397 Y60.266 E120.07766 F1800.000
G1 X29.863 Y59.931 E120.25622
G1 X30.753 Y59.831 E120.36261
G1 X31.505 Y59.789 E120.45203
G1 X183.505 Y59.789 E138.50433
G1 X184.256 Y59.831 E138.59375
G1 X185.147 Y59.931 E138.70013 F1800.000
G1 X186.612 Y60.266 E138.87870
G1 X187.458 Y60.562 E138.98511
G1 X188.812 Y61.214 E139.16364
G1 X189.552 Y61.679 E139.26736
G1 X190.746 Y62.628 E139.44857
G1 X191.380 Y63.261 E139.55495
G1 X192.317 Y64.437 E139.73350
G1 X192.794 Y65.195 E139.83988
G1 X193.446 Y66.550 E140.01845
G1 X193.734 Y67.374 E140.12217
G1 X194.076 Y68.861 E140.30338
G1 X194.177 Y69.751 E140.40976
G1 X194.217 Y70.338 E140.47966
G1 X195.209 Y110.897 E145.29804
G1 X195.209 Y129.897 E147.55458
G1 X195.167 Y130.649 E147.64401
G1 X195.067 Y131.540 E147.75055
G1 X194.732 Y133.004 E147.92891
G1 X194.437 Y133.850 E148.03529
G1 X193.784 Y135.205 E148.21390
G1 X193.307 Y135.964 E148.32046
G1 X192.370 Y137.139 E148.49882
G1 X191.753 Y137.756 E148.60254
G1 X190.561 Y138.709 E148.78375
G1 X189.803 Y139.186 E148.89017
G1 X188.448 Y139.838 E149.06869
G1 X187.602 Y140.134 E149.17519
G1 X186.137 Y140.469 E149.35363
G1 X185.246 Y140.569 E149.46011
G1 X184.495 Y140.611 E149.54944
G1 X32.495 Y140.611 E167.60175
G1 X31.743 Y140.569 E167.69118
G1 X30.853 Y140.469 E167.79756
G1 X29.388 Y140.134 E167.97611
G1 X28.542 Y139.838 E168.08249
G1 X27.188 Y139.186 E168.26105
G1 X26.429 Y138.709 E168.36743
G1 X25.254 Y137.772 E168.54600
G1 X24.636 Y137.154 E168.64977
G1 X23.683 Y135.963 E168.83092
G1 X23.206 Y135.205 E168.93730
G1 X22.554 Y133.850 E169.11587
G1 X22.258 Y133.005 E169.22225
G1 X21.924 Y131.539 E169.40081
G1 X21.823 Y130.649 E169.50720
G1 X21.783 Y130.062 E169.57709
G1 X20.793 Y89.668 E174.37592
G1 X20.791 Y70.503 E176.65201
G1 X20.833 Y69.751 E176.74143
G1 X20.933 Y68.861 E176.84781
G1 X21.268 Y67.395 E177.02637
G1 X21.564 Y66.550 E177.13278
G1 X22.216 Y65.195 E177.31132
G1 X22.692 Y64.437 E177.41770
G1 X23.630 Y63.261 E177.59626
G1 X24.263 Y62.628 E177.70264
G1 X25.439 Y61.691 E177.88120
G1 X26.197 Y61.214 E177.98761
G1 X27.498 Y60.588 E178.15902
G1 E176.15902 F2400.00000
G92 E0
G1 X166.151 Y120.397 F7800.000
G1 E2.00000 F2400.00000
G1 X166.313 Y119.168 E2.14716 F1800.000
G1 X166.797 Y117.980 E2.29960
G1 X167.570 Y116.972 E2.45048
G1 X168.573 Y116.202 E2.60067
G1 X169.718 Y115.728 E2.74783
G1 X170.870 Y115.569 E2.88590
G1 X181.115 Y115.569 E4.10271 F1800.000
G1 X182.249 Y115.718 E4.23854
G1 X183.417 Y116.202 E4.38872
G1 X184.421 Y116.972 E4.53891
G1 X185.190 Y117.975 E4.68910
G1 X185.674 Y119.143 E4.83928
G1 X185.839 Y120.397 E4.98947
G1 X185.674 Y121.651 E5.13966
G1 X185.190 Y122.819 E5.28984
G1 X184.421 Y123.822 E5.44002
G1 X183.417 Y124.592 E5.59022
G1 X182.249 Y125.076 E5.74040
G1 X181.115 Y125.225 E5.87623
G1 X170.875 Y125.225 E7.09234
G1 X169.741 Y125.076 E7.22818
G1 X168.573 Y124.592 E7.37836
G1 X167.570 Y123.822 E7.52855
G1 X166.800 Y122.819 E7.67873
G1 X166.316 Y121.651 E7.82892
G1 X166.159 Y120.456 E7.97198
G1 X166.871 Y120.397 F7800.000
G1 X167.009 Y119.353 E8.09708 F1800.000
G1 X167.422 Y118.338 E8.22718
G1 X168.079 Y117.481 E8.35546
G1 X168.933 Y116.826 E8.48332
G1 X169.907 Y116.423 E8.60842
G1 X170.919 Y116.283 E8.72977
G1 X181.068 Y116.283 E9.93518 F1800.000
G1 X182.063 Y116.414 E10.05429
G1 X183.057 Y116.826 E10.18214
G1 X183.911 Y117.481 E10.31000
G1 X184.567 Y118.335 E10.43785
G1 X184.978 Y119.330 E10.56570
G1 X185.119 Y120.397 E10.69355
G1 X184.978 Y121.464 E10.82141
G1 X184.567 Y122.459 E10.94926
G1 X183.911 Y123.313 E11.07711
G1 X183.057 Y123.968 E11.20497
G1 X182.063 Y124.380 E11.33282
G1 X181.068 Y124.511 E11.45192
G1 X170.922 Y124.511 E12.65692
G1 X169.928 Y124.380 E12.77603
G1 X168.933 Y123.968 E12.90388
G1 X168.079 Y123.313 E13.03174
G1 X167.424 Y122.459 E13.15959
G1 X167.012 Y121.464 E13.28744
G1 X166.879 Y120.456 E13.40817
G1 X167.592 Y120.397 F7800.000
G1 X167.705 Y119.537 E13.51121 F1800.000
G1 X168.047 Y118.696 E13.61898
G1 X168.589 Y117.990 E13.72465
G1 X169.294 Y117.449 E13.83017
G1 X170.095 Y117.117 E13.93321
G1 X170.968 Y116.997 E14.03784
G1 X181.021 Y116.997 E15.23187 F1800.000
G1 X181.876 Y117.109 E15.33425
G1 X182.697 Y117.449 E15.43977
G1 X183.402 Y117.990 E15.54529
G1 X183.943 Y118.695 E15.65081
G1 X184.283 Y119.516 E15.75633
G1 X184.399 Y120.397 E15.86185
G1 X184.283 Y121.278 E15.96737
G1 X183.943 Y122.099 E16.07289
G1 X183.402 Y122.804 E16.17841
G1 X182.697 Y123.344 E16.28393
G1 X181.876 Y123.684 E16.38945
G1 X181.021 Y123.797 E16.49183
G1 X170.969 Y123.797 E17.68571
G1 X170.114 Y123.684 E17.78809
G1 X169.294 Y123.344 E17.89361
G1 X168.589 Y122.804 E17.99913
G1 X168.048 Y122.099 E18.10465
G1 X167.708 Y121.278 E18.21017
G1 X167.600 Y120.456 E18.30857
G1 X167.254 Y120.182 F7800.000
G1 X50.839 Y120.397 F7800.000
G1 X50.674 Y121.651 E18.45875 F1800.000
G1 X50.190 Y122.819 E18.60894
G1 X49.421 Y123.822 E18.75912
G1 X48.417 Y124.592 E18.90931
G1 X47.249 Y125.076 E19.05950
G1 X46.115 Y125.225 E19.19533
G1 X35.875 Y125.225 E20.41144
G1 X34.741 Y125.076 E20.54727
G1 X33.573 Y124.592 E20.69746
G1 X32.570 Y123.822 E20.84765
G1 X31.800 Y122.819 E20.99783
G1 X31.316 Y121.651 E21.14802
G1 X31.151 Y120.397 E21.29820
G1 X31.313 Y119.168 E21.44537
G1 X31.797 Y117.980 E21.59780
G1 X32.570 Y116.972 E21.74869
G1 X33.573 Y116.202 E21.89887
G1 X34.741 Y115.718 E22.04906
G1 X35.875 Y115.569 E22.18489
G1 X46.115 Y115.569 E23.40100 F1800.000
G1 X47.249 Y115.718 E23.53684
G1 X48.417 Y116.202 E23.68702
G1 X49.400 Y116.956 E23.83418
G1 X50.188 Y117.969 E23.98662
G1 X50.674 Y119.143 E24.13750
G1 X50.831 Y120.337 E24.28056
G1 X50.119 Y120.397 F7800.000
G1 X49.978 Y121.464 E24.40842 F1800.000
G1 X49.567 Y122.459 E24.53627
G1 X48.911 Y123.313 E24.66412
G1 X48.057 Y123.968 E24.79198
G1 X47.063 Y124.380 E24.91983
G1 X46.068 Y124.511 E25.03893
G1 X35.922 Y124.511 E26.24393
G1 X34.928 Y124.380 E26.36304
G1 X33.933 Y123.968 E26.49089
G1 X33.079 Y123.313 E26.61874
G1 X32.424 Y122.459 E26.74660
G1 X32.012 Y121.464 E26.87445
G1 X31.871 Y120.397 E27.00230
G1 X32.009 Y119.353 E27.12741
G1 X32.422 Y118.338 E27.25751
G1 X33.079 Y117.481 E27.38579
G1 X33.933 Y116.826 E27.51364
G1 X34.928 Y116.414 E27.64149
G1 X35.922 Y116.283 E27.76060
G1 X46.068 Y116.283 E28.96560 F1800.000
G1 X47.063 Y116.414 E29.08470
G1 X48.057 Y116.826 E29.21255
G1 X48.893 Y117.467 E29.33766
G1 X49.565 Y118.332 E29.46776
G1 X49.978 Y119.330 E29.59604
G1 X50.111 Y120.337 E29.71677
G1 X49.399 Y120.397 F7800.000
G1 X49.283 Y121.278 E29.82228 F1800.000
G1 X48.943 Y122.099 E29.92781
G1 X48.402 Y122.804 E30.03333
G1 X47.697 Y123.344 E30.13885
G1 X46.876 Y123.684 E30.24437
G1 X46.021 Y123.797 E30.34675
G1 X35.969 Y123.797 E31.54063
G1 X35.114 Y123.684 E31.64301
G1 X34.294 Y123.344 E31.74853
G1 X33.589 Y122.804 E31.85405
G1 X33.048 Y122.099 E31.95957
G1 X32.708 Y121.278 E32.06509
G1 X32.592 Y120.397 E32.17061
G1 X32.705 Y119.537 E32.27365
G1 X33.047 Y118.696 E32.38142
G1 X33.589 Y117.990 E32.48709
G1 X34.294 Y117.449 E32.59261
G1 X35.114 Y117.109 E32.69813
G1 X35.969 Y116.997 E32.80051
G1 X46.021 Y116.997 E33.99439 F1800.000
G1 X46.876 Y117.109 E34.09677
G1 X47.697 Y117.449 E34.20229
G1 X48.385 Y117.978 E34.30533
G1 X48.942 Y118.694 E34.41310
G1 X49.283 Y119.516 E34.51878
G1 X49.391 Y120.337 E34.61717
G1 X49.736 Y120.612 F7800.000
G1 X49.399 Y132.069 F7800.000
G1 X32.598 Y132.069 E36.61252 F1800.000
G1 X32.015 Y132.003 E36.68224
G1 X31.574 Y131.849 E36.73762
G1 X31.145 Y131.582 E36.79767
G1 X30.806 Y131.244 E36.85452
G1 X30.558 Y130.849 E36.90990
G1 X30.389 Y130.373 E36.96994
G1 X30.324 Y129.794 E37.03907
G1 X30.324 Y111.000 E39.27122
G1 X30.389 Y110.416 E39.34094
G1 X30.549 Y109.960 E39.39838
G1 X30.806 Y109.550 E39.45583
G1 X31.148 Y109.208 E39.51328
G1 X31.543 Y108.960 E39.56867
G1 X32.020 Y108.790 E39.62871
G1 X32.598 Y108.725 E39.69783
G1 X184.393 Y108.725 E57.72575
G1 X184.959 Y108.789 E57.79341
G1 X185.437 Y108.953 E57.85345 F1800.000
G1 X185.842 Y109.208 E57.91030
G1 X186.184 Y109.550 E57.96775
G1 X186.441 Y109.960 E58.02519
G1 X186.601 Y110.416 E58.08264
G1 X186.667 Y111.000 E58.15236
G1 X186.667 Y129.794 E60.38451
G1 X186.601 Y130.378 E60.45423
G1 X186.441 Y130.834 E60.51168
G1 X186.184 Y131.244 E60.56913
G1 X185.854 Y131.574 E60.62451
G1 X185.428 Y131.845 E60.68455
G1 X184.976 Y132.003 E60.74141
G1 X184.393 Y132.069 E60.81113
G1 X49.459 Y132.069 E76.83657
G1 X49.399 Y132.783 F7800.000
G1 X32.558 Y132.783 E78.83668 F1800.000
G1 X31.855 Y132.704 E78.92072
G1 X31.264 Y132.497 E78.99499
G1 X30.698 Y132.146 E79.07414
G1 X30.245 Y131.692 E79.15034
G1 X29.912 Y131.162 E79.22460
G1 X29.688 Y130.535 E79.30376
G1 X29.609 Y129.834 E79.38744
G1 X29.609 Y110.960 E81.62911
G1 X29.689 Y110.256 E81.71315
G1 X29.902 Y109.648 E81.78971
G1 X30.245 Y109.102 E81.86627
G1 X30.700 Y108.646 E81.94284
G1 X31.230 Y108.314 E82.01710
G1 X31.858 Y108.090 E82.09626
G1 X32.558 Y108.011 E82.17993
G1 X184.433 Y108.011 E100.21738
G1 X185.117 Y108.088 E100.29912
G1 X185.747 Y108.305 E100.37828 F1800.000
G1 X186.290 Y108.646 E100.45447
G1 X186.746 Y109.102 E100.53103
G1 X187.089 Y109.648 E100.60760
G1 X187.302 Y110.256 E100.68416
G1 X187.381 Y110.960 E100.76820
G1 X187.381 Y129.834 E103.00987
G1 X187.302 Y130.538 E103.09391
G1 X187.089 Y131.146 E103.17047
G1 X186.746 Y131.692 E103.24703
G1 X186.304 Y132.134 E103.32130
G1 X185.741 Y132.492 E103.40045
G1 X185.136 Y132.704 E103.47665
G1 X184.433 Y132.783 E103.56069
G1 X49.459 Y132.783 E119.59090
G1 X49.399 Y133.497 F7800.000
G1 X32.518 Y133.497 E121.59577 F1800.000
G1 X31.695 Y133.404 E121.69413
G1 X30.954 Y133.145 E121.78728
G1 X30.251 Y132.709 E121.88555
G1 X29.683 Y132.140 E121.98109
G1 X29.265 Y131.476 E122.07424
G1 X28.988 Y130.696 E122.17251
G1 X28.895 Y129.875 E122.27074
G1 X28.895 Y110.919 E124.52194
G1 X28.988 Y110.096 E124.62030
G1 X29.254 Y109.336 E124.71597
G1 X29.683 Y108.654 E124.81165
G1 X30.252 Y108.084 E124.90732
G1 X30.916 Y107.667 E125.00047
G1 X31.696 Y107.390 E125.09874
G1 X32.518 Y107.297 E125.19696
G1 X184.473 Y107.297 E143.24394
G1 X185.275 Y107.387 E143.33977
G1 X186.057 Y107.656 E143.43804 F1800.000
G1 X186.738 Y108.084 E143.53358
G1 X187.308 Y108.654 E143.62925
G1 X187.736 Y109.336 E143.72493
G1 X188.002 Y110.096 E143.82060
G1 X188.095 Y110.919 E143.91896
G1 X188.095 Y129.874 E146.17016
G1 X188.002 Y130.697 E146.26852
G1 X187.736 Y131.458 E146.36420
G1 X187.308 Y132.140 E146.45987
G1 X186.753 Y132.695 E146.55302
G1 X186.055 Y133.139 E146.65129
G1 X185.296 Y133.404 E146.74683
G1 X184.473 Y133.497 E146.84519
G1 X49.459 Y133.497 E162.88016
G1 X49.199 Y133.151 F7800.000
G1 X31.085 Y123.083 F7800.000
G1 X30.825 Y121.763 E163.03997 F1800.000
G1 X30.736 Y120.404 E163.20166
G1 X30.823 Y119.058 E163.36191
G1 X31.084 Y117.711 E163.52487
G1 X32.157 Y109.386 F7800.000
G1 X32.632 Y109.332 E163.58168 F1800.000
G1 X184.358 Y109.332 E181.61974
G1 X184.824 Y109.385 E181.67548
G1 X185.173 Y109.505 E181.71932
