; generated by Slic3r 1.2.9 on 2016-02-20 at 22:09:16

; external perimeters extrusion width = 0.40mm
; perimeters extrusion width = 0.68mm
; infill extrusion width = 1.28mm
; solid infill extrusion width = 0.68mm
; top infill extrusion width = 0.68mm
; support material extrusion width = 0.40mm

M107
M190 S65 ; set bed temperature
M104 S230 ; set temperature
G28 ; home all axes
G1 Z5 F5000 ; lift nozzle

M109 S230 ; wait for temperature to be reached
G21 ; set units to millimeters
G90 ; use absolute coordinates
M82 ; use absolute distances for extrusion
G92 E0
G1 Z0.400 F7800.000
G1 E-2.00000 F2400.00000
G92 E0
G1 X88.452 Y93.752 F7800.000
G1 E2.00000 F2400.00000
G1 X90.341 Y92.425 E2.27422 F1800.000
G1 X93.161 Y91.786 E2.61762
G1 X110.561 Y91.686 E4.68417
G1 X119.400 Y91.686 E5.73389
G1 X121.675 Y92.083 E6.00811
G1 X124.148 Y93.652 E6.35598 F1800.000
G1 X124.348 Y93.852 E6.38957
G1 X125.675 Y95.741 E6.66380
G1 X126.314 Y98.600 E7.01167
G1 X126.314 Y107.400 E8.05680
G1 X125.917 Y109.675 E8.33102
G1 X124.348 Y112.148 E8.67889
G1 X124.148 Y112.348 E8.71249
G1 X122.259 Y113.675 E8.98671
G1 X119.763 Y114.304 E9.29231
G1 X103.163 Y115.204 E11.26670
G1 X93.200 Y115.214 E12.45002
G1 X90.925 Y114.817 E12.72425
G1 X88.452 Y113.248 E13.07211
G1 X88.252 Y113.048 E13.10571
G1 X86.925 Y111.159 E13.37993
G1 X86.286 Y108.300 E13.72780
G1 X86.286 Y98.700 E14.86795
G1 X86.683 Y96.425 E15.14217
G1 X88.252 Y93.952 E15.49004
G1 X88.410 Y93.795 E15.51651
G1 E13.51651 F2400.00000
G92 E0
G1 X100.668 Y106.481 F7800.000
G1 E2.00000 F2400.00000
G1 X100.394 Y106.705 E2.04203 F1800.000
G1 X100.102 Y106.904 E2.08406
G1 X99.792 Y107.076 E2.12609
G1 X99.469 Y107.221 E2.16812
G1 X99.135 Y107.336 E2.21016
G1 X98.791 Y107.421 E2.25219
G1 X98.442 Y107.476 E2.29422
G1 X98.088 Y107.499 E2.33625
G1 X97.735 Y107.492 E2.37828
G1 X97.383 Y107.453 E2.42031
G1 X97.036 Y107.383 E2.46234
G1 X96.697 Y107.282 E2.50437
G1 X96.368 Y107.152 E2.54640
G1 X96.051 Y106.994 E2.58844
G1 X95.750 Y106.808 E2.63047
G1 X95.466 Y106.596 E2.67250
G1 X95.203 Y106.360 E2.71453
G1 X94.961 Y106.101 E2.75656
G1 X94.743 Y105.823 E2.79859
G1 X94.550 Y105.526 E2.84062
G1 X94.385 Y105.213 E2.88265
G1 X94.248 Y104.887 E2.92469
G1 X94.140 Y104.550 E2.96672
G1 X94.062 Y104.204 E3.00875
G1 X94.015 Y103.854 E3.05078
G1 X94.000 Y103.500 E3.09281
G1 X94.015 Y103.146 E3.13484
G1 X94.062 Y102.796 E3.17687
G1 X94.140 Y102.450 E3.21890
G1 X94.248 Y102.113 E3.26093
G1 X94.385 Y101.787 E3.30297
G1 X94.550 Y101.474 E3.34500
G1 X94.743 Y101.177 E3.38703
G1 X94.961 Y100.899 E3.42906
G1 X95.203 Y100.640 E3.47109
G1 X95.466 Y100.404 E3.51312
G1 X95.750 Y100.192 E3.55515
G1 X96.051 Y100.006 E3.59718
G1 X96.367 Y99.848 E3.63921
G1 X96.697 Y99.718 E3.68125
G1 X97.036 Y99.617 E3.72328
G1 X97.383 Y99.547 E3.76531
G1 X97.735 Y99.508 E3.80734
G1 X98.088 Y99.501 E3.84937 F1800.000
G1 X98.442 Y99.524 E3.89140
G1 X98.791 Y99.579 E3.93343
G1 X99.135 Y99.664 E3.97546
G1 X99.469 Y99.779 E4.01750
G1 X99.792 Y99.924 E4.05953
G1 X100.102 Y100.096 E4.10156
G1 X100.394 Y100.295 E4.14359
G1 X100.668 Y100.519 E4.18562
G1 X100.921 Y100.767 E4.22765
G1 X101.151 Y101.036 E4.26968
G1 X101.357 Y101.324 E4.31171
G1 X101.536 Y101.629 E4.35375
G1 X101.687 Y101.949 E4.39578
G1 X101.810 Y102.281 E4.43781
G1 X101.903 Y102.622 E4.47984
G1 X101.961 Y102.949 E4.51922
G1 X101.996 Y103.322 E4.56376
G1 X101.996 Y103.677 E4.60592
G1 X101.965 Y104.029 E4.64795
G1 X101.903 Y104.378 E4.68999
G1 X101.810 Y104.719 E4.73202
G1 X101.687 Y105.051 E4.77405
G1 X101.536 Y105.371 E4.81608
G1 X101.357 Y105.676 E4.85811
G1 X101.151 Y105.964 E4.90014
G1 X100.921 Y106.233 E4.94217
G1 X100.711 Y106.439 E4.97708
G1 X100.735 Y106.828 F7800.000
G1 E2.97708 F2400.00000
G92 E0
G1 X94.114 Y100.758 F7800.000
G1 E2.00000 F2400.00000
G1 X94.114 Y99.614 E2.13588 F1800.000
G1 X95.278 Y99.614 E2.27413
G1 X94.703 Y100.129 E2.36584
G1 X94.155 Y100.714 E2.46104
G1 X94.114 Y106.242 F7800.000
G1 X94.703 Y106.871 E2.56338 F1800.000
G1 X95.278 Y107.386 E2.65509
G1 X94.114 Y107.386 E2.79334
G1 X94.114 Y106.302 E2.92210
G1 E0.92210 F2400.00000
G92 E0
G1 X100.764 Y107.386 F7800.000
G1 E2.00000 F2400.00000
G1 X101.443 Y106.722 E2.11280 F1800.000
G1 X101.886 Y106.204 E2.19368
G1 X101.886 Y107.386 E2.33401
G1 X100.824 Y107.386 E2.46012
G1 E0.46012 F2400.00000
G92 E0
G1 X101.886 Y100.796 F7800.000
G1 E2.00000 F2400.00000
G1 X101.443 Y100.278 E2.08088 F1800.000
G1 X100.764 Y99.614 E2.19369
G1 X101.886 Y99.614 E2.32692
G1 X101.886 Y100.736 E2.46012
G1 X102.600 Y98.900 F7800.000
G1 X102.600 Y108.100 E3.55276 F1800.000
G1 X93.400 Y108.100 E4.64540
G1 X93.400 Y98.900 E5.73804
G1 X102.540 Y98.900 E6.82355
G1 X102.400 Y99.246 F7800.000
G1 E4.82355 F2400.00000
G92 E0
G1 X111.431 Y102.021 F7800.000
G1 E2.00000 F2400.00000
G1 X111.643 Y101.444 E2.07293 F1800.000
G1 X111.808 Y101.127 E2.11542
G1 X111.987 Y100.852 E2.15444
G1 X112.189 Y100.594 E2.19332
G1 X112.413 Y100.355 E2.23220
G1 X112.656 Y100.136 E2.27107
G1 X112.919 Y99.940 E2.30995
G1 X113.197 Y99.768 E2.34883
G1 X113.490 Y99.622 E2.38771
G1 X113.794 Y99.502 E2.42659
G1 X114.108 Y99.409 E2.46547
G1 X114.438 Y99.342 E2.50536
G1 X115.050 Y99.300 E2.57829 F1800.000
G1 X115.407 Y99.322 E2.62078
G1 X115.763 Y99.378 E2.66353
G1 X116.352 Y99.555 E2.73659
G1 X116.658 Y99.692 E2.77641
G1 X116.944 Y99.851 E2.81528
G1 X117.215 Y100.035 E2.85416
G1 X117.468 Y100.243 E2.89304
G1 X117.702 Y100.472 E2.93192
G1 X117.915 Y100.720 E2.97080
G1 X118.105 Y100.987 E3.00968
G1 X118.271 Y101.269 E3.04856
G1 X118.414 Y101.573 E3.08845
G1 X118.603 Y102.157 E3.16138
G1 X118.668 Y102.509 E3.20387
G1 X118.697 Y102.836 E3.24289
G1 X118.697 Y103.164 E3.28177
G1 X118.668 Y103.490 E3.32065
G1 X118.609 Y103.820 E3.36054
G1 X118.423 Y104.406 E3.43347
G1 X118.271 Y104.730 E3.47596
G1 X118.097 Y105.027 E3.51694
G1 X117.708 Y105.522 E3.59167
G1 X117.392 Y105.831 E3.64418
G1 X116.944 Y106.149 E3.70938
G1 X116.658 Y106.308 E3.74826
G1 X116.359 Y106.442 E3.78714
G1 X116.050 Y106.548 E3.82602
G1 X115.732 Y106.627 E3.86490
G1 X115.409 Y106.678 E3.90378
G1 X115.082 Y106.699 E3.94266
G1 X114.755 Y106.692 E3.98154
G1 X114.429 Y106.656 E4.02041
G1 X114.100 Y106.590 E4.06031
G1 X113.519 Y106.391 E4.13324
G1 X113.198 Y106.232 E4.17572
G1 X112.919 Y106.060 E4.21475
G1 X112.656 Y105.864 E4.25362
G1 X112.413 Y105.645 E4.29250
G1 X112.189 Y105.406 E4.33138
G1 X111.987 Y105.148 E4.37026
G1 X111.809 Y104.874 E4.40914
G1 X111.656 Y104.584 E4.44802
G1 X111.529 Y104.283 E4.48690
G1 X111.429 Y103.971 E4.52578
G1 X111.357 Y103.652 E4.56466
G1 X111.314 Y103.327 E4.60354
G1 X111.300 Y103.000 E4.64242
G1 X111.314 Y102.673 E4.68130
G1 X111.357 Y102.348 E4.72017
G1 X111.418 Y102.079 E4.75294
G1 X111.162 Y101.725 F7800.000
G1 E2.75294 F2400.00000
G92 E0
G1 X117.744 Y99.514 F7800.000
G1 E2.00000 F2400.00000
G1 X118.486 Y99.514 E2.08807 F1800.000
G1 X118.486 Y100.239 E2.17420
G1 X117.787 Y99.556 E2.29027
G1 E0.29027 F2400.00000
G92 E0
G1 X118.486 Y105.761 F7800.000
G1 E2.00000 F2400.00000
G1 X118.486 Y106.486 E2.08614 F1800.000
G1 X117.744 Y106.486 E2.17420
G1 X118.443 Y105.803 E2.29027
G1 X119.200 Y107.200 F7800.000
G1 X110.800 Y107.200 E3.28789 F1800.000
G1 X110.800 Y98.800 E4.28552
G1 X119.200 Y98.800 E5.28315
G1 X119.200 Y107.140 E6.27365
G1 X118.854 Y107.000 F7800.000
G1 X112.893 Y106.668 F7800.000
G1 X112.197 Y106.453 E6.45723 F1800.000
G1 X111.728 Y106.272 E6.58371
G1 X111.459 Y105.542 E6.77970
G1 X111.329 Y105.106 E6.89426
G1 X111.329 Y100.894 F7800.000
G1 X111.459 Y100.458 E7.00882 F1800.000
G1 X111.728 Y99.728 E7.20481
G1 X112.197 Y99.547 E7.33129
G1 X112.893 Y99.332 E7.51487
G1 Z0.400 F7800.000
M104 S225 ; set temperature
M140 S60 ; wait for bed temperature to be reached
G1 Z0.500 F7800.000
G1 E5.51487 F2400.00000
G92 E0
G1 X101.753 Y104.079 F7800.000
G1 E2.00000 F2400.00000
G1 X101.708 Y104.334 E2.00407 F900.000
G1 X101.619 Y104.658 E2.00936
G1 X101.503 Y104.974 E2.01465
G1 X101.359 Y105.277 E2.01994
G1 X101.189 Y105.567 E2.02523
G1 X100.993 Y105.841 E2.03053
G1 X100.775 Y106.097 E2.03582
G1 X100.534 Y106.332 E2.04111
G1 X100.274 Y106.545 E2.04640
G1 X100.037 Y106.706 E2.05092
G1 X99.704 Y106.897 E2.05696
G1 X99.396 Y107.035 E2.06227
G1 X99.078 Y107.144 E2.06756
G1 X98.752 Y107.225 E2.07285
G1 X98.420 Y107.277 E2.07814
G1 X98.084 Y107.299 E2.08343
G1 X97.748 Y107.292 E2.08872
G1 X97.414 Y107.255 E2.09401
G1 X97.084 Y107.188 E2.09930
G1 X96.762 Y107.093 E2.10460
G1 X96.449 Y106.969 E2.10989
G1 X96.149 Y106.819 E2.11518
G1 X95.863 Y106.642 E2.12047
G1 X95.593 Y106.441 E2.12576
G1 X95.343 Y106.217 E2.13105
G1 X95.113 Y105.971 E2.13634
G1 X94.906 Y105.706 E2.14163
G1 X94.723 Y105.424 E2.14692
G1 X94.566 Y105.127 E2.15221
G1 X94.435 Y104.817 E2.15750
G1 X94.333 Y104.497 E2.16280
G1 X94.259 Y104.169 E2.16809
G1 X94.215 Y103.836 E2.17338
G1 X94.200 Y103.500 E2.17867
G1 X94.215 Y103.164 E2.18396
G1 X94.259 Y102.831 E2.18925
G1 X94.333 Y102.503 E2.19454
G1 X94.435 Y102.183 E2.19983
G1 X94.547 Y101.918 E2.20435
G1 X94.722 Y101.577 E2.21039
G1 X94.906 Y101.294 E2.21570
G1 X95.113 Y101.029 E2.22099
G1 X95.343 Y100.783 E2.22628
G1 X95.593 Y100.559 E2.23158
G1 X95.863 Y100.358 E2.23687
G1 X96.149 Y100.181 E2.24216
G1 X96.449 Y100.031 E2.24745
G1 X96.762 Y99.907 E2.25274
G1 X97.084 Y99.812 E2.25803
G1 X97.431 Y99.742 E2.26360
G1 X98.031 Y99.702 E2.27306 F900.000
G1 X98.418 Y99.723 E2.27917
G1 X98.752 Y99.775 E2.28448
G1 X99.078 Y99.856 E2.28977
G1 X99.396 Y99.965 E2.29506
G1 X99.703 Y100.103 E2.30035
G1 X99.996 Y100.266 E2.30564
G1 X100.274 Y100.456 E2.31093
G1 X100.534 Y100.668 E2.31622
G1 X100.775 Y100.903 E2.32151
G1 X100.993 Y101.159 E2.32680
G1 X101.189 Y101.433 E2.33209
G1 X101.359 Y101.723 E2.33738
G1 X101.503 Y102.026 E2.34268
G1 X101.619 Y102.342 E2.34797
G1 X101.708 Y102.666 E2.35326
G1 X101.767 Y102.997 E2.35855
G1 X101.796 Y103.332 E2.36384
G1 X101.796 Y103.668 E2.36913
G1 X101.764 Y104.020 E2.37470
G1 X101.955 Y104.241 F7800.000
G1 E0.37470 F2400.00000
G92 E0
G1 X94.813 Y99.627 F7800.000
G1 E2.00000 F2400.00000
G1 X94.127 Y100.360 E2.02747 F900.000
G1 X94.127 Y99.627 E2.04753
G1 X94.753 Y99.627 E2.06466
G1 X93.469 Y98.969 F7800.000
G1 X96.914 Y98.969 E2.15898 F900.000
G1 X96.963 Y99.307 E2.16834
G1 X96.593 Y99.416 E2.17890
G1 X96.237 Y99.557 E2.18936
G1 X95.896 Y99.728 E2.19982
G1 X95.571 Y99.929 E2.21028
G1 X95.265 Y100.157 E2.22075
G1 X94.980 Y100.412 E2.23121
G1 X94.719 Y100.691 E2.24167
G1 X94.483 Y100.992 E2.25213
G1 X94.273 Y101.316 E2.26271
G1 X94.077 Y101.698 E2.27447
G1 X93.949 Y102.003 E2.28351
G1 X93.803 Y102.458 E2.29661
G1 X93.469 Y102.406 E2.30587
G1 X93.469 Y99.029 E2.39835
G1 X101.153 Y99.627 F7800.000
G1 X101.873 Y99.627 E2.41806 F900.000
G1 X101.873 Y100.331 E2.43733
G1 X101.196 Y99.669 E2.46325
G1 X102.531 Y98.969 F7800.000
G1 X102.531 Y102.413 E2.55756 F900.000
G1 X102.189 Y102.459 E2.56703
G1 X102.114 Y102.183 E2.57485
G1 X101.981 Y101.825 E2.58531
G1 X101.818 Y101.480 E2.59577
G1 X101.624 Y101.150 E2.60624
G1 X101.402 Y100.839 E2.61670
G1 X101.154 Y100.549 E2.62716
G1 X100.881 Y100.282 E2.63762
G1 X100.585 Y100.040 E2.64808
G1 X100.269 Y99.825 E2.65854
G1 X99.935 Y99.639 E2.66901
G1 X99.586 Y99.483 E2.67947
G1 X99.054 Y99.316 E2.69474
G1 X99.097 Y98.969 E2.70432
G1 X102.471 Y98.969 E2.79672
G1 X101.873 Y106.669 F7800.000
G1 X101.873 Y107.373 E2.81599 F900.000
G1 X101.153 Y107.373 E2.83570
G1 X101.830 Y106.711 E2.86162
G1 X102.531 Y108.031 F7800.000
G1 X99.097 Y108.031 E2.95566 F900.000
G1 X99.054 Y107.684 E2.96524
G1 X99.586 Y107.517 E2.98051
G1 X99.939 Y107.360 E2.99109
G1 X100.312 Y107.146 E3.00285
G1 X100.585 Y106.960 E3.01189
G1 X100.881 Y106.718 E3.02235
G1 X101.154 Y106.451 E3.03282
G1 X101.402 Y106.161 E3.04328
G1 X101.624 Y105.850 E3.05374
G1 X101.818 Y105.520 E3.06420
G1 X101.981 Y105.175 E3.07466
G1 X102.114 Y104.817 E3.08512
G1 X102.189 Y104.541 E3.09294
G1 X102.531 Y104.587 E3.10241
G1 X102.531 Y107.971 E3.19508
G1 X94.813 Y107.373 F7800.000
G1 X94.127 Y107.373 E3.21385 F900.000
G1 X94.127 Y106.640 E3.23391
G1 X94.772 Y107.329 E3.25974
G1 X93.469 Y108.031 F7800.000
G1 X93.469 Y104.594 E3.35386 F900.000
G1 X93.803 Y104.542 E3.36312
G1 X93.949 Y104.997 E3.37622
G1 X94.097 Y105.349 E3.38668
G1 X94.275 Y105.687 E3.39714
G1 X94.483 Y106.008 E3.40760
G1 X94.719 Y106.309 E3.41807
G1 X94.980 Y106.588 E3.42853
G1 X95.265 Y106.843 E3.43899
G1 X95.571 Y107.071 E3.44945
G1 X95.896 Y107.272 E3.45991
G1 X96.237 Y107.443 E3.47038
G1 X96.593 Y107.584 E3.48084
G1 X96.963 Y107.693 E3.49139
G1 X96.914 Y108.031 E3.50076
G1 X93.529 Y108.031 E3.59344
G1 X93.116 Y108.384 F7800.000
G1 X92.950 Y108.217 E3.59714 F900.000
G1 X92.950 Y98.783 E3.74562
G1 X93.283 Y98.450 E3.75302
G1 X102.717 Y98.450 E3.90150
G1 X103.050 Y98.783 E3.90891
G1 X103.050 Y108.217 E4.05738 F900.000
G1 X102.717 Y108.550 E4.06479
G1 X93.283 Y108.550 E4.21327
G1 X93.159 Y108.426 E4.21603
G1 X93.177 Y108.156 F7800.000
G1 X97.196 Y107.892 F7800.000
G1 X98.082 Y107.925 E4.26537 F1200.000
G1 X98.819 Y107.901 E4.30644
G1 X102.396 Y104.307 F7800.000
G1 X102.423 Y103.680 E4.34140 F1200.000
G1 X102.396 Y102.693 E4.39633
G1 X98.820 Y99.097 F7800.000
G1 X98.005 Y99.076 E4.44170 F1200.000
G1 X97.195 Y99.103 E4.48678
G1 X93.611 Y102.691 F7800.000
G1 X93.575 Y103.484 E4.53095 F1200.000
G1 X93.611 Y104.309 E4.57691
G1 E2.57691 F2400.00000
G92 E0
G1 X111.622 Y103.918 F7800.000
G1 E2.00000 F2400.00000
G1 X111.554 Y103.616 E2.00487 F900.000
G1 X111.514 Y103.309 E2.00975
G1 X111.500 Y103.000 E2.01462
G1 X111.514 Y102.691 E2.01949
G1 X111.554 Y102.384 E2.02437
G1 X111.623 Y102.078 E2.02930
G1 X111.816 Y101.551 E2.03813
G1 X111.981 Y101.229 E2.04383
G1 X112.150 Y100.968 E2.04872
G1 X112.341 Y100.724 E2.05360
G1 X112.553 Y100.498 E2.05847
G1 X112.783 Y100.291 E2.06334
G1 X113.031 Y100.106 E2.06822
G1 X113.295 Y99.943 E2.07309
G1 X113.572 Y99.805 E2.07796
G1 X113.860 Y99.691 E2.08283
G1 X114.157 Y99.603 E2.08771
G1 X114.460 Y99.542 E2.09258
G1 X114.768 Y99.508 E2.09745
G1 X115.081 Y99.501 E2.10238 F900.000
G1 X115.387 Y99.521 E2.10720
G1 X115.692 Y99.569 E2.11207
G1 X115.993 Y99.644 E2.11695
G1 X116.286 Y99.744 E2.12182
G1 X116.568 Y99.871 E2.12669
G1 X116.839 Y100.022 E2.13157
G1 X117.095 Y100.196 E2.13644
G1 X117.334 Y100.392 E2.14131
G1 X117.556 Y100.608 E2.14619
G1 X117.757 Y100.844 E2.15106
G1 X117.937 Y101.096 E2.15593
G1 X118.094 Y101.363 E2.16081
G1 X118.226 Y101.643 E2.16568
G1 X118.335 Y101.937 E2.17062
G1 X118.460 Y102.484 E2.17944
G1 X118.497 Y102.844 E2.18514
G1 X118.497 Y103.155 E2.19004
G1 X118.469 Y103.463 E2.19491
G1 X118.414 Y103.772 E2.19985
G1 X118.245 Y104.307 E2.20867
G1 X118.094 Y104.636 E2.21437
G1 X117.937 Y104.904 E2.21927
G1 X117.757 Y105.156 E2.22414
G1 X117.556 Y105.392 E2.22901
G1 X117.334 Y105.608 E2.23389
G1 X117.095 Y105.804 E2.23876
G1 X116.839 Y105.978 E2.24363
G1 X116.568 Y106.129 E2.24851
G1 X116.286 Y106.256 E2.25338
G1 X115.993 Y106.356 E2.25825
G1 X115.692 Y106.431 E2.26312
G1 X115.386 Y106.479 E2.26800
G1 X115.077 Y106.499 E2.27287
G1 X114.768 Y106.492 E2.27774
G1 X114.460 Y106.458 E2.28262
G1 X114.157 Y106.397 E2.28749
G1 X113.860 Y106.309 E2.29236
G1 X113.572 Y106.195 E2.29724
G1 X113.295 Y106.057 E2.30211
G1 X113.031 Y105.894 E2.30698
G1 X112.783 Y105.709 E2.31186
G1 X112.553 Y105.502 E2.31673
G1 X112.341 Y105.276 E2.32160
G1 X112.150 Y105.032 E2.32648
G1 X111.982 Y104.772 E2.33135
G1 X111.837 Y104.499 E2.33622
G1 X111.641 Y103.976 E2.34502
G1 X111.323 Y103.839 F7800.000
G1 X111.195 Y101.739 F7800.000
G1 X110.869 Y101.682 E2.35409 F900.000
G1 X110.869 Y98.869 E2.43111
G1 X113.655 Y98.869 E2.50741
G1 X113.716 Y99.190 E2.51636
