; generated by Slic3r 1.2.9 on 2016-02-20 at 23:17:30

; external perimeters extrusion width = 0.40mm
; perimeters extrusion width = 0.68mm
; infill extrusion width = 1.28mm
; solid infill extrusion width = 0.68mm
; top infill extrusion width = 0.68mm
; support material extrusion width = 0.40mm

M107
M190 S65 ; set bed temperature
M104 S230 ; set temperature
G28 ; home all axes
G1 Z5 F5000 ; lift nozzle

M109 S230 ; wait for temperature to be reached
G21 ; set units to millimeters
G90 ; use absolute coordinates
M82 ; use absolute distances for extrusion
G92 E0
G1 Z0.400 F7800.000
G1 E-2.00000 F2400.00000
G92 E0
G1 X83.807 Y88.607 F7800.000
G1 E2.00000 F2400.00000
G1 X85.696 Y87.280 E2.27422 F1800.000
G1 X88.555 Y86.641 E2.62209
G1 X96.959 Y86.641 E3.62019
G1 X131.039 Y86.661 E7.66771 F1800.000
G1 X133.313 Y87.059 E7.94193
G1 X135.783 Y88.627 E8.28934
G1 X135.983 Y88.827 E8.32294
G1 X137.310 Y90.717 E8.59716
G1 X137.949 Y93.575 E8.94503
G1 X137.949 Y102.135 E9.96166
G1 X137.552 Y104.410 E10.23588
G1 X136.227 Y106.625 E10.54242
G1 X120.354 Y124.275 E13.36161
G1 X119.910 Y124.733 E13.43742
G1 X118.021 Y126.060 E13.71165
G1 X115.162 Y126.699 E14.05952
G1 X106.233 Y126.696 E15.11993
G1 X88.226 Y126.136 E17.25958
G1 X85.965 Y125.668 E17.53380
G1 X83.687 Y124.173 E17.85744
G1 X83.487 Y123.973 E17.89103
G1 X82.160 Y122.084 E18.16526
G1 X81.521 Y119.225 E18.51313
G1 X81.521 Y110.538 E19.54488
G1 X81.641 Y93.508 E21.56750
G1 X82.054 Y91.236 E21.84172
G1 X83.607 Y88.807 E22.18411
G1 X83.765 Y88.650 E22.21057
G1 E20.21057 F2400.00000
G92 E0
G1 X113.250 Y118.160 F7800.000
G1 E2.00000 F2400.00000
G1 X112.999 Y118.365 E2.03856 F1800.000
G1 X112.730 Y118.548 E2.07713
G1 X112.447 Y118.706 E2.11569
G1 X112.150 Y118.839 E2.15425
G1 X111.843 Y118.945 E2.19282
G1 X111.528 Y119.023 E2.23138
G1 X111.207 Y119.073 E2.26995
G1 X110.883 Y119.094 E2.30851
G1 X110.559 Y119.087 E2.34707
G1 X110.236 Y119.051 E2.38564
G1 X109.918 Y118.987 E2.42420
G1 X109.606 Y118.895 E2.46277
G1 X109.304 Y118.776 E2.50133
G1 X109.014 Y118.630 E2.53989
G1 X108.738 Y118.460 E2.57846
G1 X108.478 Y118.265 E2.61702
G1 X108.236 Y118.049 E2.65559
G1 X108.008 Y117.806 E2.69516
G1 X107.654 Y117.310 E2.76746
G1 X107.486 Y116.998 E2.80963
G1 X107.359 Y116.697 E2.84834
G1 X107.260 Y116.388 E2.88691
G1 X107.189 Y116.071 E2.92547
G1 X107.146 Y115.749 E2.96403
G1 X107.132 Y115.425 E3.00260
G1 X107.146 Y115.101 E3.04116
G1 X107.189 Y114.779 E3.07973
G1 X107.260 Y114.462 E3.11829
G1 X107.359 Y114.153 E3.15685
G1 X107.485 Y113.853 E3.19542
G1 X107.637 Y113.566 E3.23398
G1 X107.814 Y113.294 E3.27255
G1 X108.014 Y113.038 E3.31111
G1 X108.236 Y112.801 E3.34967
G1 X108.478 Y112.584 E3.38824
G1 X108.738 Y112.390 E3.42680
G1 X109.014 Y112.220 E3.46536
G1 X109.304 Y112.074 E3.50393
G1 X109.606 Y111.955 E3.54249
G1 X109.918 Y111.863 E3.58106
G1 X110.244 Y111.797 E3.62063
G1 X110.852 Y111.755 E3.69293 F1800.000
G1 X111.206 Y111.777 E3.73510
G1 X111.528 Y111.827 E3.77381
G1 X111.843 Y111.905 E3.81238
G1 X112.150 Y112.011 E3.85094
G1 X112.447 Y112.144 E3.88950
G1 X112.730 Y112.302 E3.92807
G1 X112.999 Y112.484 E3.96663
G1 X113.250 Y112.690 E4.00520
G1 X113.482 Y112.917 E4.04376
G1 X113.693 Y113.164 E4.08232
G1 X113.882 Y113.428 E4.12089
G1 X114.046 Y113.708 E4.15945
G1 X114.185 Y114.002 E4.19802
G1 X114.298 Y114.306 E4.23658
G1 X114.383 Y114.620 E4.27514
G1 X114.440 Y114.939 E4.31371
G1 X114.469 Y115.263 E4.35227
G1 X114.469 Y115.587 E4.39084
G1 X114.440 Y115.911 E4.42940
G1 X114.383 Y116.230 E4.46796
G1 X114.298 Y116.544 E4.50653
G1 X114.185 Y116.848 E4.54509
G1 X114.046 Y117.142 E4.58366
G1 X113.882 Y117.422 E4.62222
G1 X113.693 Y117.686 E4.66078
G1 X113.482 Y117.933 E4.69935
G1 X113.293 Y118.118 E4.73079
G1 X113.312 Y118.479 F7800.000
G1 X114.962 Y119.585 F7800.000
G1 X106.642 Y119.585 E5.71891 F1800.000
G1 X106.642 Y111.265 E6.70704
G1 X114.962 Y111.265 E7.69517
G1 X114.962 Y119.525 E8.67617
G1 X114.616 Y119.385 F7800.000
G1 X114.438 Y117.544 F7800.000
G1 X114.247 Y118.139 E8.83360 F1800.000
G1 X114.044 Y118.667 E8.97598
G1 X113.418 Y118.903 E9.14442
G1 X112.916 Y119.058 E9.27683
G1 X108.687 Y119.053 F7800.000
G1 X108.023 Y118.847 E9.45194 F1800.000
G1 X107.559 Y118.668 E9.57723
G1 X107.403 Y118.267 E9.68550
G1 X107.166 Y117.529 E9.88082
G1 X107.171 Y113.313 F7800.000
G1 X107.292 Y112.906 E9.98766 F1800.000
G1 X107.559 Y112.182 E10.18198
G1 X108.023 Y112.003 E10.30727
G1 X108.687 Y111.797 E10.48239
G1 X112.916 Y111.791 F7800.000
G1 X113.418 Y111.947 E10.61480 F1800.000
G1 X114.044 Y112.183 E10.78323
G1 X114.247 Y112.711 E10.92562
G1 X114.438 Y113.306 E11.08305
G1 E9.08305 F2400.00000
G92 E0
G1 X110.771 Y101.239 F7800.000
G1 E2.00000 F2400.00000
G1 X110.159 Y101.363 E2.07413 F1800.000
G1 X109.825 Y101.385 E2.11386
G1 X109.203 Y101.344 E2.18799
G1 X108.588 Y101.191 E2.26318
G1 X108.010 Y100.933 E2.33836
G1 X107.494 Y100.582 E2.41249
G1 X107.245 Y100.359 E2.45222
G1 X106.839 Y99.885 E2.52635
G1 X106.523 Y99.346 E2.60048
G1 X106.393 Y99.038 E2.64021
G1 X106.229 Y98.436 E2.71434
G1 X106.173 Y97.805 E2.78953
G1 X106.229 Y97.183 E2.86366
G1 X106.302 Y96.857 E2.90334
G1 X106.506 Y96.301 E2.97375
G1 X106.667 Y95.993 E3.01498
G1 X106.845 Y95.719 E3.05380
G1 X107.251 Y95.245 E3.12793
G1 X107.741 Y94.844 E3.20311
G1 X108.293 Y94.535 E3.27830
G1 X108.884 Y94.332 E3.35243
G1 X109.203 Y94.267 E3.39110
G1 X109.555 Y94.228 E3.43314
G1 X110.149 Y94.246 E3.50378 F1800.000
G1 X110.472 Y94.297 E3.54260
G1 X111.071 Y94.474 E3.61673
G1 X111.636 Y94.757 E3.69192
G1 X112.144 Y95.136 E3.76711
G1 X112.576 Y95.599 E3.84229
G1 X112.916 Y96.122 E3.91642
G1 X113.059 Y96.424 E3.95611
G1 X113.241 Y96.989 E4.02652
G1 X113.304 Y97.330 E4.06774
G1 X113.333 Y97.656 E4.10656
G1 X113.305 Y98.279 E4.18069
G1 X113.168 Y98.888 E4.25482
G1 X113.052 Y99.202 E4.29455
G1 X112.760 Y99.753 E4.36868
G1 X112.370 Y100.252 E4.44387
G1 X111.898 Y100.674 E4.51906
G1 X111.360 Y101.007 E4.59424
G1 X110.827 Y101.217 E4.66231
G1 X110.666 Y101.625 F7800.000
G1 X113.795 Y101.845 F7800.000
G1 X105.715 Y101.845 E5.62193 F1800.000
G1 X105.715 Y93.765 E6.58155
G1 X113.795 Y93.765 E7.54117
G1 X113.795 Y101.785 E8.49367
G1 X113.449 Y101.645 F7800.000
G1 X113.359 Y101.053 F7800.000
G1 X113.009 Y100.702 E8.55253 F1800.000
G1 X113.185 Y100.255 F7800.000
G1 X113.418 Y99.299 E8.66943 F1800.000
G1 X112.113 Y100.962 F7800.000
G1 X111.497 Y101.415 E8.76026 F1800.000
G1 X111.216 Y101.468 E8.79418
G1 X107.641 Y101.319 F7800.000
G1 X107.081 Y101.146 E8.94167 F1800.000
G1 X106.598 Y100.962 E9.07188
G1 X106.342 Y100.268 E9.25805
G1 X106.249 Y99.935 E9.34518
G1 X106.092 Y96.336 F7800.000
G1 X106.137 Y96.096 E9.37419 F1800.000
G1 X106.558 Y95.505 E9.46042
G1 X106.913 Y94.599 F7800.000
G1 X106.514 Y94.201 E9.52738 F1800.000
G1 X107.539 Y94.547 F7800.000
G1 X108.079 Y94.180 E9.60496 F1800.000
G1 X108.277 Y94.142 E9.62885
G1 X111.244 Y94.141 F7800.000
G1 X111.877 Y94.290 E9.70616 F1800.000
G1 X112.002 Y94.238 E9.72225
G1 X112.660 Y94.143 E9.80121
G1 X112.802 Y94.122 F7800.000
G1 X113.266 Y95.690 E10.21295 F1800.000
G1 E8.21295 F2400.00000
G92 E0
G1 X96.275 Y98.225 F7800.000
G1 E2.00000 F2400.00000
G1 X96.140 Y98.829 E2.07350 F1800.000
G1 X96.024 Y99.140 E2.11291
G1 X95.735 Y99.687 E2.18641
G1 X95.348 Y100.182 E2.26097
G1 X94.881 Y100.600 E2.33553
G1 X94.346 Y100.930 E2.41009
G1 X93.771 Y101.157 E2.48359
G1 X93.449 Y101.237 E2.52300
G1 X92.834 Y101.306 E2.59650
G1 X92.207 Y101.264 E2.67106
G1 X91.598 Y101.113 E2.74562
G1 X91.025 Y100.857 E2.82017
G1 X90.513 Y100.509 E2.89367
G1 X90.266 Y100.287 E2.93309
G1 X89.863 Y99.817 E3.00659
G1 X89.550 Y99.283 E3.08009
G1 X89.421 Y98.978 E3.11946
G1 X89.266 Y98.411 E3.18923
G1 X89.219 Y98.070 E3.23014
G1 X89.204 Y97.746 E3.26865
G1 X89.258 Y97.139 E3.34109
G1 X89.331 Y96.815 E3.38050
G1 X89.545 Y96.234 E3.45401
G1 X89.863 Y95.693 E3.52856
G1 X90.272 Y95.216 E3.60312
G1 X90.757 Y94.818 E3.67768
G1 X91.306 Y94.513 E3.75224
G1 X91.891 Y94.311 E3.82574
G1 X92.216 Y94.245 E3.86511
G1 X92.802 Y94.205 E3.93488 F1800.000
G1 X93.146 Y94.226 E3.97579
G1 X93.488 Y94.280 E4.01698
G1 X94.060 Y94.452 E4.08795
G1 X94.621 Y94.733 E4.16238
G1 X95.117 Y95.103 E4.23588
G1 X95.347 Y95.329 E4.27424
G1 X95.617 Y95.645 E4.32353
G1 X95.891 Y96.091 E4.38573
G1 X96.031 Y96.386 E4.42456
G1 X96.220 Y96.976 E4.49806
G1 X96.303 Y97.598 E4.57262
G1 X96.278 Y98.165 E4.64005
G1 X96.585 Y98.478 F7800.000
G1 X96.755 Y101.755 F7800.000
G1 X88.755 Y101.755 E5.59017 F1800.000
G1 X88.755 Y93.755 E6.54029
G1 X96.755 Y93.755 E7.49042
G1 X96.755 Y101.695 E8.43341
G1 X96.409 Y101.555 F7800.000
G1 X96.319 Y101.005 F7800.000
G1 X95.969 Y100.655 E8.49226 F1800.000
G1 X96.147 Y100.208 F7800.000
G1 X96.378 Y99.270 E8.60698 F1800.000
G1 X95.095 Y100.888 F7800.000
G1 X94.498 Y101.329 E8.69511 F1800.000
G1 X94.236 Y101.378 E8.72677
G1 X90.636 Y101.229 F7800.000
G1 X90.106 Y101.065 E8.86639 F1800.000
G1 X89.627 Y100.883 E8.99530
G1 X89.373 Y100.195 E9.17991
G1 X89.289 Y99.894 E9.25861
G1 X89.132 Y96.266 F7800.000
G1 X89.173 Y96.044 E9.28547 F1800.000
G1 X89.571 Y95.485 E9.36702
G1 X89.940 Y94.590 F7800.000
G1 X89.542 Y94.191 E9.43398 F1800.000
G1 X90.556 Y94.522 F7800.000
G1 X91.077 Y94.168 E9.50878 F1800.000
G1 X91.252 Y94.132 E9.53007
G1 X94.257 Y94.131 F7800.000
G1 X95.220 Y94.358 E9.64756 F1800.000
G1 X95.976 Y94.191 F7800.000
G1 X96.319 Y94.534 E9.70517 F1800.000
G1 X95.907 Y95.434 F7800.000
G1 X96.332 Y96.032 E9.79230 F1800.000
G1 X96.379 Y96.243 E9.81796
G1 E7.81796 F2400.00000
G92 E0
G1 X93.788 Y111.414 F7800.000
G1 E2.00000 F2400.00000
G1 X94.092 Y111.519 E2.03825 F1800.000
G1 X94.386 Y111.651 E2.07650
G1 X94.667 Y111.807 E2.11475
G1 X94.934 Y111.989 E2.15299
G1 X95.183 Y112.193 E2.19124
G1 X95.413 Y112.418 E2.22949
G1 X95.623 Y112.662 E2.26774
G1 X95.810 Y112.925 E2.30599
G1 X95.973 Y113.202 E2.34424
G1 X96.111 Y113.493 E2.38249
G1 X96.222 Y113.795 E2.42074
G1 X96.307 Y114.106 E2.45898
G1 X96.363 Y114.423 E2.49723
G1 X96.392 Y114.744 E2.53548
G1 X96.392 Y115.066 E2.57373
G1 X96.363 Y115.387 E2.61198
G1 X96.307 Y115.704 E2.65023
G1 X96.222 Y116.015 E2.68848
G1 X96.111 Y116.317 E2.72673
G1 X95.973 Y116.608 E2.76497
G1 X95.810 Y116.885 E2.80322
G1 X95.623 Y117.148 E2.84147
G1 X95.413 Y117.392 E2.87972
G1 X95.183 Y117.618 E2.91797
G1 X94.934 Y117.822 E2.95622
G1 X94.667 Y118.003 E2.99447
G1 X94.386 Y118.160 E3.03272
G1 X94.092 Y118.291 E3.07096
G1 X93.788 Y118.396 E3.10921
G1 X93.475 Y118.474 E3.14746
G1 X93.157 Y118.523 E3.18571
G1 X92.836 Y118.545 E3.22396
G1 X92.514 Y118.537 E3.26221
G1 X92.193 Y118.502 E3.30046
G1 X91.878 Y118.438 E3.33870
G1 X91.569 Y118.347 E3.37695
G1 X91.269 Y118.229 E3.41520
G1 X90.981 Y118.084 E3.45345
G1 X90.707 Y117.915 E3.49170
G1 X90.449 Y117.722 E3.52995
G1 X90.209 Y117.508 E3.56820
G1 X89.989 Y117.272 E3.60645
G1 X89.791 Y117.019 E3.64469
G1 X89.616 Y116.748 E3.68294
G1 X89.465 Y116.464 E3.72119
G1 X89.340 Y116.167 E3.75944
G1 X89.242 Y115.860 E3.79769
G1 X89.171 Y115.546 E3.83594
G1 X89.129 Y115.227 E3.87419
G1 X89.115 Y114.905 E3.91244
G1 X89.129 Y114.583 E3.95068
G1 X89.171 Y114.264 E3.98893
G1 X89.244 Y113.942 E4.02820
G1 X89.452 Y113.375 E4.09986
G1 X89.615 Y113.063 E4.14172
G1 X89.791 Y112.791 E4.18011
G1 X89.989 Y112.538 E4.21836
G1 X90.209 Y112.303 E4.25661
G1 X90.449 Y112.088 E4.29486
G1 X90.707 Y111.895 E4.33311
G1 X90.982 Y111.726 E4.37136
G1 X91.269 Y111.582 E4.40961
G1 X91.569 Y111.463 E4.44785
G1 X91.878 Y111.372 E4.48610
G1 X92.202 Y111.307 E4.52537
G1 X92.804 Y111.265 E4.59703 F1800.000
G1 X93.156 Y111.287 E4.63889
G1 X93.475 Y111.337 E4.67728
G1 X93.729 Y111.400 E4.70841
G1 X94.024 Y111.196 F7800.000
G1 X96.875 Y110.785 F7800.000
G1 X96.875 Y119.025 E5.68703 F1800.000
G1 X88.635 Y119.025 E6.66566
G1 X88.635 Y110.785 E7.64428
G1 X96.815 Y110.785 E8.61578
G1 X96.675 Y111.131 F7800.000
G1 X94.874 Y111.311 F7800.000
G1 X95.348 Y111.458 E8.74050 F1800.000
G1 X95.968 Y111.692 E8.90751
G1 X96.169 Y112.215 E9.04870
G1 X96.351 Y112.782 E9.19846
G1 X96.351 Y117.028 F7800.000
G1 X96.169 Y117.595 E9.34822 F1800.000
G1 X95.968 Y118.118 E9.48941
G1 X95.348 Y118.352 E9.65641
G1 X94.874 Y118.499 E9.78113
G1 X90.633 Y118.494 F7800.000
G1 X90.001 Y118.297 E9.94778 F1800.000
G1 X89.541 Y118.119 E10.07188
G1 X89.276 Y117.401 E10.26454
G1 X89.164 Y117.024 E10.36366
G1 X89.164 Y112.786 F7800.000
G1 X89.276 Y112.409 E10.46277 F1800.000
G1 X89.541 Y111.691 E10.65543
G1 X90.001 Y111.514 E10.77953
G1 X90.633 Y111.317 E10.94618
G1 E8.94618 F2400.00000
G92 E0
G1 X123.380 Y99.136 F7800.000
G1 E2.00000 F2400.00000
G1 X123.271 Y98.804 E2.04154 F1800.000
G1 X123.201 Y98.491 E2.07962
G1 X123.159 Y98.174 E2.11755
G1 X123.145 Y97.855 E2.15549
G1 X123.159 Y97.527 E2.19443
G1 X123.263 Y96.938 E2.26547
G1 X123.368 Y96.605 E2.30701
G1 X123.492 Y96.309 E2.34509
G1 X123.642 Y96.027 E2.38303
G1 X123.815 Y95.759 E2.42096
G1 X124.012 Y95.507 E2.45889
G1 X124.230 Y95.274 E2.49683
G1 X124.468 Y95.061 E2.53476
G1 X124.724 Y94.870 E2.57269
G1 X124.996 Y94.702 E2.61063
G1 X125.282 Y94.559 E2.64856
G1 X125.579 Y94.442 E2.68649
G1 X125.885 Y94.351 E2.72443
G1 X126.206 Y94.286 E2.76337
G1 X126.803 Y94.245 E2.83441 F1800.000
G1 X127.152 Y94.267 E2.87595
G1 X127.469 Y94.316 E2.91403
G1 X127.779 Y94.393 E2.95197
G1 X128.081 Y94.497 E2.98990
G1 X128.373 Y94.627 E3.02783
G1 X128.652 Y94.783 E3.06577
G1 X128.916 Y94.963 E3.10370
G1 X129.163 Y95.165 E3.14163
G1 X129.391 Y95.388 E3.17957
G1 X129.599 Y95.631 E3.21750
G1 X129.784 Y95.891 E3.25543
G1 X129.946 Y96.166 E3.29337
G1 X130.083 Y96.455 E3.33130
G1 X130.194 Y96.755 E3.36924
G1 X130.277 Y97.063 E3.40717
G1 X130.334 Y97.377 E3.44510
G1 X130.362 Y97.695 E3.48303
G1 X130.362 Y98.015 E3.52097
G1 X130.333 Y98.341 E3.55992
G1 X130.203 Y98.925 E3.63095
G1 X130.083 Y99.254 E3.67249
G1 X129.946 Y99.544 E3.71057
G1 X129.784 Y99.819 E3.74851
G1 X129.599 Y100.079 E3.78644
G1 X129.391 Y100.322 E3.82437
G1 X129.163 Y100.545 E3.86231
G1 X128.916 Y100.747 E3.90024
G1 X128.652 Y100.927 E3.93817
G1 X128.373 Y101.083 E3.97611
G1 X128.081 Y101.213 E4.01404
G1 X127.779 Y101.317 E4.05198
G1 X127.469 Y101.394 E4.08991
G1 X127.154 Y101.443 E4.12784
G1 X126.835 Y101.465 E4.16578
G1 X126.516 Y101.457 E4.20371
G1 X126.198 Y101.422 E4.24164
G1 X125.885 Y101.359 E4.27958
G1 X125.579 Y101.268 E4.31751
G1 X125.282 Y101.151 E4.35544
G1 X124.996 Y101.008 E4.39338
G1 X124.724 Y100.840 E4.43131
G1 X124.468 Y100.649 E4.46924
G1 X124.230 Y100.436 E4.50718
G1 X124.012 Y100.203 E4.54511
G1 X123.815 Y99.951 E4.58304
G1 X123.637 Y99.676 E4.62199
G1 X123.406 Y99.190 E4.68590
G1 X123.035 Y99.079 F7800.000
G1 X122.675 Y101.935 F7800.000
G1 X122.675 Y93.775 E5.65503 F1800.000
G1 X130.835 Y93.775 E6.62415
G1 X130.835 Y101.935 E7.59327
G1 X122.735 Y101.935 E8.55527
G1 X122.875 Y101.589 F7800.000
G1 X123.653 Y101.056 F7800.000
G1 X123.320 Y100.722 E8.61125 F1800.000
G1 X123.302 Y100.312 F7800.000
G1 X123.186 Y99.917 E8.66014 F1800.000
G1 X123.051 Y99.319 E8.73296
G1 X124.242 Y100.926 F7800.000
G1 X124.515 Y101.149 E8.77484 F1800.000
G1 X125.001 Y101.499 E8.84595
G1 X125.288 Y101.558 E8.88072
G1 X128.880 Y101.409 F7800.000
G1 X129.324 Y101.271 E8.99776 F1800.000
G1 X129.939 Y101.039 E9.16333
G1 X130.138 Y100.520 E9.30331
G1 X130.311 Y99.983 E9.44540
G1 X130.311 Y95.727 F7800.000
G1 X130.138 Y95.190 E9.58750 F1800.000
G1 X129.939 Y94.671 E9.72748
G1 X129.324 Y94.439 E9.89305
G1 X128.880 Y94.301 E10.01008
G1 X125.288 Y94.152 F7800.000
G1 X125.001 Y94.211 E10.04486 F1800.000
G1 X124.515 Y94.561 E10.11597
G1 X124.242 Y94.784 E10.15785
G1 X123.576 Y94.863 F7800.000
G1 X123.131 Y94.418 E10.23264 F1800.000
G1 X123.302 Y95.398 F7800.000
