; generated by Slic3r 1.2.9 on 2016-02-21 at 14:47:08

; external perimeters extrusion width = 0.40mm
; perimeters extrusion width = 0.68mm
; infill extrusion width = 1.28mm
; solid infill extrusion width = 0.68mm
; top infill extrusion width = 0.68mm
; support material extrusion width = 0.40mm

M107
M190 S65 ; set bed temperature
M104 S230 ; set temperature
G28 ; home all axes
G1 Z5 F5000 ; lift nozzle

M109 S230 ; wait for temperature to be reached
G21 ; set units to millimeters
G90 ; use absolute coordinates
M82 ; use absolute distances for extrusion
G92 E0
G1 Z0.400 F7800.000
G1 E-2.00000 F2400.00000
G92 E0
G1 X83.802 Y88.602 F7800.000
G1 E2.00000 F2400.00000
G1 X85.691 Y87.275 E2.27422 F1800.000
G1 X88.550 Y86.636 E2.62209
G1 X130.950 Y86.636 E7.65774
G1 X133.225 Y87.033 E7.93196
G1 X135.698 Y88.602 E8.27983 F1800.000
G1 X135.898 Y88.802 E8.31342
G1 X137.225 Y90.691 E8.58765
G1 X137.864 Y93.550 E8.93552
G1 X137.864 Y101.950 E9.93314
G1 X137.467 Y104.225 E10.20737
G1 X135.898 Y106.698 E10.55524
G1 X118.698 Y123.898 E13.44414
G1 X116.809 Y125.225 E13.71836
G1 X113.950 Y125.864 E14.06623
G1 X88.550 Y125.864 E17.08287
G1 X86.275 Y125.467 E17.35709
G1 X83.802 Y123.898 E17.70496
G1 X83.602 Y123.698 E17.73855
G1 X82.275 Y121.809 E18.01278
G1 X81.636 Y118.950 E18.36065
G1 X81.636 Y93.550 E21.37728
G1 X82.033 Y91.275 E21.65151
G1 X83.602 Y88.802 E21.99938
G1 X83.760 Y88.645 E22.02584
G1 E20.02584 F2400.00000
G92 E0
G1 X112.343 Y117.177 F7800.000
G1 E2.00000 F2400.00000
G1 X111.876 Y117.595 E2.07456 F1800.000
G1 X111.341 Y117.925 E2.14912
G1 X110.766 Y118.152 E2.22262
G1 X110.444 Y118.232 E2.26203
G1 X109.829 Y118.301 E2.33553
G1 X109.202 Y118.259 E2.41009
G1 X108.593 Y118.108 E2.48465
G1 X108.028 Y117.855 E2.55815
G1 X107.746 Y117.681 E2.59756
G1 X107.267 Y117.289 E2.67106
G1 X106.858 Y116.812 E2.74562
G1 X106.540 Y116.271 E2.82017
G1 X106.326 Y115.690 E2.89368
G1 X106.253 Y115.366 E2.93309
G1 X106.198 Y114.750 E3.00659
G1 X106.253 Y114.134 E3.08009
G1 X106.326 Y113.810 E3.11946
G1 X106.529 Y113.259 E3.18923
G1 X106.688 Y112.953 E3.23015
G1 X106.864 Y112.681 E3.26865
G1 X107.267 Y112.211 E3.34215
G1 X107.752 Y111.813 E3.41671
G1 X108.301 Y111.508 E3.49127
G1 X108.886 Y111.306 E3.56477
G1 X109.211 Y111.240 E3.60414
G1 X109.797 Y111.200 E3.67391 F1800.000
G1 X110.141 Y111.221 E3.71482
G1 X110.461 Y111.271 E3.75333
G1 X111.054 Y111.447 E3.82683
G1 X111.616 Y111.728 E3.90139
G1 X112.119 Y112.104 E3.97595
G1 X112.548 Y112.562 E4.05051
G1 X112.884 Y113.081 E4.12401
G1 X113.026 Y113.381 E4.16342
G1 X113.215 Y113.971 E4.23692
G1 X113.298 Y114.593 E4.31148
G1 X113.270 Y115.220 E4.38603
G1 X113.135 Y115.824 E4.45953
G1 X113.019 Y116.135 E4.49895
G1 X112.730 Y116.682 E4.57245
G1 X112.380 Y117.129 E4.63988
G1 X112.448 Y117.563 F7800.000
G1 X113.750 Y118.750 F7800.000
G1 X105.750 Y118.750 E5.59000 F1800.000
G1 X105.750 Y110.750 E6.54012
G1 X113.750 Y110.750 E7.49024
G1 X113.750 Y118.690 E8.43324
G1 X113.404 Y118.550 F7800.000
G1 X113.314 Y118.000 F7800.000
G1 X112.964 Y117.650 E8.49209 F1800.000
G1 X113.142 Y117.203 F7800.000
G1 X113.373 Y116.265 E8.60681 F1800.000
G1 X112.090 Y117.883 F7800.000
G1 X111.493 Y118.324 E8.69493 F1800.000
G1 X111.231 Y118.373 E8.72659
G1 X108.267 Y118.374 F7800.000
G1 X108.073 Y118.333 E8.75008 F1800.000
G1 X107.538 Y117.972 E8.82673
G1 X107.087 Y117.957 F7800.000
G1 X106.593 Y117.463 E8.90975 F1800.000
G1 X106.566 Y117.020 F7800.000
G1 X106.168 Y116.461 E8.99130 F1800.000
G1 X106.127 Y116.239 E9.01816
G1 X106.127 Y113.259 F7800.000
G1 X106.170 Y113.040 E9.04471 F1800.000
G1 X106.577 Y112.467 E9.12820
G1 X106.935 Y111.585 F7800.000
G1 X106.537 Y111.186 E9.19516 F1800.000
G1 X107.551 Y111.517 F7800.000
G1 X108.072 Y111.163 E9.26996 F1800.000
G1 X108.247 Y111.127 E9.29125
G1 X111.252 Y111.126 F7800.000
G1 X112.215 Y111.353 E9.40874 F1800.000
G1 X112.932 Y111.186 F7800.000
G1 X113.255 Y111.509 E9.46299 F1800.000
G1 X112.830 Y112.341 F7800.000
G1 X113.315 Y112.974 E9.55763 F1800.000
G1 X113.374 Y113.238 E9.58976
G1 E7.58976 F2400.00000
G92 E0
G1 X96.270 Y115.220 F7800.000
G1 E2.00000 F2400.00000
G1 X96.135 Y115.824 E2.07350 F1800.000
G1 X96.019 Y116.135 E2.11291
G1 X95.730 Y116.682 E2.18641
G1 X95.343 Y117.177 E2.26097
G1 X94.876 Y117.595 E2.33553
G1 X94.341 Y117.925 E2.41009
G1 X93.766 Y118.152 E2.48359
G1 X93.444 Y118.232 E2.52300
G1 X92.829 Y118.301 E2.59650
G1 X92.202 Y118.259 E2.67106
G1 X91.593 Y118.108 E2.74562
G1 X91.020 Y117.852 E2.82017
G1 X90.508 Y117.504 E2.89367
G1 X90.261 Y117.282 E2.93309
G1 X89.858 Y116.812 E3.00659
G1 X89.540 Y116.271 E3.08114
G1 X89.326 Y115.690 E3.15465
G1 X89.253 Y115.366 E3.19406
G1 X89.198 Y114.750 E3.26756
G1 X89.253 Y114.134 E3.34106
G1 X89.326 Y113.810 E3.38043
G1 X89.529 Y113.259 E3.45020
G1 X89.688 Y112.953 E3.49112
G1 X89.864 Y112.681 E3.52962
G1 X90.267 Y112.211 E3.60312
G1 X90.752 Y111.813 E3.67768
G1 X91.301 Y111.508 E3.75224
G1 X91.886 Y111.306 E3.82574
G1 X92.211 Y111.240 E3.86511
G1 X92.797 Y111.200 E3.93488 F1800.000
G1 X93.141 Y111.221 E3.97579
G1 X93.461 Y111.271 E4.01430
G1 X94.054 Y111.447 E4.08780
G1 X94.616 Y111.728 E4.16236
G1 X95.118 Y112.103 E4.23687
G1 X95.527 Y112.538 E4.30771
G1 X95.734 Y112.825 E4.34967
G1 X96.024 Y113.373 E4.42332
G1 X96.215 Y113.971 E4.49788
G1 X96.298 Y114.593 E4.57244
G1 X96.273 Y115.160 E4.63987
G1 X96.580 Y115.473 F7800.000
G1 X96.750 Y118.750 F7800.000
G1 X88.750 Y118.750 E5.58999 F1800.000
G1 X88.750 Y110.750 E6.54011
G1 X96.750 Y110.750 E7.49023
G1 X96.750 Y118.690 E8.43323
G1 X96.404 Y118.550 F7800.000
G1 X96.314 Y118.000 F7800.000
G1 X95.964 Y117.650 E8.49208 F1800.000
G1 X96.142 Y117.203 F7800.000
G1 X96.373 Y116.265 E8.60680 F1800.000
G1 X95.090 Y117.883 F7800.000
G1 X94.493 Y118.324 E8.69492 F1800.000
G1 X94.231 Y118.373 E8.72658
G1 X90.631 Y118.224 F7800.000
G1 X90.101 Y118.060 E8.86621 F1800.000
G1 X89.622 Y117.878 E8.99511
G1 X89.368 Y117.190 E9.17973
G1 X89.284 Y116.889 E9.25843
G1 X89.127 Y113.259 F7800.000
G1 X89.170 Y113.040 E9.28498 F1800.000
G1 X89.577 Y112.467 E9.36847
G1 X89.935 Y111.585 F7800.000
G1 X89.537 Y111.186 E9.43542 F1800.000
G1 X90.551 Y111.517 F7800.000
G1 X91.072 Y111.163 E9.51023 F1800.000
G1 X91.247 Y111.127 E9.53152
G1 X94.252 Y111.126 F7800.000
G1 X95.078 Y111.321 E9.63234 F1800.000
G1 X95.031 Y111.572 F7800.000
G1 X94.894 Y111.380 E9.66030 F1800.000
G1 X94.845 Y111.266 E9.67508
G1 X94.939 Y111.233 E9.68689
G1 X95.611 Y111.127 E9.76763
G1 X95.739 Y111.107 F7800.000
G1 X96.227 Y112.614 E10.16639 F1800.000
G1 E8.16639 F2400.00000
G92 E0
G1 X93.444 Y101.232 F7800.000
G1 E2.00000 F2400.00000
G1 X92.829 Y101.301 E2.07350 F1800.000
G1 X92.202 Y101.259 E2.14806
G1 X91.593 Y101.108 E2.22258
G1 X91.048 Y100.865 E2.29341
G1 X90.747 Y100.682 E2.33537
G1 X90.267 Y100.289 E2.40902
G1 X89.858 Y99.812 E2.48358
G1 X89.540 Y99.271 E2.55814
G1 X89.326 Y98.690 E2.63164
G1 X89.253 Y98.366 E2.67105
G1 X89.198 Y97.750 E2.74455
G1 X89.253 Y97.134 E2.81805
G1 X89.326 Y96.810 E2.85742
G1 X89.529 Y96.259 E2.92720
G1 X89.688 Y95.953 E2.96811
G1 X89.864 Y95.681 E3.00661
G1 X90.267 Y95.211 E3.08012
G1 X90.752 Y94.813 E3.15467
G1 X91.301 Y94.508 E3.22923
G1 X91.886 Y94.306 E3.30273
G1 X92.211 Y94.240 E3.34210
G1 X92.797 Y94.200 E3.41188 F1800.000
G1 X93.141 Y94.221 E3.45279
G1 X93.483 Y94.275 E3.49397
G1 X94.055 Y94.447 E3.56494
G1 X94.616 Y94.728 E3.63937
G1 X95.119 Y95.104 E3.71393
G1 X95.548 Y95.562 E3.78849
G1 X95.884 Y96.081 E3.86199
G1 X96.026 Y96.381 E3.90140
G1 X96.215 Y96.971 E3.97491
G1 X96.298 Y97.593 E4.04946
G1 X96.270 Y98.220 E4.12402
G1 X96.135 Y98.824 E4.19752
G1 X96.019 Y99.135 E4.23693
G1 X95.730 Y99.682 E4.31043
G1 X95.343 Y100.177 E4.38499
G1 X94.876 Y100.595 E4.45955
G1 X94.341 Y100.925 E4.53411
G1 X93.766 Y101.152 E4.60761
G1 X93.502 Y101.218 E4.63989
G1 X93.299 Y101.605 F7800.000
G1 X96.750 Y101.750 F7800.000
G1 X88.750 Y101.750 E5.59002 F1800.000
G1 X88.750 Y93.750 E6.54014
G1 X96.750 Y93.750 E7.49026
G1 X96.750 Y101.690 E8.43325
G1 X96.404 Y101.550 F7800.000
G1 X96.314 Y101.000 F7800.000
G1 X95.964 Y100.650 E8.49211 F1800.000
G1 X96.142 Y100.203 F7800.000
G1 X96.373 Y99.265 E8.60683 F1800.000
G1 X95.090 Y100.883 F7800.000
G1 X94.493 Y101.324 E8.69495 F1800.000
G1 X94.231 Y101.373 E8.72661
G1 X91.266 Y101.374 F7800.000
G1 X91.073 Y101.333 E8.75002 F1800.000
G1 X90.540 Y100.974 E8.82640
G1 X90.090 Y100.959 F7800.000
G1 X89.593 Y100.462 E8.90977 F1800.000
G1 X89.566 Y100.020 F7800.000
G1 X89.168 Y99.461 E8.99132 F1800.000
G1 X89.127 Y99.239 E9.01818
G1 X89.127 Y96.259 F7800.000
G1 X89.170 Y96.040 E9.04473 F1800.000
G1 X89.577 Y95.467 E9.12822
G1 X89.935 Y94.585 F7800.000
G1 X89.537 Y94.186 E9.19517 F1800.000
G1 X90.551 Y94.517 F7800.000
G1 X91.072 Y94.163 E9.26998 F1800.000
G1 X91.247 Y94.127 E9.29127
G1 X94.252 Y94.126 F7800.000
G1 X95.215 Y94.353 E9.40876 F1800.000
G1 X95.932 Y94.186 F7800.000
G1 X96.255 Y94.509 E9.46301 F1800.000
G1 X95.830 Y95.341 F7800.000
G1 X96.315 Y95.974 E9.55765 F1800.000
G1 X96.374 Y96.238 E9.58978
G1 E7.58978 F2400.00000
G92 E0
G1 X106.326 Y98.690 F7800.000
G1 E2.00000 F2400.00000
G1 X106.253 Y98.366 E2.03941 F1800.000
G1 X106.198 Y97.750 E2.11291
G1 X106.253 Y97.134 E2.18641
G1 X106.326 Y96.810 E2.22578
G1 X106.529 Y96.259 E2.29556
G1 X106.688 Y95.953 E2.33647
G1 X106.864 Y95.681 E2.37498
G1 X107.267 Y95.211 E2.44848
G1 X107.752 Y94.813 E2.52303
G1 X108.301 Y94.508 E2.59759
G1 X108.886 Y94.306 E2.67109
G1 X109.211 Y94.240 E2.71046
G1 X109.797 Y94.200 E2.78024 F1800.000
G1 X110.141 Y94.221 E2.82115
G1 X110.483 Y94.275 E2.86233
G1 X111.055 Y94.447 E2.93331
G1 X111.616 Y94.728 E3.00774
G1 X112.119 Y95.104 E3.08229
G1 X112.548 Y95.562 E3.15685
G1 X112.884 Y96.081 E3.23035
G1 X113.026 Y96.381 E3.26976
G1 X113.215 Y96.971 E3.34327
G1 X113.298 Y97.593 E3.41782
G1 X113.271 Y98.211 E3.49132
G1 X113.212 Y98.537 E3.53069
G1 X113.034 Y99.097 E3.60047
G1 X112.889 Y99.410 E3.64138
G1 X112.725 Y99.689 E3.67989
G1 X112.343 Y100.177 E3.75339
G1 X111.876 Y100.595 E3.82795
G1 X111.341 Y100.925 E3.90250
G1 X110.766 Y101.152 E3.97600
G1 X110.444 Y101.232 E4.01542
G1 X109.829 Y101.301 E4.08892
G1 X109.202 Y101.259 E4.16347
G1 X108.593 Y101.108 E4.23803
G1 X108.028 Y100.855 E4.31153
G1 X107.746 Y100.681 E4.35094
G1 X107.267 Y100.289 E4.42444
G1 X106.858 Y99.812 E4.49900
G1 X106.540 Y99.271 E4.57356
G1 X106.347 Y98.746 E4.63994
G1 X106.005 Y98.606 F7800.000
G1 X105.750 Y101.750 F7800.000
G1 X105.750 Y93.750 E5.59006 F1800.000
G1 X113.750 Y93.750 E6.54018
G1 X113.750 Y101.750 E7.49030
G1 X105.810 Y101.750 E8.43329
G1 X105.950 Y101.404 F7800.000
G1 X107.087 Y100.957 F7800.000
G1 X106.593 Y100.463 E8.51631 F1800.000
G1 X106.566 Y100.020 F7800.000
G1 X106.168 Y99.461 E8.59786 F1800.000
G1 X106.127 Y99.239 E8.62472
G1 X107.538 Y100.972 F7800.000
G1 X108.073 Y101.333 E8.70137 F1800.000
G1 X108.267 Y101.374 E8.72486
G1 X111.231 Y101.373 F7800.000
G1 X111.493 Y101.324 E8.75652 F1800.000
G1 X112.090 Y100.883 E8.84465
G1 X112.963 Y100.652 F7800.000
G1 X113.314 Y101.004 E8.90368 F1800.000
G1 X113.136 Y100.201 F7800.000
G1 X113.374 Y99.258 E9.01920 F1800.000
G1 X113.374 Y96.238 F7800.000
G1 X113.315 Y95.974 E9.05133 F1800.000
G1 X112.830 Y95.341 E9.14597
G1 X113.255 Y94.509 F7800.000
G1 X112.932 Y94.186 E9.20022 F1800.000
G1 X112.215 Y94.353 F7800.000
G1 X111.252 Y94.126 E9.31771 F1800.000
G1 X108.247 Y94.127 F7800.000
G1 X108.072 Y94.163 E9.33900 F1800.000
G1 X107.551 Y94.517 E9.41381
G1 X106.935 Y94.585 F7800.000
G1 X106.537 Y94.186 E9.48076 F1800.000
G1 X106.577 Y95.467 F7800.000
G1 X106.170 Y96.040 E9.56425 F1800.000
G1 X106.127 Y96.259 E9.59080
G1 E7.59080 F2400.00000
G92 E0
G1 X123.253 Y98.366 F7800.000
G1 E2.00000 F2400.00000
G1 X123.198 Y97.750 E2.07350 F1800.000
G1 X123.253 Y97.134 E2.14700
G1 X123.326 Y96.810 E2.18641
G1 X123.540 Y96.229 E2.25991
G1 X123.858 Y95.688 E2.33447
G1 X124.267 Y95.211 E2.40903
G1 X124.752 Y94.813 E2.48359
G1 X125.301 Y94.508 E2.55815
G1 X125.886 Y94.306 E2.63165
G1 X126.211 Y94.240 E2.67102
G1 X126.797 Y94.200 E2.74079 F1800.000
G1 X127.141 Y94.221 E2.78170
G1 X127.461 Y94.271 E2.82021
G1 X128.054 Y94.447 E2.89371
G1 X128.616 Y94.728 E2.96827
G1 X129.119 Y95.104 E3.04282
G1 X129.548 Y95.562 E3.11738
G1 X129.889 Y96.089 E3.19194
G1 X130.129 Y96.659 E3.26544
G1 X130.216 Y96.979 E3.30485
G1 X130.298 Y97.593 E3.37835
G1 X130.270 Y98.220 E3.45291
G1 X130.133 Y98.833 E3.52747
G1 X129.893 Y99.403 E3.60097
G1 X129.725 Y99.689 E3.64038
G1 X129.343 Y100.177 E3.71388
G1 X128.876 Y100.595 E3.78844
G1 X128.341 Y100.925 E3.86300
G1 X127.766 Y101.152 E3.93650
G1 X127.444 Y101.232 E3.97591
G1 X126.829 Y101.301 E4.04941
G1 X126.202 Y101.259 E4.12397
G1 X125.593 Y101.108 E4.19853
G1 X125.020 Y100.852 E4.27309
G1 X124.508 Y100.504 E4.34659
G1 X124.261 Y100.282 E4.38600
G1 X123.864 Y99.819 E4.45844
G1 X123.684 Y99.541 E4.49781
G1 X123.431 Y99.010 E4.56759
G1 X123.324 Y98.683 E4.60850
G1 X123.266 Y98.425 E4.63988
G1 X122.883 Y98.214 F7800.000
G1 X122.750 Y101.750 F7800.000
G1 X122.750 Y93.750 E5.59000 F1800.000
G1 X130.750 Y93.750 E6.54012
G1 X130.750 Y101.750 E7.49024
G1 X122.810 Y101.750 E8.43324
G1 X122.950 Y101.404 F7800.000
G1 X124.631 Y101.224 F7800.000
G1 X124.101 Y101.060 E8.57286 F1800.000
G1 X123.622 Y100.878 E8.70177
G1 X123.374 Y100.207 E8.88186
G1 X123.279 Y99.889 E8.96548
G1 X123.127 Y96.261 F7800.000
G1 X123.168 Y96.039 E8.99233 F1800.000
G1 X123.566 Y95.480 E9.07389
G1 X123.935 Y94.585 F7800.000
G1 X123.537 Y94.186 E9.14085 F1800.000
G1 X124.551 Y94.517 F7800.000
G1 X125.072 Y94.163 E9.21565 F1800.000
G1 X125.247 Y94.127 E9.23694
G1 X128.252 Y94.126 F7800.000
G1 X129.215 Y94.353 E9.35443 F1800.000
G1 X129.932 Y94.186 F7800.000
G1 X130.255 Y94.509 E9.40868 F1800.000
G1 X129.830 Y95.341 F7800.000
G1 X130.314 Y95.974 E9.50329 F1800.000
G1 X130.374 Y96.270 E9.53916
G1 X130.374 Y99.230 F7800.000
G1 X130.296 Y99.612 E9.58550 F1800.000
G1 X130.136 Y100.201 E9.65796
G1 X129.963 Y100.652 F7800.000
G1 X130.314 Y101.004 E9.71699 F1800.000
G1 X129.090 Y100.883 F7800.000
G1 X128.493 Y101.324 E9.80511 F1800.000
G1 X128.231 Y101.373 E9.83678
G1 Z0.400 F7800.000
M104 S225 ; set temperature
M140 S60 ; wait for bed temperature to be reached
G1 Z0.500 F7800.000
G1 E7.83678 F2400.00000
G92 E0
G1 X111.985 Y112.253 F7800.000
G1 E2.00000 F2400.00000
G1 X112.389 Y112.685 E2.00931 F900.000
G1 X112.684 Y113.136 E2.01779
G1 X112.840 Y113.454 E2.02335
G1 X113.019 Y114.015 E2.03263
G1 X113.098 Y114.602 E2.04195
G1 X113.071 Y115.193 E2.05127
G1 X112.942 Y115.767 E2.06052
G1 X112.837 Y116.053 E2.06532
G1 X112.562 Y116.573 E2.07458
G1 X112.197 Y117.039 E2.08390
G1 X111.755 Y117.434 E2.09322
G1 X111.251 Y117.746 E2.10254
G1 X110.705 Y117.962 E2.11179
G1 X110.408 Y118.035 E2.11659
G1 X109.824 Y118.100 E2.12585
G1 X109.233 Y118.061 E2.13517
G1 X108.658 Y117.918 E2.14449
G1 X108.122 Y117.678 E2.15374
G1 X107.862 Y117.518 E2.15854
G1 X107.407 Y117.145 E2.16780
G1 X107.022 Y116.695 E2.17712
G1 X106.724 Y116.189 E2.18637
G1 X106.606 Y115.908 E2.19117
G1 X106.464 Y115.393 E2.19958
G1 X106.413 Y115.047 E2.20507
G1 X106.400 Y114.746 E2.20982
G1 X106.451 Y114.164 E2.21900
G1 X106.518 Y113.867 E2.22381
G1 X106.722 Y113.315 E2.23306
G1 X107.022 Y112.805 E2.24238
G1 X107.407 Y112.355 E2.25170
G1 X107.865 Y111.979 E2.26102
G1 X108.383 Y111.691 E2.27034
G1 X108.938 Y111.499 E2.27959
G1 X109.237 Y111.439 E2.28439
G1 X109.770 Y111.401 E2.29280 F900.000
G1 X110.119 Y111.420 E2.29829
G1 X110.417 Y111.467 E2.30304
G1 X110.981 Y111.633 E2.31230
G1 X111.510 Y111.899 E2.32162
G1 X111.937 Y112.217 E2.32999
G1 X112.368 Y112.140 F7800.000
G1 E0.32999 F2400.00000
G92 E0
G1 X108.365 Y111.148 F7800.000
