; generated by Slic3r 1.2.9 on 2016-02-20 at 20:04:09

; external perimeters extrusion width = 0.40mm
; perimeters extrusion width = 0.68mm
; infill extrusion width = 1.28mm
; solid infill extrusion width = 0.68mm
; top infill extrusion width = 0.68mm
; support material extrusion width = 0.40mm

M107
M190 S65 ; set bed temperature
M104 S230 ; set temperature
G28 ; home all axes
G1 Z5 F5000 ; lift nozzle

M109 S230 ; wait for temperature to be reached
G21 ; set units to millimeters
G90 ; use absolute coordinates
M82 ; use absolute distances for extrusion
G92 E0
G1 Z0.400 F7800.000
G1 E-2.00000 F2400.00000
G92 E0
G1 X83.752 Y88.552 F7800.000
G1 E2.00000 F2400.00000
G1 X85.641 Y87.225 E2.27422 F1800.000
G1 X88.500 Y86.586 E2.62209
G1 X128.500 Y86.586 E7.37270
G1 X130.775 Y86.983 E7.64693
G1 X133.248 Y88.552 E7.99480 F1800.000
G1 X133.448 Y88.752 E8.02839
G1 X134.775 Y90.641 E8.30261
G1 X135.414 Y93.500 E8.65048
G1 X135.414 Y117.500 E11.50085
G1 X135.017 Y119.775 E11.77507
G1 X133.448 Y122.248 E12.12294
G1 X133.248 Y122.448 E12.15653
G1 X131.359 Y123.775 E12.43076
G1 X128.500 Y124.414 E12.77863
G1 X88.500 Y124.414 E17.52923
G1 X86.225 Y124.017 E17.80346
G1 X83.752 Y122.448 E18.15133
G1 X83.552 Y122.248 E18.18492
G1 X82.225 Y120.359 E18.45914
G1 X81.586 Y117.500 E18.80701
G1 X81.586 Y93.500 E21.65738
G1 X81.983 Y91.225 E21.93160
G1 X83.552 Y88.752 E22.27947
G1 X83.710 Y88.595 E22.30594
G1 E20.30594 F2400.00000
G92 E0
G1 X124.336 Y117.300 F7800.000
G1 E2.00000 F2400.00000
G1 X120.700 Y117.300 E2.43178 F1800.000
G1 X120.700 Y113.717 E2.85729
G1 X121.091 Y113.683 E2.90387
G1 X121.218 Y114.393 E2.98952
G1 X121.426 Y114.956 E3.06093
G1 X121.730 Y115.475 E3.13234
G1 X122.121 Y115.932 E3.20375
G1 X122.580 Y116.307 E3.27410
G1 X122.851 Y116.474 E3.31193
G1 X123.392 Y116.716 E3.38229
G1 X123.975 Y116.861 E3.45369
G1 X124.349 Y116.886 E3.49822
G1 X124.338 Y117.240 E3.54032
G1 X123.991 Y117.096 F7800.000
G1 E1.54032 F2400.00000
G92 E0
G1 X121.091 Y113.317 F7800.000
G1 E2.00000 F2400.00000
G1 X120.700 Y113.283 E2.04662 F1800.000
G1 X120.700 Y109.700 E2.47210
G1 X124.332 Y109.700 E2.90343
G1 X124.346 Y110.114 E2.95261
G1 X123.984 Y110.139 E2.99572
G1 X123.672 Y110.202 E3.03351
G1 X123.112 Y110.395 E3.10386
G1 X122.587 Y110.687 E3.17527
G1 X122.121 Y111.068 E3.24668
G1 X121.730 Y111.525 E3.31809
G1 X121.431 Y112.036 E3.38844
G1 X121.310 Y112.323 E3.42538
G1 X121.211 Y112.639 E3.46471
G1 X121.101 Y113.258 E3.53939
G1 X120.776 Y113.082 F7800.000
G1 E1.53939 F2400.00000
G92 E0
G1 X124.715 Y110.095 F7800.000
G1 E2.00000 F2400.00000
G1 X124.746 Y109.700 E2.04709 F1800.000
G1 X128.300 Y109.700 E2.46923
G1 X128.300 Y113.257 E2.89168
G1 X127.890 Y113.275 E2.94037
G1 X127.870 Y113.041 E2.96827
G1 X127.740 Y112.463 E3.03862
G1 X127.507 Y111.909 E3.11003
G1 X127.179 Y111.404 E3.18144
G1 X126.769 Y110.965 E3.25285
G1 X126.287 Y110.606 E3.32426
G1 X125.749 Y110.336 E3.39567
G1 X125.181 Y110.168 E3.46602
G1 X124.774 Y110.105 E3.51496
G1 X124.948 Y109.774 F7800.000
G1 E1.51496 F2400.00000
G92 E0
G1 X127.881 Y113.739 F7800.000
G1 E2.00000 F2400.00000
G1 X128.300 Y113.749 E2.04978 F1800.000
G1 X128.300 Y117.300 E2.47156
G1 X124.648 Y117.300 E2.90534
G1 X124.625 Y116.895 E2.95349
G1 X125.164 Y116.835 E3.01788
G1 X125.466 Y116.760 E3.05482
G1 X125.778 Y116.650 E3.09415
G1 X126.279 Y116.398 E3.16077
G1 X126.542 Y116.219 E3.19856
G1 X126.977 Y115.830 E3.26786
G1 X127.179 Y115.594 E3.30479
G1 X127.370 Y115.323 E3.34413
G1 X127.631 Y114.827 E3.41075
G1 X127.742 Y114.528 E3.44854
G1 X127.872 Y113.950 E3.51889
G1 X127.878 Y113.799 E3.53684
G1 X128.221 Y113.949 F7800.000
G1 X127.775 Y115.658 F7800.000
G1 X127.669 Y115.991 E3.62471 F1800.000
G1 X127.480 Y116.480 E3.75679
G1 X126.663 Y116.774 E3.97530
G1 X122.245 Y116.844 F7800.000
G1 X121.159 Y115.759 E4.15766 F1800.000
G1 X121.600 Y116.200 E4.23176
G1 E2.23176 F2400.00000
G92 E0
G1 X121.462 Y111.241 F7800.000
G1 E2.00000 F2400.00000
G1 X121.136 Y110.915 E2.08499 F1800.000
G1 X121.922 Y110.136 E2.28878
G1 X122.245 Y110.459 E2.37287
G1 X126.068 Y110.076 F7800.000
G1 X126.369 Y110.147 E2.40963 F1800.000
G1 X127.008 Y110.698 E2.50987
G1 X127.462 Y111.184 F7800.000
G1 X127.882 Y111.722 E2.59094 F1800.000
G1 X127.924 Y111.930 E2.61615
G1 E0.61615 F2400.00000
G92 E0
G1 X124.336 Y101.300 F7800.000
G1 E2.00000 F2400.00000
G1 X120.700 Y101.300 E2.43178 F1800.000
G1 X120.700 Y97.717 E2.85729
G1 X121.091 Y97.683 E2.90387
G1 X121.218 Y98.393 E2.98952
G1 X121.423 Y98.948 E3.05987
G1 X121.572 Y99.230 E3.09771
G1 X121.916 Y99.712 E3.16806
G1 X122.346 Y100.132 E3.23947
G1 X122.843 Y100.471 E3.31088
G1 X123.392 Y100.716 E3.38229
G1 X123.975 Y100.861 E3.45369
G1 X124.349 Y100.886 E3.49822
G1 X124.338 Y101.240 E3.54032
G1 X123.991 Y101.096 F7800.000
G1 E1.54032 F2400.00000
G92 E0
G1 X121.100 Y97.296 F7800.000
G1 E2.00000 F2400.00000
G1 X120.700 Y97.269 E2.04762 F1800.000
G1 X120.700 Y93.700 E2.47150
G1 X124.311 Y93.700 E2.90041
G1 X124.342 Y94.095 E2.94751
G1 X123.680 Y94.199 E3.02706
G1 X123.120 Y94.392 E3.09741
G1 X122.835 Y94.534 E3.13524
G1 X122.346 Y94.868 E3.20559
G1 X121.916 Y95.288 E3.27700
G1 X121.572 Y95.770 E3.34735
G1 X121.426 Y96.045 E3.38429
G1 X121.300 Y96.351 E3.42363
G1 X121.154 Y96.893 E3.49025
G1 X121.108 Y97.236 E3.53138
G1 X120.773 Y97.066 F7800.000
G1 E1.53138 F2400.00000
G92 E0
G1 X124.728 Y94.084 F7800.000
G1 E2.00000 F2400.00000
G1 X124.767 Y93.700 E2.04591 F1800.000
G1 X128.300 Y93.700 E2.46546
G1 X128.300 Y97.330 E2.89660
G1 X127.900 Y97.357 E2.94417
G1 X127.820 Y96.762 E3.01549
G1 X127.736 Y96.455 E3.05328
G1 X127.507 Y95.909 E3.12364
G1 X127.179 Y95.404 E3.19504
G1 X126.769 Y94.965 E3.26645
G1 X126.294 Y94.611 E3.33680
G1 X126.022 Y94.459 E3.37374
G1 X125.728 Y94.330 E3.41198
G1 X125.457 Y94.237 E3.44593
G1 X124.786 Y94.097 E3.52734
G1 X124.965 Y93.779 F7800.000
G1 E1.52734 F2400.00000
G92 E0
G1 X127.890 Y97.725 F7800.000
G1 E2.00000 F2400.00000
G1 X128.300 Y97.743 E2.04869 F1800.000
G1 X128.300 Y101.300 E2.47114
G1 X124.749 Y101.300 E2.89288
G1 X124.710 Y100.914 E2.93894
G1 X125.465 Y100.762 E3.03035
G1 X126.016 Y100.544 E3.10070
G1 X126.294 Y100.389 E3.13853
G1 X126.769 Y100.035 E3.20889
G1 X127.179 Y99.596 E3.28029
G1 X127.507 Y99.091 E3.35170
G1 X127.740 Y98.537 E3.42311
G1 X127.870 Y97.959 E3.49346
G1 X127.885 Y97.785 E3.51425
G1 X128.224 Y97.945 F7800.000
G1 X127.924 Y99.070 F7800.000
G1 X127.882 Y99.278 E3.53945 F1800.000
G1 X127.462 Y99.816 E3.62053
G1 X127.008 Y100.302 F7800.000
G1 X126.370 Y100.856 E3.72086 F1800.000
G1 X126.081 Y100.923 E3.75608
G1 X122.352 Y100.774 F7800.000
G1 X121.955 Y100.651 E3.86084 F1800.000
G1 X121.522 Y100.478 E3.97810
G1 X121.380 Y100.133 E4.07200
G1 X121.224 Y99.644 E4.20122
G1 X121.224 Y95.356 F7800.000
G1 X121.380 Y94.867 E4.33043 F1800.000
G1 X121.522 Y94.522 E4.42433
G1 X121.955 Y94.349 E4.54159
G1 X122.352 Y94.226 E4.64635
G1 X126.085 Y94.076 F7800.000
G1 X126.370 Y94.144 E4.68111 F1800.000
G1 X127.008 Y94.698 E4.78144
G1 X127.462 Y95.184 F7800.000
G1 X127.882 Y95.722 E4.86252 F1800.000
G1 X127.924 Y95.930 E4.88772
G1 E2.88772 F2400.00000
G92 E0
G1 X108.349 Y100.886 F7800.000
G1 E2.00000 F2400.00000
G1 X108.336 Y101.300 E2.04923 F1800.000
G1 X104.700 Y101.300 E2.48101
G1 X104.700 Y97.717 E2.90652
G1 X105.091 Y97.683 E2.95310
G1 X105.218 Y98.393 E3.03875
G1 X105.426 Y98.956 E3.11016
G1 X105.730 Y99.475 E3.18157
G1 X106.121 Y99.932 E3.25298
G1 X106.580 Y100.307 E3.32333
G1 X106.851 Y100.474 E3.36117
G1 X107.392 Y100.716 E3.43152
G1 X107.975 Y100.861 E3.50293
G1 X108.289 Y100.882 E3.54032
G1 X108.134 Y101.223 F7800.000
G1 E1.54032 F2400.00000
G92 E0
G1 X105.110 Y97.375 F7800.000
G1 E2.00000 F2400.00000
G1 X104.700 Y97.357 E2.04869 F1800.000
G1 X104.700 Y93.700 E2.48298
G1 X108.332 Y93.700 E2.91431
G1 X108.346 Y94.114 E2.96349
G1 X107.984 Y94.139 E3.00659
G1 X107.672 Y94.202 E3.04439
G1 X107.112 Y94.395 E3.11474
G1 X106.587 Y94.687 E3.18615
G1 X106.121 Y95.068 E3.25756
G1 X105.736 Y95.518 E3.32791
G1 X105.567 Y95.779 E3.36484
G1 X105.414 Y96.073 E3.40418
G1 X105.221 Y96.600 E3.47080
G1 X105.151 Y96.910 E3.50859
G1 X105.115 Y97.315 E3.55689
G1 X104.776 Y97.155 F7800.000
G1 E1.55689 F2400.00000
G92 E0
G1 X108.715 Y94.095 F7800.000
G1 E2.00000 F2400.00000
G1 X108.746 Y93.700 E2.04709 F1800.000
G1 X112.300 Y93.700 E2.46923
G1 X112.300 Y97.336 E2.90100
G1 X111.900 Y97.362 E2.94862
G1 X111.819 Y96.754 E3.02155
G1 X111.635 Y96.181 E3.09295
G1 X111.358 Y95.656 E3.16346
G1 X111.158 Y95.381 E3.20385
G1 X110.768 Y94.965 E3.27153
G1 X110.287 Y94.606 E3.34290
G1 X109.749 Y94.336 E3.41430
G1 X109.181 Y94.168 E3.48466
G1 X108.774 Y94.105 E3.53359
G1 X108.948 Y93.774 F7800.000
G1 E1.53359 F2400.00000
G92 E0
G1 X111.881 Y97.739 F7800.000
G1 E2.00000 F2400.00000
G1 X112.300 Y97.748 E2.04978 F1800.000
G1 X112.300 Y101.300 E2.47158
G1 X108.648 Y101.300 E2.90536
G1 X108.625 Y100.895 E2.95351
G1 X109.173 Y100.834 E3.01895
G1 X109.741 Y100.666 E3.08931
G1 X110.025 Y100.539 E3.12624
G1 X110.313 Y100.376 E3.16558
G1 X110.762 Y100.040 E3.23220
G1 X110.989 Y99.817 E3.26999
G1 X111.349 Y99.358 E3.33929
G1 X111.510 Y99.083 E3.37712
G1 X111.740 Y98.537 E3.44747
G1 X111.872 Y97.950 E3.51888
G1 X111.878 Y97.799 E3.53685
G1 X112.221 Y97.949 F7800.000
G1 X111.924 Y99.070 F7800.000
G1 X111.862 Y99.350 E3.57086 F1800.000
G1 X111.678 Y99.585 E3.60632
G1 X111.256 Y100.056 E3.68140
G1 X110.995 Y100.311 F7800.000
G1 X110.319 Y100.869 E3.78546 F1800.000
G1 X110.086 Y100.924 E3.81384
G1 X106.245 Y100.844 F7800.000
G1 X105.159 Y99.759 E3.99620 F1800.000
G1 X105.600 Y100.200 E4.07030
G1 E2.07030 F2400.00000
G92 E0
G1 X105.462 Y95.241 F7800.000
G1 E2.00000 F2400.00000
G1 X105.136 Y94.915 E2.08499 F1800.000
G1 X105.922 Y94.136 E2.28878
G1 X106.245 Y94.459 E2.37287
G1 X110.068 Y94.076 F7800.000
G1 X110.367 Y94.146 E2.40937 F1800.000
G1 X111.007 Y94.698 E2.50975
G1 X111.434 Y95.153 F7800.000
G1 X111.874 Y95.722 E2.59512 F1800.000
G1 X111.925 Y95.925 E2.62005
G1 E0.62005 F2400.00000
G92 E0
G1 X92.349 Y100.886 F7800.000
G1 E2.00000 F2400.00000
G1 X92.336 Y101.300 E2.04923 F1800.000
G1 X88.700 Y101.300 E2.48101
G1 X88.700 Y97.717 E2.90652
G1 X89.091 Y97.683 E2.95309
G1 X89.218 Y98.393 E3.03875
G1 X89.426 Y98.956 E3.11016
G1 X89.730 Y99.475 E3.18157
G1 X90.121 Y99.932 E3.25297
G1 X90.580 Y100.307 E3.32333
G1 X90.851 Y100.474 E3.36116
G1 X91.392 Y100.716 E3.43151
G1 X91.975 Y100.861 E3.50292
G1 X92.289 Y100.882 E3.54032
G1 X92.134 Y101.223 F7800.000
G1 E1.54032 F2400.00000
G92 E0
G1 X89.091 Y97.317 F7800.000
G1 E2.00000 F2400.00000
G1 X88.700 Y97.283 E2.04657 F1800.000
G1 X88.700 Y93.700 E2.47208
G1 X92.332 Y93.700 E2.90342
G1 X92.346 Y94.114 E2.95260
G1 X91.984 Y94.139 E2.99570
G1 X91.672 Y94.202 E3.03349
G1 X91.112 Y94.395 E3.10385
G1 X90.587 Y94.687 E3.17526
G1 X90.121 Y95.068 E3.24666
G1 X89.730 Y95.525 E3.31807
G1 X89.426 Y96.044 E3.38948
G1 X89.218 Y96.607 E3.46089
G1 X89.101 Y97.258 E3.53942
G1 X88.776 Y97.083 F7800.000
G1 E1.53942 F2400.00000
G92 E0
G1 X92.715 Y94.095 F7800.000
G1 E2.00000 F2400.00000
G1 X92.746 Y93.700 E2.04709 F1800.000
G1 X96.300 Y93.700 E2.46923
G1 X96.300 Y97.257 E2.89167
G1 X95.890 Y97.275 E2.94036
G1 X95.870 Y97.041 E2.96827
G1 X95.740 Y96.463 E3.03862
G1 X95.507 Y95.909 E3.11003
G1 X95.179 Y95.404 E3.18144
G1 X94.769 Y94.965 E3.25284
G1 X94.287 Y94.606 E3.32425
G1 X93.749 Y94.336 E3.39566
G1 X93.181 Y94.168 E3.46601
G1 X92.774 Y94.105 E3.51495
G1 X92.948 Y93.774 F7800.000
G1 E1.51495 F2400.00000
G92 E0
G1 X95.881 Y97.739 F7800.000
G1 E2.00000 F2400.00000
G1 X96.300 Y97.749 E2.04978 F1800.000
G1 X96.300 Y101.300 E2.47156
G1 X92.648 Y101.300 E2.90534
G1 X92.625 Y100.895 E2.95349
G1 X93.173 Y100.834 E3.01893
G1 X93.741 Y100.666 E3.08928
G1 X94.025 Y100.539 E3.12622
G1 X94.313 Y100.376 E3.16556
G1 X94.762 Y100.040 E3.23218
G1 X94.989 Y99.817 E3.26997
G1 X95.349 Y99.358 E3.33926
G1 X95.510 Y99.083 E3.37710
G1 X95.740 Y98.537 E3.44745
G1 X95.872 Y97.950 E3.51886
G1 X95.878 Y97.799 E3.53680
G1 X96.221 Y97.949 F7800.000
G1 X95.924 Y99.070 F7800.000
G1 X95.862 Y99.350 E3.57082 F1800.000
G1 X95.678 Y99.585 E3.60627
G1 X95.256 Y100.056 E3.68136
G1 X94.995 Y100.311 F7800.000
G1 X94.319 Y100.869 E3.78542 F1800.000
G1 X94.086 Y100.924 E3.81380
G1 X90.245 Y100.844 F7800.000
G1 X89.159 Y99.759 E3.99616 F1800.000
G1 X89.600 Y100.200 E4.07026
G1 E2.07026 F2400.00000
G92 E0
G1 X89.462 Y95.241 F7800.000
G1 E2.00000 F2400.00000
G1 X89.136 Y94.915 E2.08499 F1800.000
G1 X89.922 Y94.136 E2.28878
G1 X90.245 Y94.459 E2.37286
G1 X94.068 Y94.076 F7800.000
G1 X94.369 Y94.147 E2.40962 F1800.000
G1 X95.008 Y94.698 E2.50986
G1 X95.462 Y95.184 F7800.000
G1 X95.882 Y95.722 E2.59094 F1800.000
G1 X95.924 Y95.930 E2.61615
G1 E0.61615 F2400.00000
G92 E0
G1 X89.090 Y113.688 F7800.000
G1 E2.00000 F2400.00000
G1 X89.218 Y114.393 E2.08513 F1800.000
G1 X89.426 Y114.956 E2.15649
G1 X89.730 Y115.475 E2.22790
G1 X90.121 Y115.932 E2.29931
G1 X90.580 Y116.307 E2.36966
G1 X90.851 Y116.474 E2.40750
G1 X91.392 Y116.716 E2.47785
G1 X91.975 Y116.861 E2.54926
G1 X92.349 Y116.886 E2.59378
G1 X92.336 Y117.300 E2.64301
G1 X88.700 Y117.300 E3.07479
G1 X88.700 Y113.722 E3.49967
G1 X89.030 Y113.693 E3.53908
G1 X88.944 Y114.060 F7800.000
G1 X89.091 Y113.317 F7800.000
G1 X88.700 Y113.283 E3.58570 F1800.000
G1 X88.700 Y109.700 E4.01118
G1 X92.332 Y109.700 E4.44251
G1 X92.346 Y110.114 E4.49169
G1 X91.984 Y110.139 E4.53480
G1 X91.672 Y110.202 E4.57259
G1 X91.112 Y110.395 E4.64294
G1 X90.587 Y110.687 E4.71435
G1 X90.121 Y111.068 E4.78576
G1 X89.730 Y111.525 E4.85717
G1 X89.431 Y112.036 E4.92752
G1 X89.310 Y112.323 E4.96445
G1 X89.211 Y112.639 E5.00379
G1 X89.101 Y113.258 E5.07847
G1 X88.776 Y113.082 F7800.000
G1 E3.07847 F2400.00000
G92 E0
G1 X92.715 Y110.095 F7800.000
G1 E2.00000 F2400.00000
G1 X92.746 Y109.700 E2.04709 F1800.000
G1 X96.300 Y109.700 E2.46923
G1 X96.300 Y113.336 E2.90100
G1 X95.900 Y113.362 E2.94862
G1 X95.820 Y112.762 E3.02048
G1 X95.738 Y112.462 E3.05742
G1 X95.621 Y112.152 E3.09675
G1 X95.358 Y111.657 E3.16337
G1 X95.173 Y111.398 E3.20117
G1 X94.769 Y110.965 E3.27152
G1 X94.287 Y110.606 E3.34293
G1 X93.749 Y110.336 E3.41433
G1 X93.181 Y110.168 E3.48469
G1 X92.774 Y110.105 E3.53362
G1 X92.948 Y109.774 F7800.000
G1 E1.53362 F2400.00000
G92 E0
G1 X95.881 Y113.739 F7800.000
G1 E2.00000 F2400.00000
G1 X96.300 Y113.749 E2.04978 F1800.000
G1 X96.300 Y117.300 E2.47156
G1 X92.648 Y117.300 E2.90534
G1 X92.625 Y116.895 E2.95349
G1 X93.173 Y116.834 E3.01893
G1 X93.741 Y116.666 E3.08928
G1 X94.025 Y116.539 E3.12622
G1 X94.313 Y116.376 E3.16555
G1 X94.762 Y116.040 E3.23217
G1 X94.989 Y115.817 E3.26997
G1 X95.349 Y115.358 E3.33926
G1 X95.510 Y115.083 E3.37710
G1 X95.740 Y114.537 E3.44745
G1 X95.872 Y113.950 E3.51886
G1 X95.878 Y113.799 E3.53680
G1 X96.221 Y113.949 F7800.000
G1 X95.924 Y115.070 F7800.000
G1 X95.862 Y115.350 E3.57081 F1800.000
G1 X95.678 Y115.585 E3.60627
G1 X95.256 Y116.056 E3.68136
G1 X94.995 Y116.311 F7800.000
G1 X94.319 Y116.869 E3.78541 F1800.000
G1 X94.086 Y116.924 E3.81379
G1 X90.245 Y116.844 F7800.000
G1 X89.159 Y115.759 E3.99615 F1800.000
G1 X89.600 Y116.200 E4.07025
G1 E2.07025 F2400.00000
G92 E0
G1 X89.462 Y111.241 F7800.000
G1 E2.00000 F2400.00000
G1 X89.136 Y110.915 E2.08499 F1800.000
G1 X89.922 Y110.136 E2.28878
G1 X90.245 Y110.459 E2.37286
G1 X94.068 Y110.076 F7800.000
G1 X94.369 Y110.147 E2.40963 F1800.000
G1 X95.008 Y110.698 E2.50986
G1 X95.450 Y111.171 F7800.000
G1 X95.875 Y111.725 E2.59270 F1800.000
G1 X95.925 Y111.923 E2.61705
G1 E0.61705 F2400.00000
G92 E0
G1 X104.700 Y113.722 F7800.000
G1 E2.00000 F2400.00000
G1 X105.090 Y113.688 E2.04653 F1800.000
