; generated by Slic3r 1.2.9 on 2016-03-16 at 15:03:07

; external perimeters extrusion width = 0.40mm
; perimeters extrusion width = 0.68mm
; infill extrusion width = 1.28mm
; solid infill extrusion width = 0.68mm
; top infill extrusion width = 0.68mm

M104 S220 ; set temperature
G28 ; home all axes
G1 Z5 F5000 ; lift nozzle

M109 S220 ; wait for temperature to be reached
G21 ; set units to millimeters
G90 ; use absolute coordinates
M82 ; use absolute distances for extrusion
G92 E0
G1 Z0.400 F7800.000
G1 E-2.00000 F2400.00000
G92 E0
G1 X71.883 Y71.743 F7800.000
G1 E2.00000 F2400.00000
G1 X72.706 Y70.918 E2.13845 F1800.000
G1 X74.972 Y69.760 E2.44063
G1 X77.500 Y69.358 E2.74468
G1 X133.500 Y69.358 E9.39553
G1 X136.013 Y69.755 E9.69771
G1 X138.281 Y70.909 E9.99990 F1800.000
G1 X140.082 Y72.706 E10.30208
G1 X141.240 Y74.972 E10.60427
G1 X141.642 Y77.500 E10.90831
G1 X141.642 Y100.500 E13.63991
G1 X141.245 Y103.013 E13.94210
G1 X140.091 Y105.281 E14.24429
G1 X139.063 Y106.446 E14.42888
G1 X108.063 Y135.446 E19.47046
G1 X105.956 Y136.873 E19.77265
G1 X102.500 Y137.642 E20.19312
G1 X77.500 Y137.642 E23.16225
G1 X74.987 Y137.245 E23.46444
G1 X72.719 Y136.091 E23.76662
G1 X70.918 Y134.294 E24.06881
G1 X69.760 Y132.028 E24.37100
G1 X69.358 Y129.500 E24.67504
G1 X69.358 Y77.500 E30.85083
G1 X69.755 Y74.987 E31.15302
G1 X70.909 Y72.719 E31.45520
G1 X71.840 Y71.786 E31.61182
G1 X72.368 Y72.265 F7800.000
G1 X73.397 Y71.308 E31.77871 F1800.000
G1 X75.614 Y70.315 E32.06725
G1 X77.500 Y70.072 E32.29305
G1 X133.500 Y70.072 E38.94389
G1 X135.897 Y70.469 E39.23244
G1 X138.037 Y71.618 E39.52098 F1800.000
G1 X139.692 Y73.397 E39.80953
G1 X140.685 Y75.614 E40.09807
G1 X140.928 Y77.500 E40.32386
G1 X140.928 Y100.500 E43.05546
G1 X140.531 Y102.897 E43.34401
G1 X138.575 Y105.925 E43.77214
G1 X107.575 Y134.925 E48.81372
G1 X105.553 Y136.272 E49.10226
G1 X102.500 Y136.928 E49.47313
G1 X77.500 Y136.928 E52.44226
G1 X75.103 Y136.531 E52.73080
G1 X72.963 Y135.382 E53.01935
G1 X71.308 Y133.603 E53.30789
G1 X70.315 Y131.386 E53.59644
G1 X70.072 Y129.500 E53.82223
G1 X70.072 Y77.500 E59.99802
G1 X70.469 Y75.103 E60.28656
G1 X71.618 Y72.963 E60.57511
G1 X72.324 Y72.306 E60.68963
G1 X72.822 Y72.797 F7800.000
G1 X74.083 Y71.720 E60.88648 F1800.000
G1 X76.243 Y70.905 E61.16071
G1 X77.500 Y70.786 E61.31067
G1 X133.500 Y70.786 E67.96152
G1 X135.775 Y71.183 E68.23575
G1 X137.780 Y72.327 E68.50997 F1800.000
G1 X139.280 Y74.083 E68.78420
G1 X140.095 Y76.243 E69.05842
G1 X140.214 Y77.500 E69.20839
G1 X140.214 Y100.500 E71.93999
G1 X139.817 Y102.775 E72.21421
G1 X138.087 Y105.403 E72.58796
G1 X107.087 Y134.403 E77.62954
G1 X105.155 Y135.667 E77.90377
G1 X102.500 Y136.214 E78.22566
G1 X77.500 Y136.214 E81.19479
G1 X75.225 Y135.817 E81.46901
G1 X73.220 Y134.673 E81.74324
G1 X71.720 Y132.917 E82.01746
G1 X70.905 Y130.757 E82.29169
G1 X70.786 Y129.500 E82.44165
G1 X70.786 Y77.500 E88.61744
G1 X71.183 Y75.225 E88.89167
G1 X72.327 Y73.220 E89.16589
G1 X72.777 Y72.836 E89.23614
G1 E87.23614 F2400.00000
G92 E0
G1 X100.672 Y127.672 F7800.000
G1 E2.00000 F2400.00000
G1 X79.328 Y127.672 E4.53485 F1800.000
G1 X79.328 Y118.328 E5.64451
G1 X100.672 Y118.328 E8.17936
G1 X100.672 Y127.612 E9.28190
G1 X80.386 Y117.614 F7800.000
G1 X101.386 Y117.614 E11.77597 F1800.000
G1 X101.386 Y128.386 E13.05527
G1 X78.614 Y128.386 E15.75976
G1 X78.614 Y107.614 E18.22671
G1 X80.386 Y107.614 E18.43712
G1 X80.386 Y117.554 E19.61765
G1 X81.100 Y116.900 F7800.000
G1 X102.100 Y116.900 E22.11172 F1800.000
G1 X102.100 Y129.100 E23.56065
G1 X77.900 Y129.100 E26.43477
G1 X77.900 Y106.900 E29.07136
G1 X102.100 Y106.900 E31.94547
G1 X102.100 Y108.100 E32.08799
G1 X81.100 Y108.100 E34.58206
G1 X81.100 Y116.840 E35.62007
G1 X81.100 Y117.300 F7800.000
G1 X79.500 Y117.971 F7800.000
G1 X79.500 Y107.971 E38.13812 F1800.000
G1 X80.743 Y107.500 F7800.000
G1 X101.743 Y107.500 E43.42604 F1800.000
G1 E41.42604 F2400.00000
G92 E0
G1 X100.236 Y119.107 F7800.000
G1 E2.00000 F2400.00000
G1 X99.893 Y118.764 E2.05970 F1800.000
G1 X98.847 Y118.764 E2.18851
G1 X100.236 Y120.153 E2.43038
G1 X100.236 Y121.200 E2.55919
G1 X97.800 Y118.764 E2.98322
G1 X96.753 Y118.764 E3.11203
G1 X100.236 Y122.247 E3.71823
G1 X100.236 Y123.293 E3.84705
G1 X95.707 Y118.764 E4.63541
G1 X94.660 Y118.764 E4.76423
G1 X100.236 Y124.340 E5.73476
G1 X100.236 Y125.387 E5.86357
G1 X93.613 Y118.764 E7.01627
G1 X92.567 Y118.764 E7.14509
G1 X100.236 Y126.433 E8.47996
G1 X99.993 Y127.236 E8.58323
G1 X91.520 Y118.764 E10.05787
G1 X90.474 Y118.764 E10.18668
G1 X98.946 Y127.236 E11.66132
G1 X97.899 Y127.236 E11.79013
G1 X89.427 Y118.764 E13.26477
G1 X88.380 Y118.764 E13.39358
G1 X96.853 Y127.236 E14.86821
G1 X95.806 Y127.236 E14.99703
G1 X87.334 Y118.764 E16.47166
G1 X86.287 Y118.764 E16.60047
G1 X94.759 Y127.236 E18.07511
G1 X93.713 Y127.236 E18.20392
G1 X85.241 Y118.764 E19.67856
G1 X84.194 Y118.764 E19.80737
G1 X92.666 Y127.236 E21.28200
G1 X91.620 Y127.236 E21.41082
G1 X83.147 Y118.764 E22.88545
G1 X82.101 Y118.764 E23.01426
G1 X90.573 Y127.236 E24.48890
G1 X89.526 Y127.236 E24.61771
G1 X81.054 Y118.764 E26.09235
G1 X80.007 Y118.764 E26.22116
G1 X88.480 Y127.236 E27.69580
G1 X87.433 Y127.236 E27.82461
G1 X79.764 Y119.567 E29.15947
G1 X79.764 Y120.613 E29.28829
G1 X86.387 Y127.236 E30.44099
G1 X85.340 Y127.236 E30.56980
G1 X79.764 Y121.660 E31.54033
G1 X79.764 Y122.707 E31.66914
G1 X84.293 Y127.236 E32.45751
G1 X83.247 Y127.236 E32.58632
G1 X79.764 Y123.753 E33.19252
G1 X79.764 Y124.800 E33.32133
G1 X82.200 Y127.236 E33.74536
G1 X81.153 Y127.236 E33.87417
G1 X79.764 Y125.847 E34.11604
G1 X79.764 Y126.893 E34.24485
G1 X80.107 Y127.236 E34.30455
G1 E32.30455 F2400.00000
G92 E0
G1 X79.328 Y98.672 F7800.000
G1 E2.00000 F2400.00000
G1 X79.328 Y89.328 E3.10967 F1800.000
G1 X100.672 Y89.328 E5.64451
G1 X100.672 Y98.672 E6.75418
G1 X79.388 Y98.672 E9.28190
G1 X80.386 Y88.614 F7800.000
G1 X101.386 Y88.614 E11.77597 F1800.000
G1 X101.386 Y99.386 E13.05527
G1 X78.614 Y99.386 E15.75976
G1 X78.614 Y78.614 E18.22671
G1 X80.386 Y78.614 E18.43712
G1 X80.386 Y88.554 E19.61765
G1 X81.100 Y87.900 F7800.000
G1 X102.100 Y87.900 E22.11172 F1800.000
G1 X102.100 Y100.100 E23.56065
G1 X77.900 Y100.100 E26.43477
G1 X77.900 Y77.900 E29.07136
G1 X102.100 Y77.900 E31.94547
G1 X102.100 Y79.100 E32.08799
G1 X81.100 Y79.100 E34.58206
G1 X81.100 Y87.840 E35.62007
G1 X81.100 Y88.300 F7800.000
G1 X79.500 Y88.971 F7800.000
G1 X79.500 Y78.971 E38.13812 F1800.000
G1 X80.743 Y78.500 F7800.000
G1 X101.743 Y78.500 E43.42604 F1800.000
G1 E41.42604 F2400.00000
G92 E0
G1 X100.236 Y90.107 F7800.000
G1 E2.00000 F2400.00000
G1 X99.893 Y89.764 E2.05970 F1800.000
G1 X98.847 Y89.764 E2.18851
G1 X100.236 Y91.153 E2.43038
G1 X100.236 Y92.200 E2.55919
G1 X97.800 Y89.764 E2.98322
G1 X96.753 Y89.764 E3.11203
G1 X100.236 Y93.247 E3.71823
G1 X100.236 Y94.293 E3.84705
G1 X95.707 Y89.764 E4.63541
G1 X94.660 Y89.764 E4.76423
G1 X100.236 Y95.340 E5.73476
G1 X100.236 Y96.387 E5.86357
G1 X93.613 Y89.764 E7.01627
G1 X92.567 Y89.764 E7.14509
G1 X100.236 Y97.433 E8.47996
G1 X99.993 Y98.236 E8.58323
G1 X91.520 Y89.764 E10.05787
G1 X90.474 Y89.764 E10.18668
G1 X98.946 Y98.236 E11.66132
G1 X97.899 Y98.236 E11.79013
G1 X89.427 Y89.764 E13.26477
G1 X88.380 Y89.764 E13.39358
G1 X96.853 Y98.236 E14.86821
G1 X95.806 Y98.236 E14.99703
G1 X87.334 Y89.764 E16.47166
G1 X86.287 Y89.764 E16.60047
G1 X94.759 Y98.236 E18.07511
G1 X93.713 Y98.236 E18.20392
G1 X85.241 Y89.764 E19.67856
G1 X84.194 Y89.764 E19.80737
G1 X92.666 Y98.236 E21.28201
G1 X91.620 Y98.236 E21.41082
G1 X83.147 Y89.764 E22.88545
G1 X82.101 Y89.764 E23.01427
G1 X90.573 Y98.236 E24.48890
G1 X89.526 Y98.236 E24.61771
G1 X81.054 Y89.764 E26.09235
G1 X80.007 Y89.764 E26.22116
G1 X88.480 Y98.236 E27.69580
G1 X87.433 Y98.236 E27.82461
G1 X79.764 Y90.567 E29.15948
G1 X79.764 Y91.613 E29.28829
G1 X86.387 Y98.236 E30.44099
G1 X85.340 Y98.236 E30.56980
G1 X79.764 Y92.660 E31.54033
G1 X79.764 Y93.707 E31.66915
G1 X84.293 Y98.236 E32.45751
G1 X83.247 Y98.236 E32.58632
G1 X79.764 Y94.753 E33.19252
G1 X79.764 Y95.800 E33.32133
G1 X82.200 Y98.236 E33.74536
G1 X81.153 Y98.236 E33.87418
G1 X79.764 Y96.847 E34.11604
G1 X79.764 Y97.893 E34.24485
G1 X80.107 Y98.236 E34.30455
G1 E32.30455 F2400.00000
G92 E0
G1 X110.328 Y89.328 F7800.000
G1 E2.00000 F2400.00000
G1 X131.672 Y89.328 E4.53485 F1800.000
G1 X131.672 Y98.672 E5.64451
G1 X110.328 Y98.672 E8.17936
G1 X110.328 Y89.388 E9.28190
G1 X111.386 Y88.614 F7800.000
G1 X132.386 Y88.614 E11.77597 F1800.000
G1 X132.386 Y99.386 E13.05527
G1 X109.614 Y99.386 E15.75976
G1 X109.614 Y78.614 E18.22671
G1 X111.386 Y78.614 E18.43712
G1 X111.386 Y88.554 E19.61765
G1 X112.100 Y87.900 F7800.000
G1 X133.100 Y87.900 E22.11172 F1800.000
G1 X133.100 Y100.100 E23.56065
G1 X108.900 Y100.100 E26.43477
G1 X108.900 Y77.900 E29.07136
G1 X133.100 Y77.900 E31.94547
G1 X133.100 Y79.100 E32.08799
G1 X112.100 Y79.100 E34.58206
G1 X112.100 Y87.840 E35.62007
G1 X112.100 Y88.300 F7800.000
G1 X110.500 Y88.971 F7800.000
G1 X110.500 Y78.971 E38.13812 F1800.000
G1 X111.743 Y78.500 F7800.000
G1 X132.743 Y78.500 E43.42604 F1800.000
G1 E41.42604 F2400.00000
G92 E0
G1 X131.236 Y90.107 F7800.000
G1 E2.00000 F2400.00000
G1 X130.893 Y89.764 E2.05970 F1800.000
G1 X129.847 Y89.764 E2.18851
G1 X131.236 Y91.153 E2.43038
G1 X131.236 Y92.200 E2.55919
G1 X128.800 Y89.764 E2.98322
G1 X127.753 Y89.764 E3.11203
G1 X131.236 Y93.247 E3.71823
G1 X131.236 Y94.293 E3.84705
G1 X126.707 Y89.764 E4.63541
G1 X125.660 Y89.764 E4.76423
G1 X131.236 Y95.340 E5.73476
G1 X131.236 Y96.387 E5.86357
G1 X124.613 Y89.764 E7.01628
G1 X123.567 Y89.764 E7.14509
G1 X131.236 Y97.433 E8.47996
G1 X130.993 Y98.236 E8.58323
G1 X122.520 Y89.764 E10.05787
G1 X121.474 Y89.764 E10.18668
G1 X129.946 Y98.236 E11.66132
G1 X128.899 Y98.236 E11.79013
G1 X120.427 Y89.764 E13.26477
G1 X119.380 Y89.764 E13.39358
G1 X127.853 Y98.236 E14.86821
G1 X126.806 Y98.236 E14.99703
G1 X118.334 Y89.764 E16.47166
G1 X117.287 Y89.764 E16.60047
G1 X125.759 Y98.236 E18.07511
G1 X124.713 Y98.236 E18.20392
G1 X116.241 Y89.764 E19.67856
G1 X115.194 Y89.764 E19.80737
G1 X123.666 Y98.236 E21.28201
G1 X122.620 Y98.236 E21.41082
G1 X114.147 Y89.764 E22.88545
G1 X113.101 Y89.764 E23.01426
G1 X121.573 Y98.236 E24.48890
G1 X120.526 Y98.236 E24.61771
G1 X112.054 Y89.764 E26.09235
G1 X111.007 Y89.764 E26.22116
G1 X119.480 Y98.236 E27.69580
G1 X118.433 Y98.236 E27.82461
G1 X110.764 Y90.567 E29.15948
G1 X110.764 Y91.613 E29.28829
G1 X117.387 Y98.236 E30.44099
G1 X116.340 Y98.236 E30.56980
G1 X110.764 Y92.660 E31.54033
G1 X110.764 Y93.707 E31.66914
G1 X115.293 Y98.236 E32.45751
G1 X114.247 Y98.236 E32.58632
G1 X110.764 Y94.753 E33.19252
G1 X110.764 Y95.800 E33.32133
G1 X113.200 Y98.236 E33.74536
G1 X112.153 Y98.236 E33.87418
G1 X110.764 Y96.847 E34.11604
G1 X110.764 Y97.893 E34.24485
G1 X111.107 Y98.236 E34.30455
G1 Z0.500 F7800.000
G1 E32.30455 F2400.00000
G92 E0
G1 X80.123 Y117.877 F7800.000
G1 E2.00000 F2400.00000
G1 X101.123 Y117.877 E2.57496 F3600.000
G1 X101.123 Y128.123 E2.85548
G1 X78.877 Y128.123 E3.46454
G1 X78.877 Y107.877 E4.01885
G1 X80.123 Y107.877 E4.05296
G1 X80.123 Y117.817 E4.32511
G1 X80.781 Y117.219 F7800.000
G1 X101.781 Y117.219 E4.90007 F3600.000
G1 X101.781 Y128.781 E5.21665
G1 X78.219 Y128.781 E5.86177
G1 X78.219 Y107.219 E6.45214
G1 X101.781 Y107.219 E7.09727
G1 X101.781 Y107.781 E7.11268
G1 X80.781 Y107.781 E7.68764
G1 X80.781 Y117.159 E7.94437
G1 X81.300 Y116.700 F7800.000
G1 X102.300 Y116.700 E8.27487 F1800.000
G1 X102.300 Y129.300 E8.47316
G1 X77.700 Y129.300 E8.86032
G1 X77.700 Y106.700 E9.21599
G1 X102.300 Y106.700 E9.60314
G1 X102.300 Y108.300 E9.62832
G1 X81.300 Y108.300 E9.95882
G1 X81.300 Y116.640 E10.09007
G1 X81.300 Y117.100 F7800.000
G1 X79.500 Y118.206 F7800.000
G1 X79.500 Y108.206 E10.64657 F1200.000
G1 X79.596 Y118.606 F7800.000
G1 X79.277 Y118.926 E10.65899 F1200.000
G1 X79.277 Y119.861 E10.68469
G1 X80.861 Y118.277 E10.74626
G1 X81.796 Y118.277 E10.77197
G1 X79.277 Y120.796 E10.86990
G1 X79.277 Y121.731 E10.89560
G1 X82.731 Y118.277 E11.02988
G1 X83.666 Y118.277 E11.05559
G1 X79.277 Y122.666 E11.22623
G1 X79.277 Y123.601 E11.25193
G1 X84.601 Y118.277 E11.45892
G1 X85.536 Y118.277 E11.48463
G1 X79.277 Y124.536 E11.72797
G1 X79.277 Y125.472 E11.75368
G1 X86.471 Y118.277 E12.03338
G1 X87.407 Y118.277 E12.05908
G1 X79.277 Y126.407 E12.37514
G1 X79.277 Y127.342 E12.40084
G1 X88.342 Y118.277 E12.75325
G1 X89.277 Y118.277 E12.77896
G1 X79.831 Y127.723 E13.14618
G1 X80.766 Y127.723 E13.17189
G1 X90.212 Y118.277 E13.53912
G1 X91.147 Y118.277 E13.56482
G1 X81.701 Y127.723 E13.93205
G1 X82.636 Y127.723 E13.95776
G1 X92.082 Y118.277 E14.32498
G1 X93.017 Y118.277 E14.35069
G1 X83.572 Y127.723 E14.71791
G1 X84.507 Y127.723 E14.74362
G1 X93.952 Y118.277 E15.11085
G1 X94.887 Y118.277 E15.13655
G1 X85.442 Y127.723 E15.50378
G1 X86.377 Y127.723 E15.52949
G1 X95.823 Y118.277 E15.89671
G1 X96.758 Y118.277 E15.92242
G1 X87.312 Y127.723 E16.28965
G1 X88.247 Y127.723 E16.31535
G1 X97.693 Y118.277 E16.68258
G1 X98.628 Y118.277 E16.70828
G1 X89.182 Y127.723 E17.07551
G1 X90.117 Y127.723 E17.10122
G1 X99.563 Y118.277 E17.46844
G1 X100.498 Y118.277 E17.49415
G1 X91.052 Y127.723 E17.86138
G1 X91.987 Y127.723 E17.88708
G1 X100.723 Y118.987 E18.22669
G1 X100.723 Y119.923 E18.25240
G1 X92.923 Y127.723 E18.55565
G1 X93.858 Y127.723 E18.58136
G1 X100.723 Y120.858 E18.84826
G1 X100.723 Y121.793 E18.87396
G1 X94.793 Y127.723 E19.10451
G1 X95.728 Y127.723 E19.13022
G1 X100.723 Y122.728 E19.32441
G1 X100.723 Y123.663 E19.35011
G1 X96.663 Y127.723 E19.50795
G1 X97.598 Y127.723 E19.53365
G1 X100.723 Y124.598 E19.65514
G1 X100.723 Y125.533 E19.68084
G1 X98.533 Y127.723 E19.76597
G1 X99.468 Y127.723 E19.79168
G1 X100.723 Y126.468 E19.84045
G1 X100.723 Y127.403 E19.86615
G1 X100.403 Y127.723 E19.87857
G1 E17.87857 F2400.00000
G92 E0
G1 X80.123 Y88.877 F7800.000
G1 E2.00000 F2400.00000
G1 X101.123 Y88.877 E2.57496 F3600.000
G1 X101.123 Y99.123 E2.85548
G1 X78.877 Y99.123 E3.46454
G1 X78.877 Y78.877 E4.01885
G1 X80.123 Y78.877 E4.05296
G1 X80.123 Y88.817 E4.32511
G1 X80.781 Y88.219 F7800.000
G1 X101.781 Y88.219 E4.90007 F3600.000
G1 X101.781 Y99.781 E5.21665
G1 X78.219 Y99.781 E5.86177
G1 X78.219 Y78.219 E6.45214
G1 X101.781 Y78.219 E7.09727
G1 X101.781 Y78.781 E7.11268
G1 X80.781 Y78.781 E7.68764
G1 X80.781 Y88.159 E7.94437
G1 X81.300 Y87.700 F7800.000
G1 X102.300 Y87.700 E8.27487 F1800.000
G1 X102.300 Y100.300 E8.47316
G1 X77.700 Y100.300 E8.86032
G1 X77.700 Y77.700 E9.21599
G1 X102.300 Y77.700 E9.60314
G1 X102.300 Y79.300 E9.62832
G1 X81.300 Y79.300 E9.95882
G1 X81.300 Y87.640 E10.09007
G1 X81.300 Y88.100 F7800.000
G1 X79.500 Y89.206 F7800.000
G1 X79.500 Y79.206 E10.64657 F1200.000
G1 X79.596 Y89.606 F7800.000
G1 X79.277 Y89.926 E10.65899 F1200.000
G1 X79.277 Y90.861 E10.68469
G1 X80.861 Y89.277 E10.74626
G1 X81.796 Y89.277 E10.77197
G1 X79.277 Y91.796 E10.86990
G1 X79.277 Y92.731 E10.89560
G1 X82.731 Y89.277 E11.02988
G1 X83.666 Y89.277 E11.05559
G1 X79.277 Y93.666 E11.22623
G1 X79.277 Y94.601 E11.25193
G1 X84.601 Y89.277 E11.45892
G1 X85.536 Y89.277 E11.48463
G1 X79.277 Y95.536 E11.72797
G1 X79.277 Y96.472 E11.75368
G1 X86.471 Y89.277 E12.03338
G1 X87.407 Y89.277 E12.05908
G1 X79.277 Y97.407 E12.37514
G1 X79.277 Y98.342 E12.40084
G1 X88.342 Y89.277 E12.75325
G1 X89.277 Y89.277 E12.77896
G1 X79.831 Y98.723 E13.14618
G1 X80.766 Y98.723 E13.17189
G1 X90.212 Y89.277 E13.53912
G1 X91.147 Y89.277 E13.56482
G1 X81.701 Y98.723 E13.93205
G1 X82.636 Y98.723 E13.95776
G1 X92.082 Y89.277 E14.32498
G1 X93.017 Y89.277 E14.35069
